;PYCAM-META-DATA: Filename: C:\Users\abarry\Documents\CAD\Rev3\CAM\cameraCowlForCAM2.STL
;PYCAM-META-DATA: Timestamp: 2012-01-04 10:20:19.605000
;PYCAM-META-DATA: Version: 0.5.1
;Estimated machine time: 15 minutes
G40 (disable tool radius compensation)
G49 (disable tool length compensation)
G80 (cancel modal motion)
G54 (select coordinate system 1)
G90 (disable incremental moves)
G21 (metric)
G61 (exact path mode)
F200.00000
S1000.00000
;PYCAM_TOOLPATH_SETTINGS: START
;[Bounds]
;maxz = 31.75684
;maxx = 38.64044
;maxy = 23.42584
;minx = 1.60683777
;miny = 1.60683777
;minz = 0.0068379
;
;[Tool]
;torus_radius = 0.25
;speed = 1000.0
;shape = CylindricalCutter
;tool_radius = 1.6
;feedrate = 200.0
;
;[Process]
;generator = PushCutter
;pocketing_type = none
;engrave_offset = 0.0
;milling_style = ignore
;path_direction = x
;step_down = 1.5
;postprocessor = ContourCutter
;material_allowance = 0.2
;
;PYCAM_TOOLPATH_SETTINGS: END
T1 M6
G0 Z38.0000
 X12.5111 Y1.6068
G1 Z31.7568
 X9.9014 Y4.0312
 X8.3301 Y6.4555
 X7.4046 Y8.8798
 X6.9851 Y11.3042
 X7.0109 Y13.7285
 X7.4895 Y16.1528
 X8.4874 Y18.5772
 X10.1256 Y21.0015
 X12.8899 Y23.4258
 X27.4255
 X30.1748 Y21.0015
 X31.8379 Y18.5772
 X32.8327 Y16.1528
 X33.3105 Y13.7285
 X33.3347 Y11.3042
 X32.9136 Y8.8798
 X31.9802 Y6.4555
 X30.4183 Y4.0312
 X27.8201 Y1.6068
 X12.5111
G0 Z38.0000
 X15.3940 Y4.0312
G1 Z31.7568
 X12.5744 Y6.4555
 X11.1964 Y8.8798
 X10.6040 Y11.3042
 X10.6286 Y13.7285
 X11.3142 Y16.1528
 X12.7996 Y18.5772
 X15.8970 Y21.0015
 X24.4153
 X27.5098 Y18.5772
 X29.0032 Y16.1528
 X29.6862 Y13.7285
 X29.7164 Y11.3042
 X29.1178 Y8.8798
 X27.7310 Y6.4555
 X24.9359 Y4.0312
 X15.3940
G0 Z38.0000
 X12.4452 Y23.4258
G1 Z30.3137
 X9.5237 Y21.0015
 X7.8898 Y18.5772
 X7.0229 Y16.1528
 X6.6037 Y13.7285
 X6.5835 Y11.3042
 X6.9522 Y8.8798
 X7.7692 Y6.4555
 X9.3096 Y4.0312
 X12.0607 Y1.6068
 X28.2557
 X31.0077 Y4.0312
 X32.5370 Y6.4555
 X33.3650 Y8.8798
 X33.7323 Y11.3042
 X33.7097 Y13.7285
 X33.2923 Y16.1528
 X32.4326 Y18.5772
 X30.7819 Y21.0015
 X27.8693 Y23.4258
 X12.4452
G0 Z38.0000
 X17.4905 Y21.0015
G1 Z30.3137
 X13.5841 Y18.5772
 X11.9555 Y16.1528
 X11.2336 Y13.7285
 X11.2026 Y11.3042
 X11.8573 Y8.8798
 X13.3706 Y6.4555
 X16.8406 Y4.0312
 X23.4999
 X26.9322 Y6.4555
 X28.4521 Y8.8798
 X29.1087 Y11.3042
 X29.0746 Y13.7285
 X28.3516 Y16.1528
 X26.7192 Y18.5772
 X22.8178 Y21.0015
 X17.4905
G0 Z38.0000
 X11.5699 Y1.6068
G1 Z28.8705
 X8.6460 Y4.0312
 X7.2371 Y6.4555
 X6.5186 Y8.8798
 X6.1806 Y11.3042
 X6.1994 Y13.7285
 X6.5649 Y16.1528
 X7.3502 Y18.5772
 X8.9043 Y21.0015
 X11.9513 Y23.4258
 X28.3299
 X31.4388 Y21.0015
 X32.9763 Y18.5772
 X33.7456 Y16.1528
 X34.1090 Y13.7285
 X34.1316 Y11.3042
 X33.7946 Y8.8798
 X33.0658 Y6.4555
 X31.6612 Y4.0312
 X28.7418 Y1.6068
 X11.5699
G0 Z38.0000
 X19.1318 Y4.0312
G1 Z28.8705
 X14.1657 Y6.4555
 X12.4855 Y8.8798
 X11.7774 Y11.3042
 X11.8068 Y13.7285
 X12.5780 Y16.1528
 X14.3716 Y18.5772
 X25.9286
 X27.7224 Y16.1528
 X28.4946 Y13.7285
 X28.5230 Y11.3042
 X27.8125 Y8.8798
 X26.1294 Y6.4555
 X21.1644 Y4.0312
 X19.1318
G0 Z38.0000
 X11.4492 Y23.4258
G1 Z27.4273
 X8.1877 Y21.0015
 X6.8061 Y18.5772
 X6.1255 Y16.1528
 X5.7951 Y13.7285
 X5.7781 Y11.3042
 X6.0784 Y8.8798
 X6.7166 Y6.4555
 X7.9293 Y4.0312
 X11.0699 Y1.6068
 X29.2541
 X32.3653 Y4.0312
 X33.5919 Y6.4555
 X34.2239 Y8.8798
 X34.5307 Y11.3042
 X34.5121 Y13.7285
 X34.1857 Y16.1528
 X33.4979 Y18.5772
 X32.1371 Y21.0015
 X28.8593 Y23.4258
 X11.4492
G0 Z38.0000
 X15.1545 Y18.5772
G1 Z27.4273
 X13.1674 Y16.1528
 X12.3395 Y13.7285
 X12.3132 Y11.3042
 X13.0808 Y8.8798
 X14.9659 Y6.4555
 X25.3263
 X27.2095 Y8.8798
 X27.9768 Y11.3042
 X27.9513 Y13.7285
 X27.1242 Y16.1528
 X25.1332 Y18.5772
 X15.1545
G0 Z38.0000
 X10.4953 Y1.6068
G1 Z25.9841
 X7.1782 Y4.0312
 X6.2120 Y6.4555
 X5.6401 Y8.8798
 X5.3760 Y11.3042
 X5.3908 Y13.7285
 X5.6932 Y16.1528
 X6.2777 Y18.5772
 X7.4017 Y21.0015
 X10.8865 Y23.4258
 X29.4076
 X32.9096 Y21.0015
 X34.0253 Y18.5772
 X34.6221 Y16.1528
 X34.9138 Y13.7285
 X34.9294 Y11.3042
 X34.6514 Y8.8798
 X34.0962 Y6.4555
 X33.1271 Y4.0312
 X29.8119 Y1.6068
 X10.4953
G0 Z38.0000
 X15.7598 Y6.4555
G1 Z25.9841
 X13.6368 Y8.8798
 X12.8026 Y11.3042
 X12.8248 Y13.7285
 X13.7091 Y16.1528
 X15.9397 Y18.5772
 X24.3413
 X26.5735 Y16.1528
 X27.4565 Y13.7285
 X27.4771 Y11.3042
 X26.6426 Y8.8798
 X24.5208 Y6.4555
 X15.7598
G0 Z38.0000
 X10.2661 Y23.4258
G1 Z24.5409
 X6.6408 Y21.0015
 X5.7705 Y18.5772
 X5.2550 Y16.1528
 X4.9866 Y13.7285
 X4.9738 Y11.3042
 X5.2149 Y8.8798
 X5.7262 Y6.4555
 X6.5046 Y4.0312
 X9.8981 Y1.6068
 X30.4362
 X33.7974 Y4.0312
 X34.5800 Y6.4555
 X35.0839 Y8.8798
 X35.3282 Y11.3042
 X35.3156 Y13.7285
 X35.0542 Y16.1528
 X34.5315 Y18.5772
 X33.6612 Y21.0015
 X30.0289 Y23.4258
 X10.2661
G0 Z38.0000
 X16.7217 Y18.5772
G1 Z24.5409
 X14.1978 Y16.1528
 X13.2542 Y13.7285
 X13.2383 Y11.3042
 X14.1409 Y8.8798
 X16.5615 Y6.4555
 X23.7066
 X26.1311 Y8.8798
 X27.0327 Y11.3042
 X27.0182 Y13.7285
 X26.0761 Y16.1528
 X23.5460 Y18.5772
 X16.7217
G0 Z38.0000
 X9.2000 Y1.6068
G1 Z23.0977
 X5.9016 Y4.0312
 X5.2275 Y6.4555
 X4.7871 Y8.8798
 X4.5741 Y11.3042
 X4.5842 Y13.7285
 X4.8240 Y16.1528
 X5.2828 Y18.5772
 X5.9828 Y21.0015
 X9.5892 Y23.4258
 X30.6865
 X34.3160 Y21.0015
 X35.0272 Y18.5772
 X35.4823 Y16.1528
 X35.7068 Y13.7285
 X35.7247 Y11.3042
 X35.5013 Y8.8798
 X35.0614 Y6.4555
 X34.3972 Y4.0312
 X31.0880 Y1.6068
 X9.2000
G0 Z38.0000
 X17.4051 Y6.4555
G1 Z23.0977
 X14.5803 Y8.8798
 X13.6192 Y11.3042
 X13.6219 Y13.7285
 X14.6112 Y16.1528
 X17.5492 Y18.5772
 X22.7265
 X25.6394 Y16.1528
 X26.6332 Y13.7285
 X26.6489 Y11.3042
 X25.6848 Y8.8798
 X22.8543 Y6.4555
 X17.4051
G0 Z38.0000
 X8.8609 Y23.4258
G1 Z21.6546
 X5.3947 Y21.0015
 X4.8024 Y18.5772
 X4.3960 Y16.1528
 X4.1854 Y13.7285
 X4.1751 Y11.3042
 X4.3712 Y8.8798
 X4.7495 Y6.4555
 X5.3437 Y4.0312
 X8.4342 Y1.6068
 X31.8495
 X34.9519 Y4.0312
 X35.5304 Y6.4555
 X35.9243 Y8.8798
 X36.1205 Y11.3042
 X36.1058 Y13.7285
 X35.9038 Y16.1528
 X35.5137 Y18.5772
 X34.9008 Y21.0015
 X31.4544 Y23.4258
 X8.8609
G0 Z38.0000
 X18.3517 Y18.5772
G1 Z21.6546
 X14.9581 Y16.1528
 X13.9180 Y13.7285
 X13.9062 Y11.3042
 X14.9368 Y8.8798
 X18.2793 Y6.4555
 X21.9737
 X25.3083 Y8.8798
 X26.3384 Y11.3042
 X26.3417 Y13.7285
 X25.3018 Y16.1528
 X21.9068 Y18.5772
 X18.3517
G0 Z38.0000
 X7.5948 Y1.6068
G1 Z20.2114
 X4.8063 Y4.0312
 X4.2825 Y6.4555
 X3.9477 Y8.8798
 X3.7765 Y11.3042
 X3.7842 Y13.7285
 X3.9627 Y16.1528
 X4.3219 Y18.5772
 X4.8506 Y21.0015
 X7.9977 Y23.4258
 X32.3122
 X35.4418 Y21.0015
 X35.9768 Y18.5772
 X36.3255 Y16.1528
 X36.5048 Y13.7285
 X36.5159 Y11.3042
 X36.3474 Y8.8798
 X36.0058 Y6.4555
 X35.4861 Y4.0312
 X32.6763 Y1.6068
 X7.5948
G0 Z38.0000
 X7.0432 Y23.4258
G1 Z18.7682
 X4.3029 Y21.0015
 X3.8596 Y18.5772
 X3.5479 Y16.1528
 X3.3829 Y13.7285
 X3.3783 Y11.3042
 X3.5241 Y8.8798
 X3.8234 Y6.4555
 X4.2755 Y4.0312
 X6.6154 Y1.6068
 X33.6300
 X36.0136 Y4.0312
 X36.4551 Y6.4555
 X36.7630 Y8.8798
 X36.9108 Y11.3042
 X36.9037 Y13.7285
 X36.7472 Y16.1528
 X36.4465 Y18.5772
 X35.9862 Y21.0015
 X33.2557 Y23.4258
 X7.0432
G0 Z38.0000
 X5.5169 Y1.6068
G1 Z17.3250
 X3.7601 Y4.0312
 X3.3669 Y6.4555
 X3.1093 Y8.8798
 X2.9805 Y11.3042
 X2.9817 Y13.7285
 X3.1241 Y16.1528
 X3.3954 Y18.5772
 X3.7896 Y21.0015
 X5.9428 Y23.4258
 X34.3640
 X36.4963 Y21.0015
 X36.8982 Y18.5772
 X37.1689 Y16.1528
 X37.3027 Y13.7285
 X37.3054 Y11.3042
 X37.1766 Y8.8798
 X36.9151 Y6.4555
 X36.5258 Y4.0312
 X34.7346 Y1.6068
 X5.5169
G0 Z38.0000
 X4.6517 Y23.4258
G1 Z15.8818
 X3.2806 Y21.0015
 X2.9373 Y18.5772
 X2.7038 Y16.1528
 X2.5848 Y13.7285
 X2.5816 Y11.3042
 X2.6871 Y8.8798
 X2.9148 Y6.4555
 X3.2580 Y4.0312
 X4.3476 Y1.6068
 X35.9351
 X37.0247 Y4.0312
 X37.3679 Y6.4555
 X37.5913 Y8.8798
 X37.7038 Y11.3042
 X37.6979 Y13.7285
 X37.5788 Y16.1528
 X37.3454 Y18.5772
 X37.0021 Y21.0015
 X35.6310 Y23.4258
 X4.6517
G0 Z38.0000
 X3.4903 Y1.6068
G1 Z14.4387
 X2.7620 Y4.0312
 X2.4745 Y6.4555
 X2.2767 Y8.8798
 X2.1862 Y11.3042
 X2.1856 Y13.7285
 X2.2899 Y16.1528
 X2.4866 Y18.5772
 X2.7871 Y21.0015
 X3.6288 Y23.4258
 X36.6506
 X37.5005 Y21.0015
 X37.7928 Y18.5772
 X37.9965 Y16.1528
 X38.0843 Y13.7285
 X38.0981 Y11.3042
 X37.9945 Y8.8798
 X37.8050 Y6.4555
 X37.5071 Y4.0312
 X36.7892 Y1.6068
 X3.4903
G0 Z38.0000
 X2.8583 Y23.4258
G1 Z12.9955
 X2.3047 Y21.0015
 X2.0404 Y18.5772
 X1.8797 Y16.1528
 X1.7847 Y13.7285
 X1.7964 Y11.3042
 X1.8662 Y8.8798
 X2.0318 Y6.4555
 X2.2793 Y4.0312
 X2.7787 Y1.6068
 X37.4976
 X37.9851 Y4.0312
 X38.2445 Y6.4555
 X38.4011 Y8.8798
 X38.4925 Y11.3042
 X38.4695 Y13.7285
 X38.4044 Y16.1528
 X38.2358 Y18.5772
 X37.9889 Y21.0015
 X37.4179 Y23.4258
 X2.8583
G0 Z38.0000
 X2.1490 Y1.6068
G1 Z11.5523
 X1.8062 Y4.0312
 X38.4589
 X38.1240 Y1.6068
 X2.1490
G0 Z38.0000
 X1.8229 Y21.0015
G1 Z11.5523
 X2.1946 Y23.4258
 X38.0785
 X38.4578 Y21.0015
 X1.8229
G0 Z38.0000
G0 Z38.0000
M2 (end program)
