;PYCAM-META-DATA: Filename: /home/abarry/MIT/RLG/robotlib3/robots/Plane/CAD/Rev3/CAM/cameraCowlForCAM3.STL
;PYCAM-META-DATA: Timestamp: 2012-01-06 11:31:58.231276
;PYCAM-META-DATA: Version: 0.5.1
;Estimated machine time: 39 minutes
G40 (disable tool radius compensation)
G49 (disable tool length compensation)
G80 (cancel modal motion)
G54 (select coordinate system 1)
G90 (disable incremental moves)
G21 (metric)
G61 (exact path mode)
F152.00000
S1000.00000
;PYCAM_TOOLPATH_SETTINGS: START
;[Bounds]
;maxz = 31.7568397522
;maxx = 57.5672359458
;maxy = 42.3615689604
;minx = -17.3199616215
;miny = -12.2488591029
;minz = 0.00683790026233
;
;[Tool]
;torus_radius = 0.25
;speed = 1000.0
;shape = CylindricalCutter
;tool_radius = 2.79
;feedrate = 152.0
;
;[Process]
;engrave_offset = 0.0
;step_down = 1.5
;generator = PushCutter
;postprocessor = ContourCutter
;overlap_percent = 20
;milling_style = ignore
;material_allowance = 0.2
;pocketing_type = none
;path_direction = x
;
;PYCAM_TOOLPATH_SETTINGS: END
T1 M6
G0 Z35.0000
M3 (start spindle)
G04 P3 (wait for 3 seconds)
 X10.1388 Y4.5543
G1 Z31.7568
 X7.1355 Y8.7552
 X5.8892 Y12.9560
 X5.9245 Y17.1568
 X7.2650 Y21.3576
 X10.4255 Y25.5584
 X29.8691
 X33.0446 Y21.3576
 X34.3885 Y17.1568
 X34.4430 Y12.9560
 X33.1944 Y8.7552
 X30.1704 Y4.5543
 X10.1388
G0 Z35.0000
 X14.4192 Y8.7552
G1 Z31.7568
 X11.9663 Y12.9560
 X12.0354 Y17.1568
 X14.7263 Y21.3576
 X25.5881
 X28.2811 Y17.1568
 X28.3625 Y12.9560
 X25.9140 Y8.7552
 X14.4192
G0 Z35.0000
 X9.8331 Y25.5584
G1 Z30.3137
 X6.6995 Y21.3576
 X5.5079 Y17.1568
 X5.4767 Y12.9560
 X6.5873 Y8.7552
 X9.5650 Y4.5543
 X30.7506
 X33.7285 Y8.7552
 X34.8513 Y12.9560
 X34.8010 Y17.1568
 X33.5919 Y21.3576
 X30.4746 Y25.5584
 X9.8331
G0 Z35.0000
 X15.6983 Y21.3576
G1 Z30.3137
 X12.6500 Y17.1568
 X12.5821 Y12.9560
 X15.3682 Y8.7552
 X24.9372
 X27.7283 Y12.9560
 X27.6557 Y17.1568
 X24.6293 Y21.3576
 X15.6983
G0 Z35.0000
 X17.8796 Y0.3535
G1 Z28.8705
 X8.9478 Y4.5543
 X6.0547 Y8.7552
 X5.0616 Y12.9560
 X5.0914 Y17.1568
 X6.1596 Y21.3576
 X9.2100 Y25.5584
 X31.0756
 X34.1479 Y21.3576
 X35.2135 Y17.1568
 X35.2568 Y12.9560
 X34.2560 Y8.7552
 X31.3702 Y4.5543
 X22.4375 Y0.3535
 X17.8796
G0 Z35.0000
 X16.3817 Y8.7552
G1 Z28.8705
 X13.1793 Y12.9560
 X13.2398 Y17.1568
 X16.7312 Y21.3576
 X23.5688
 X27.0638 Y17.1568
 X27.1228 Y12.9560
 X23.9187 Y8.7552
 X16.3817
G0 Z35.0000
 X18.3603 Y29.7592
G1 Z27.4273
 X8.5614 Y25.5584
 X5.6178 Y21.3576
 X4.6758 Y17.1568
 X4.6513 Y12.9560
 X5.5428 Y8.7552
 X8.3034 Y4.5543
 X16.8309 Y0.3535
 X23.4729
 X32.0020 Y4.5543
 X34.7657 Y8.7552
 X35.6595 Y12.9560
 X35.6256 Y17.1568
 X34.6844 Y21.3576
 X31.7470 Y25.5584
 X21.9381 Y29.7592
 X18.3603
G0 Z35.0000
 X18.0353 Y21.3576
G1 Z27.4273
 X13.7906 Y17.1568
 X13.7354 Y12.9560
 X17.5954 Y8.7552
 X22.6946
 X26.5546 Y12.9560
 X26.4994 Y17.1568
 X22.2545 Y21.3576
 X18.0353
G0 Z35.0000
 X15.9130 Y0.3535
G1 Z25.9841
 X7.5982 Y4.5543
 X5.0463 Y8.7552
 X4.2457 Y12.9560
 X4.2639 Y17.1568
 X5.1051 Y21.3576
 X7.8803 Y25.5584
 X16.9986 Y29.7592
 X23.3066
 X32.4343 Y25.5584
 X35.2001 Y21.3576
 X36.0382 Y17.1568
 X36.0606 Y12.9560
 X35.2590 Y8.7552
 X32.7070 Y4.5543
 X24.3932 Y0.3535
 X15.9130
G0 Z35.0000
 X20.1321 Y8.7552
G1 Z25.9841
 X14.2467 Y12.9560
 X14.2945 Y17.1568
 X25.9912
 X26.0316 Y12.9560
 X20.2047 Y8.7552
 X20.1321
G0 Z35.0000
 X15.9721 Y29.7592
G1 Z24.5409
 X7.1380 Y25.5584
 X4.6047 Y21.3576
 X3.8556 Y17.1568
 X3.8419 Y12.9560
 X4.5561 Y8.7552
 X6.8675 Y4.5543
 X15.0802 Y0.3535
 X25.2289
 X33.4342 Y4.5543
 X35.7459 Y8.7552
 X36.4606 Y12.9560
 X36.4459 Y17.1568
 X35.6973 Y21.3576
 X33.1660 Y25.5584
 X24.3339 Y29.7592
 X15.9721
G0 Z35.0000
 X14.7499 Y17.1568
G1 Z24.5409
 X14.7049 Y12.9560
 X25.5560
 X25.5290 Y17.1568
 X14.7499
G0 Z35.0000
 X14.2888 Y0.3535
G1 Z23.0977
 X6.0597 Y4.5543
 X4.0635 Y8.7552
 X3.4399 Y12.9560
 X3.4494 Y17.1568
 X4.1214 Y21.3576
 X6.3258 Y25.5584
 X15.0623 Y29.7592
 X25.2467
 X33.9767 Y25.5584
 X36.1884 Y21.3576
 X36.8492 Y17.1568
 X36.8623 Y12.9560
 X36.2235 Y8.7552
 X34.2118 Y4.5543
 X25.9781 Y0.3535
 X14.2888
G0 Z35.0000
 X15.1182 Y12.9560
G1 Z23.0977
 X15.1341 Y17.1568
 X25.1173
 X25.1530 Y12.9560
 X15.1182
G0 Z35.0000
 X14.2316 Y29.7592
G1 Z21.6546
 X5.4871 Y25.5584
 X3.6401 Y21.3576
 X3.0428 Y17.1568
 X3.0382 Y12.9560
 X3.5810 Y8.7552
 X5.2353 Y4.5543
 X13.5275 Y0.3535
 X26.8096
 X35.0603 Y4.5543
 X36.6891 Y8.7552
 X37.2649 Y12.9560
 X37.2510 Y17.1568
 X36.6794 Y21.3576
 X34.8139 Y25.5584
 X26.1491 Y29.7592
 X14.2316
G0 Z35.0000
 X15.4444 Y17.1568
G1 Z21.6546
 X15.4364 Y12.9560
 X24.8178
 X24.8089 Y17.1568
 X15.4444
G0 Z35.0000
 X12.6978 Y0.3535
G1 Z20.2114
 X4.4551 Y4.5543
 X3.1222 Y8.7552
 X2.6341 Y12.9560
 X2.6362 Y17.1568
 X3.1588 Y21.3576
 X4.6276 Y25.5584
 X13.2995 Y29.7592
 X26.9752
 X35.6647 Y25.5584
 X37.1394 Y21.3576
 X37.6519 Y17.1568
 X37.6675 Y12.9560
 X37.1643 Y8.7552
 X35.8373 Y4.5543
 X27.5980 Y0.3535
 X12.6978
G0 Z35.0000
 X15.6029 Y12.9560
G1 Z20.2114
 Y17.1568
 X24.6444
 Y12.9560
 X15.6029
G0 Z35.0000
 X12.3984 Y29.7592
G1 Z18.7682
 X3.8690 Y25.5584
 X2.6924 Y21.3576
 X2.2295 Y17.1568
 X2.2301 Y12.9560
 X2.6519 Y8.7552
 X3.7462 Y4.5543
 X11.9272 Y0.3535
 X28.4072
 X36.5430 Y4.5543
 X37.6254 Y8.7552
 X38.0697 Y12.9560
 X38.0532 Y17.1568
 X37.6125 Y21.3576
 X36.4201 Y25.5584
 X27.8637 Y29.7592
 X12.3984
G0 Z35.0000
 X15.6029 Y17.1568
G1 Z18.7682
 Y12.9560
 X24.6444
 Y17.1568
 X15.6029
G0 Z35.0000
 X11.0869 Y0.3535
G1 Z17.3250
 X3.0895 Y4.5543
 X2.2016 Y8.7552
 X1.8260 Y12.9560
 X1.8258 Y17.1568
 X2.2314 Y21.3576
 X3.1771 Y25.5584
 X11.5127 Y29.7592
 X28.7624
 X37.1087 Y25.5584
 X38.0651 Y21.3576
 X38.4544 Y17.1568
 X38.4655 Y12.9560
 X38.0815 Y8.7552
 X37.1965 Y4.5543
 X29.1990 Y0.3535
 X11.0869
G0 Z35.0000
 X15.6029 Y12.9560
G1 Z17.3250
 Y17.1568
 X24.6444
 Y12.9560
 X15.6029
G0 Z35.0000
 X10.6112 Y29.7592
G1 Z15.8818
 X2.5358 Y25.5584
 X1.7691 Y21.3576
 X1.4266 Y17.1568
 X1.4220 Y12.9560
 X1.7511 Y8.7552
 X2.4746 Y4.5543
 X10.1705 Y0.3535
 X30.1122
 X37.8081 Y4.5543
 X38.5316 Y8.7552
 X38.8611 Y12.9560
 X38.8557 Y17.1568
 X38.5140 Y21.3576
 X37.7469 Y25.5584
 X29.6715 Y29.7592
 X10.6112
G0 Z35.0000
 X15.6029 Y17.1568
G1 Z15.8818
 Y12.9560
 X24.6444
 Y17.1568
 X15.6029
G0 Z35.0000
 X9.2734 Y0.3535
G1 Z14.4387
 X1.8954 Y4.5543
 X1.3076 Y8.7552
 X1.0176 Y12.9560
 X1.0221 Y17.1568
 X1.3175 Y21.3576
 X1.9360 Y25.5584
 X9.6112 Y29.7592
 X30.6032
 X38.3435 Y25.5584
 X38.9622 Y21.3576
 X39.2574 Y17.1568
 X39.2619 Y12.9560
 X38.9751 Y8.7552
 X38.3841 Y4.5543
 X31.0345 Y0.3535
 X9.2734
G0 Z35.0000
 X15.6029 Y12.9560
G1 Z14.4387
 Y17.1568
 X24.6444
 Y12.9560
 X15.6029
G0 Z35.0000
 X8.6588 Y29.7592
G1 Z12.9955
 X1.3723 Y25.5584
 X0.8695 Y21.3576
 X0.6176 Y17.1568
 X0.6135 Y12.9560
 X0.8719 Y8.7552
 X1.3480 Y4.5543
 X8.2679 Y0.3535
 X31.9550
 X38.9283 Y4.5543
 X39.4188 Y8.7552
 X39.6627 Y12.9560
 X39.6586 Y17.1568
 X39.4001 Y21.3576
 X38.9039 Y25.5584
 X31.6441 Y29.7592
 X8.6588
G0 Z35.0000
 X15.6029 Y17.1568
G1 Z12.9955
 Y12.9560
 X24.6444
 Y17.1568
 X15.6029
G0 Z35.0000
 X7.2661 Y0.3535
G1 Z11.5523
 X0.8300 Y4.5543
 X0.4356 Y8.7552
 X0.2111 Y12.9560
 X0.2131 Y17.1568
 X0.4359 Y21.3576
 X0.8416 Y25.5584
 X7.5805 Y29.7592
 X32.7020
 X39.4314 Y25.5584
 X39.8329 Y21.3576
 X40.0599 Y17.1568
 X40.0619 Y12.9560
 X39.8444 Y8.7552
 X39.4429 Y4.5543
 X32.9889 Y0.3535
 X7.2661
G0 Z35.0000
 X15.6029 Y12.9560
G1 Z11.5523
 Y17.1568
 X24.6444
 Y12.9560
 X15.6029
G0 Z35.0000
 X6.4869 Y29.7592
G1 Z10.1091
 X0.3402 Y25.5584
 X0.0026 Y21.3576
 X-0.1847 Y17.1568
 X-0.1855 Y12.9560
 X-0.0007 Y8.7552
 X0.3217 Y4.5543
 X6.1844 Y0.3535
 X34.0716
 X39.9358 Y4.5543
 X40.2712 Y8.7552
 X40.4554 Y12.9560
 X40.4545 Y17.1568
 X40.2666 Y21.3576
 X39.9381 Y25.5584
 X33.8116 Y29.7592
 X6.4869
G0 Z35.0000
 X15.6029 Y17.1568
G1 Z10.1091
 Y12.9560
 X24.6444
 Y17.1568
 X15.6029
G0 Z35.0000
 X5.0339 Y0.3535
G1 Z8.6659
 X-0.1715 Y4.5543
 X-0.4370 Y8.7552
 X-0.5822 Y12.9560
 X-0.5814 Y17.1568
 X-0.4343 Y21.3576
 X-0.1560 Y25.5584
 X5.3119 Y29.7592
 X34.9926
 X40.4328 Y25.5584
 X40.7002 Y21.3576
 X40.8480 Y17.1568
 X40.8488 Y12.9560
 X40.7043 Y8.7552
 X40.4278 Y4.5543
 X35.2065 Y0.3535
 X5.0339
G0 Z35.0000
 X15.6029 Y12.9560
G1 Z8.6659
 Y17.1568
 X24.6444
 Y12.9560
 X15.6029
G0 Z35.0000
 X4.0731 Y29.7592
G1 Z7.2227
 X-0.6422 Y25.5584
 X-0.8710 Y21.3576
 X-0.9782 Y17.1568
 X-0.9788 Y12.9560
 X-0.8673 Y8.7552
 X-0.6567 Y4.5543
 X3.8410 Y0.3535
 X36.3860
 X40.9099 Y4.5543
 X41.1372 Y8.7552
 X41.2422 Y12.9560
 X41.2416 Y17.1568
 X41.1279 Y21.3576
 X40.9157 Y25.5584
 X36.2267 Y29.7592
 X4.0731
G0 Z35.0000
 X15.6029 Y17.1568
G1 Z7.2227
 Y12.9560
 X24.6444
 Y17.1568
 X15.6029
G0 Z35.0000
 X2.5219 Y0.3535
G1 Z5.7796
 X-1.1366 Y4.5543
 X-1.2906 Y8.7552
 X-1.3761 Y12.9560
 Y17.1568
 X-1.3079 Y21.3576
 X-1.1181 Y25.5584
 X2.7732 Y29.7592
 X37.5675
 X41.3951 Y25.5584
 X41.5485 Y21.3576
 X41.6362 Y17.1568
 Y12.9560
 X41.5706 Y8.7552
 X41.3818 Y4.5543
 X37.6493 Y0.3535
 X2.5219
G0 Z35.0000
 X15.6029 Y12.9560
G1 Z5.7796
 Y17.1568
 X24.6444
 Y12.9560
 X15.6029
G0 Z35.0000
 X1.3519 Y29.7592
G1 Z4.3364
 X-1.5963 Y25.5584
 X-1.7312 Y21.3576
 X-1.7778 Y17.1568
 Y12.9560
 X-1.7139 Y8.7552
 X-1.6022 Y4.5543
 X1.2080 Y0.3535
 X39.0298
 X41.8544 Y4.5543
 X41.9881 Y8.7552
 X42.0347 Y12.9560
 Y17.1568
 X41.9692 Y21.3576
 X41.8580 Y25.5584
 X38.9242 Y29.7592
 X1.3519
G0 Z35.0000
 X15.6029 Y17.1568
G1 Z4.3364
 Y12.9560
 X24.6444
 Y17.1568
 X15.6029
G0 Z35.0000
 X-0.1705 Y0.3535
G1 Z2.8932
 X-2.0679 Y4.5543
 X-2.1372 Y8.7552
 X-2.1796 Y12.9560
 Y17.1568
 X-2.1484 Y21.3576
 X-2.0672 Y25.5584
 X-0.1079 Y29.7592
 X40.3616
 X42.3216 Y25.5584
 X42.3898 Y21.3576
 X42.4333 Y17.1568
 Y12.9560
 X42.4021 Y8.7552
 X42.3214 Y4.5543
 X40.4242 Y0.3535
 X-0.1705
G0 Z35.0000
 X15.6029 Y12.9560
G1 Z2.8932
 Y17.1568
 X24.6444
 Y12.9560
 X15.6029
G0 Z35.0000
 X-1.1680 Y29.7592
G1 Z1.4500
 X-2.5255 Y25.5584
 X-2.5657 Y21.3576
 X-2.5813 Y17.1568
 Y12.9560
 X-2.5606 Y8.7552
 X-2.5255 Y4.5543
 X-1.1865 Y0.3535
 X41.4370
 X42.7760 Y4.5543
 X42.8162 Y8.7552
 X42.8318 Y12.9560
 Y17.1568
 X42.8104 Y21.3576
 X42.7760 Y25.5584
 X41.4185 Y29.7592
 X-1.1680
G0 Z35.0000
 X15.6029 Y17.1568
G1 Z1.4500
 Y12.9560
 X24.6444
 Y17.1568
 X15.6029
G0 Z35.0000
 X-2.0253 Y0.3535
G1 Z0.0068
 X-2.9832 Y4.5543
 Y25.5584
 X-2.0253 Y29.7592
 X42.2726
 X43.2304 Y25.5584
 Y4.5543
 X42.2726 Y0.3535
 X-2.0253
G0 Z35.0000
 X15.6029 Y12.9560
G1 Z0.0068
 Y17.1568
 X24.6444
 Y12.9560
 X15.6029
G0 Z35.0000
M5 (stop spindle)
G04 P3 (wait for 3 seconds)
G0 Z35.0000
M2 (end program)
