;PYCAM-META-DATA: Filename: /home/abarry/MIT/RLG/robotlib3/robots/Plane/CAD/Rev3/CAM/cameraCowlForCAM3-no-deephole.STL
;PYCAM-META-DATA: Timestamp: 2012-01-29 23:45:03.349698
;PYCAM-META-DATA: Version: 0.5.1
;Estimated machine time: 15 minutes
G40 (disable tool radius compensation)
G49 (disable tool length compensation)
G80 (cancel modal motion)
G54 (select coordinate system 1)
G90 (disable incremental moves)
G21 (metric)
G64 (continuous mode with maximum speed)
F152.00000
S1000.00000
;PYCAM_TOOLPATH_SETTINGS: START
;[Bounds]
;maxz = 31.75684
;maxx = 41.513800223
;maxy = 30.3634812087
;minx = -1.266522453
;miny = -0.2507732957
;minz = 0.0068379
;
;[Tool]
;torus_radius = 0.25
;speed = 1000.0
;shape = CylindricalCutter
;tool_radius = 2.75
;feedrate = 152.0
;
;[Process]
;engrave_offset = 0.0
;step_down = 3.0
;generator = DropCutter
;postprocessor = PathAccumulator
;milling_style = ignore
;material_allowance = 0.01
;pocketing_type = none
;path_direction = x
;
;PYCAM_TOOLPATH_SETTINGS: END
T2 M6
G0 Z35.0000
M3 (start spindle)
G04 P3 (wait for 3 seconds)
 X-1.2665 Y-0.2508
G1 Z0.0068
 X-0.1631
 X-0.1206 Z0.0470
 X0.7706 Z0.8901
 X1.4497 Z1.5239
 X2.1287 Z2.1472
 X2.8078 Z2.8100
 X3.4868 Z3.5150
 X4.1659 Z4.2581
 X4.8450 Z4.9865
 X5.5240 Z5.7334
 X6.2031 Z6.5072
 X6.8821 Z7.2963
 X7.5612 Z8.0991
 X8.2402 Z8.9658
 X8.9193 Z9.7621
 X9.5983 Z10.6923
 X10.2774 Z11.5906
 X10.9564 Z12.5570
 X11.6355 Z13.4707
 X12.3145 Z14.5120
 X12.9936 Z15.4826
 X13.6726 Z16.4410
 X14.3517 Z17.4573
 X15.0307 Z18.4967
 X15.7098 Z19.3690
 X16.0493 Z19.7987
 X16.2191 Z20.0430
 X16.3040 Z20.1647
 X16.3888 Z20.2742
 X17.0679 Z21.0014
 X17.4074 Z21.3461
 X17.5772 Z21.5278
 X17.6196 Z21.5741
 X17.6621 Z21.6165
 X17.7470 Z21.6892
 X18.0865 Z21.9599
 X18.7655 Z22.4090
 X18.9353 Z22.5011
 X19.0202 Z22.5425
 X19.0414 Z22.5553
 X19.0626 Z22.5666
 X19.1051 Z22.5849
 X19.4446 Z22.6685
 X19.7841 Z22.7582
 X19.9539 Z22.7836
 X19.9963 Z22.7892
 X20.0175 Z22.7897
 X20.0388 Z22.7921
 X20.0600 Z22.7991
 X20.0706 Z22.8020
 X20.0812 Z22.8046
 X20.1024 Z22.8086
 X20.1130 Z22.8100
 X20.1183 Z22.8106
 X20.1236 Z22.8111
 X20.4632 Z22.7369
 X20.9751 Z22.6579
 X20.9764 Z22.6267
 X20.9778 Z22.6265
 X20.9831 Z22.6255
 X20.9884 Z22.6245
 X20.9937 Z22.6233
 X21.0149 Z22.6177
 X21.0361 Z22.6105
 X21.0414 Z22.6085
 X21.0441 Z22.6074
 X21.0454 Z22.6069
 X21.0461 Z22.6066
 X21.0464 Z22.6065
 X21.0467 Z22.6063
 X21.0573 Z22.6042
 X21.0786 Z22.6051
 X21.0892 Z22.6050
 X21.0998 Z22.6046
 X21.1210 Z22.6025
 X21.1316 Z22.6010
 X21.1422 Z22.5991
 X21.4817 Z22.3796
 X21.8213 Z22.1890
 X21.9910 Z22.0607
 X22.0759 Z22.0081
 X22.1184 Z21.9896
 X22.1396 Z21.9827
 X22.1502 Z21.9787
 X22.1555 Z21.9766
 X22.1608 Z21.9744
 X22.5003 Z21.6542
 X22.8398 Z21.3277
 X23.0096 Z21.1514
 X23.1628 Z21.0076
 X23.1635 Z21.0073
 X23.1661 Z21.0060
 X23.1688 Z21.0046
 X23.1794 Z20.9990
 X23.8584 Z20.1894
 X24.1980 Z19.7746
 X24.2828 Z19.6908
 X24.3253 Z19.6554
 X24.3465 Z19.6359
 X24.3677 Z19.6152
 X24.5375 Z19.4085
 X25.2165 Z18.4039
 X25.8956 Z17.4873
 X26.5746 Z16.4788
 X27.2537 Z15.4604
 X27.9327 Z14.5384
 X28.6118 Z13.4843
 X29.2909 Z12.5978
 X29.9699 Z11.6337
 X30.6490 Z10.7273
 X31.3280 Z9.8820
 X32.0071 Z8.9624
 X32.6861 Z8.0908
 X33.3652 Z7.2975
 X34.0442 Z6.4663
 X34.7233 Z5.7338
 X35.4023 Z4.9562
 X36.0814 Z4.2463
 X36.7604 Z3.4958
 X37.4395 Z2.7910
 X38.1185 Z2.1342
 X38.7976 Z1.4682
 X39.4766 Z0.8876
 X39.8162 Z0.5733
 X39.9859 Z0.4192
 X40.4209 Z0.0078
 X40.4223 Z0.0068
 X41.5138
G0 Z35.0000
 Y1.9360
G1 Z3.5355
 X40.8347 Z5.0373
 X40.1557 Z6.4189
 X39.4766 Z7.6733
 X38.7976 Z8.7853
 X38.1185 Z9.7252
 X37.4395 Z10.5268
 X36.7604 Z11.4111
 X36.0814 Z12.2829
 X35.4023 Z13.2280
 X34.7233 Z14.1709
 X34.0442 Z15.2007
 X33.3652 Z16.2426
 X32.6861 Z17.3607
 X32.0071 Z18.5283
 X31.3280 Z19.7295
 X30.6490 Z20.9575
 X29.9699 Z22.3111
 X29.2909 Z23.6771
 X28.6118 Z25.1340
 X27.9327 Z26.7262
 X27.2537 Z28.3023
 X26.5746 Z29.9914
 X26.2351 Z30.8091
 X26.0654 Z31.2548
 X25.9805 Z31.4938
 X25.9380 Z31.6088
 X25.9168 Z31.6651
 X25.9062 Z31.6930
 X25.9009 Z31.7069
 X25.8982 Z31.7138
 X25.8969 Z31.7173
 X25.8963 Z31.7190
 X25.8959 Z31.7199
 X25.8956 Z31.7207
 X25.2165 Z31.7568
 X14.4419
 X14.4366 Z31.7490
 X14.3517 Z31.5459
 X13.6726 Z29.8331
 X12.9936 Z28.1448
 X12.3145 Z26.5964
 X11.6355 Z25.1129
 X10.9564 Z23.5590
 X10.2774 Z22.2193
 X9.5983 Z20.8681
 X8.9193 Z19.6521
 X8.2402 Z18.4553
 X7.5612 Z17.3035
 X6.8821 Z16.2113
 X6.2031 Z15.1938
 X5.5240 Z14.1797
 X4.8450 Z13.2203
 X4.1659 Z12.2789
 X3.4868 Z11.4080
 X2.8078 Z10.5467
 X2.1287 Z9.6984
 X1.4497 Z8.7555
 X0.7706 Z7.6435
 X0.0916 Z6.3911
 X-0.5875 Z5.0135
 X-1.2665 Z3.5175
G0 Z35.0000
 Y4.1227
G1 Z4.6228
 X-0.5875 Z6.6652
 X0.0916 Z8.6553
 X0.7706 Z10.5607
 X1.4497 Z12.3377
 X2.1287 Z13.9884
 X2.8078 Z15.5204
 X3.4868 Z16.9348
 X4.1659 Z18.2269
 X4.8450 Z19.3843
 X5.5240 Z20.4845
 X6.2031 Z21.6238
 X6.8821 Z22.8508
 X7.5612 Z24.0907
 X8.2402 Z25.4467
 X8.9193 Z26.9079
 X9.5983 Z28.4103
 X10.2774 Z30.0319
 X10.6169 Z30.8485
 X10.7867 Z31.2657
 X10.8715 Z31.4713
 X10.9140 Z31.5732
 X10.9352 Z31.6240
 X10.9365 Z31.6272
 X10.9372 Z31.7194
 X10.9511 Z31.7548
G0 Z35.0000
 X10.9564
G1 Z31.6747
 X10.9670 Z31.7000
 X10.9723 Z31.7126
 X10.9750 Z31.7189
 X10.9763 Z31.7221
 X10.9770 Z31.7236
 X10.9776 Z31.7252
 X10.9790 Z31.7284
 X10.9796 Z31.7299
 X10.9800 Z31.7307
 X10.9803 Z31.7315
 X10.9816 Z31.7347
 X10.9823 Z31.7362
 X10.9826 Z31.7568
 X29.2909
 X29.9699 Z30.1767
 X30.6490 Z28.5772
 X31.3280 Z26.9843
 X32.0071 Z25.5696
 X32.6861 Z24.1863
 X33.3652 Z22.9037
 X34.0442 Z21.7055
 X34.7233 Z20.5336
 X35.4023 Z19.4532
 X36.0814 Z18.3005
 X36.7604 Z17.0104
 X37.4395 Z15.5958
 X38.1185 Z14.0618
 X38.7976 Z12.4073
 X39.4766 Z10.6250
 X40.1557 Z8.6984
 X40.8347 Z6.6760
 X41.5138 Z4.6294
G0 Z35.0000
 Y6.3094
G1 Z4.8932
 X40.8347 Z7.0537
 X40.1557 Z9.2039
 X39.4766 Z11.3121
 X38.7976 Z13.3658
 X38.1185 Z15.4044
 X37.4395 Z17.3618
 X36.7604 Z19.2741
 X36.0814 Z21.0953
 X35.4023 Z22.8934
 X34.7233 Z24.5792
 X34.0442 Z26.1455
 X33.3652 Z27.5928
 X32.6861 Z28.9968
 X32.0071 Z30.4408
 X31.8373 Z30.8080
 X31.7524 Z30.9958
 X31.6675 Z31.1872
 X31.5827 Z31.3752
 X31.4185 Z31.7568
G0 Z35.0000
 X31.4182
G1 Z31.7393
 X31.4169 Z31.7568
 X21.1422
 X20.9725 Z31.7197
 X20.8876 Z31.7027
 X20.8451 Z31.6944
 X20.8239 Z31.6897
 X20.8027 Z31.6844
 X20.7815 Z31.6766
 X20.7603 Z31.6710
 X20.7390 Z31.6660
 X20.7337 Z31.6645
 X20.7233 Z31.6626
 X20.7232 Z31.6634
 X20.7231
 X20.7205 Z31.6629
 X20.7191 Z31.6626
 X20.7185 Z31.6624
 X20.7178 Z31.6623
 X20.7072 Z31.6600
 X20.7019 Z31.6588
 X20.6992 Z31.6582
 X20.6979 Z31.6579
 X20.6886 Z31.6562
 X20.6873 Z31.6708
 X20.6687 Z31.6651
 X20.6681 Z31.6524
 X20.6601 Z31.6509
 X20.6595 Z31.6508
 X20.6541 Z31.6506
 X20.6329 Z31.6497
 X20.4632 Z31.6588
 X20.1236 Z31.6635
 X19.7841 Z31.6736
 X19.4446 Z31.7099
 X19.3597 Z31.7387
 X19.3385 Z31.7452
 X19.3279 Z31.7483
 X19.3226 Z31.7499
 X19.3199 Z31.7506
 X19.3173 Z31.7514
 X19.3067 Z31.7544
 X19.3040 Z31.7552
 X19.3027 Z31.7555
 X19.3013 Z31.7559
 X19.3000 Z31.7563
 X19.2994 Z31.7564
 X19.2990 Z31.7565
 X19.2989 Z31.7566
 X19.2988
 X19.2987
 X19.2960 Z31.7568
 X8.9193
 X8.2402 Z30.2908
 X7.5612 Z28.8164
 X6.8821 Z27.4670
 X6.2031 Z26.0162
 X5.5240 Z24.4481
 X4.8450 Z22.7606
 X4.1659 Z20.9695
 X3.4868 Z19.1601
 X2.8078 Z17.2534
 X2.1287 Z15.3069
 X1.4497 Z13.3213
 X0.7706 Z11.2614
 X0.0916 Z9.1710
 X-0.5875 Z7.0445
 X-1.2665 Z4.8580
G0 Z35.0000
 Y8.4962
G1 Z5.0511
 X-0.5875 Z7.3535
 X0.0916 Z9.5937
 X0.7706 Z11.8626
 X1.4497 Z14.0657
 X2.1287 Z16.2585
 X2.8078 Z18.4067
 X3.4868 Z20.4776
 X4.1659 Z22.5295
 X4.8450 Z24.5160
 X5.5240 Z26.4431
 X6.2031 Z28.3162
 X7.2216 Z30.9980
 X7.3914 Z31.4192
 X7.4338 Z31.5263
 X7.4551 Z31.5796
 X7.4657 Z31.6062
 X7.4710 Z31.6195
 X7.4736 Z31.6261
 X7.4750 Z31.6294
 X7.4763 Z31.6328
 X7.4975 Z31.6858
 X7.5081 Z31.7122
 X7.5134 Z31.7254
 X7.5161 Z31.7320
 X7.5174 Z31.7353
 X7.5181 Z31.7370
 X7.5184 Z31.7378
 X7.5187 Z31.7386
 X7.5214 Z31.7452
 X7.5227 Z31.7485
 X7.5234 Z31.7502
 X7.5237 Z31.7510
 X7.5240 Z31.7518
 X7.5254 Z31.7568
 X14.3517
 X15.0307 Z30.7461
 X15.7098 Z29.7497
 X16.3888 Z28.8410
 X17.0679 Z28.0255
 X17.4074 Z27.6503
 X17.5772 Z27.4776
 X17.7470 Z27.3043
 X18.0865 Z26.9929
 X18.2562 Z26.8558
 X18.4260 Z26.7326
 X18.5958 Z26.6083
 X18.6807 Z26.5520
 X18.7655 Z26.4981
 X18.9353 Z26.4028
 X18.9565 Z26.3911
 X18.9797 Z26.3804
 X18.9801 Z26.3931
 X19.0228 Z26.3690
 X19.0242 Z26.3600
 X19.1051 Z26.3227
 X19.2748 Z26.2506
 X19.3597 Z26.2157
 X19.4021 Z26.1995
 X19.4446 Z26.1845
 X19.6143 Z26.1396
 X19.7059 Z26.1193
 X19.7065 Z26.1237
 X19.7788 Z26.1175
 X19.7801 Z26.1029
 X19.7841 Z26.1020
 X19.8690 Z26.0914
 X19.8902 Z26.0878
 X19.9008 Z26.0858
 X19.9114 Z26.0837
 X19.9539 Z26.0801
 X20.0388 Z26.0774
 X20.1236 Z26.0789
 X20.2006 Z26.0875
 X20.2019 Z26.0732
 X20.2032 Z26.0734
 X20.2085 Z26.0739
 X20.2510 Z26.0773
 X20.2934 Z26.0787
 X20.3783 Z26.0858
 X20.4632 Z26.0992
 X20.6329 Z26.1297
 X20.6754 Z26.1387
 X20.6966 Z26.1424
 X20.7072 Z26.1440
 X20.7178 Z26.1463
 X21.0361 Z26.2574
 X21.0467 Z26.2603
 X21.0520 Z26.2621
 X21.0573 Z26.2639
 X21.1422 Z26.3076
 X21.2695 Z26.3617
 X21.3120 Z26.3813
 X21.3969 Z26.4295
 X21.4817 Z26.4787
 X21.6515 Z26.5804
 X21.8213 Z26.7018
 X22.1608 Z26.9625
 X22.5003 Z27.2634
 X23.1794 Z27.9674
 X23.8584 Z28.7765
 X24.5375 Z29.6711
 X25.2165 Z30.6438
 X25.5561 Z31.1537
 X25.7258 Z31.4065
 X25.8107 Z31.5294
 X25.8531 Z31.5912
 X25.8744 Z31.6211
 X25.8850 Z31.6358
 X25.8903 Z31.6431
 X25.8929 Z31.6467
 X25.8943 Z31.6485
 X25.8956 Z31.6503
 X25.9380 Z31.7116
 X25.9486 Z31.7278
 X25.9539 Z31.7359
 X25.9566 Z31.7399
 X25.9579 Z31.7420
 X25.9586 Z31.7430
 X25.9589 Z31.7435
 X25.9591 Z31.7437
 X25.9592 Z31.7438
 Z31.7440
 X25.9646 Z31.7520
 X25.9659 Z31.7540
 X25.9665 Z31.7550
 X25.9669 Z31.7568
 X32.6861
 X33.3652 Z30.3119
 X34.0442 Z28.4806
 X34.7233 Z26.6072
 X35.4023 Z24.6756
 X36.0814 Z22.6497
 X36.7604 Z20.5853
 X37.4395 Z18.4799
 X38.1185 Z16.3596
 X38.7976 Z14.1662
 X39.4766 Z11.9568
 X40.1557 Z9.6845
 X40.8347 Z7.4445
 X41.5138 Z5.1557
G0 Z35.0000
 Y10.6829
G1 Z5.3172
 X40.8347 Z7.7081
 X40.1557 Z10.1158
 X39.4766 Z12.4876
 X38.7976 Z14.8412
 X38.1185 Z17.1565
 X37.4395 Z19.4877
 X36.7604 Z21.7973
 X36.0814 Z24.0566
 X35.4023 Z26.3086
 X34.7233 Z28.4986
 X34.3837 Z29.5822
 X33.8745 Z31.1827
 X33.7896 Z31.4442
 X33.7471 Z31.5737
 X33.7365 Z31.6059
 X33.7259 Z31.6379
 X33.7246 Z31.6419
 X33.7239 Z31.6439
 X33.7236 Z31.6449
 X33.7233 Z31.6457
 Z31.6754
 X33.7047 Z31.7323
 X33.3652 Z31.7568
 X27.7026
 X27.7023 Z31.7405
 X27.5932 Z31.5204
 X27.2537 Z30.8342
 X26.5746 Z29.4498
 X25.8956 Z28.0434
 X25.2165 Z26.5789
 X24.5375 Z25.0169
 X23.8584 Z23.3533
 X23.5189 Z22.4537
 X23.3491 Z21.9296
 X23.3067 Z21.7954
 X23.2855 Z21.7249
 X23.2643 Z21.6609
 X23.2218 Z21.5602
 X23.2006 Z21.5083
 X23.1900 Z21.4866
 X23.1847 Z21.4752
 X23.1820 Z21.4694
 X23.1794 Z21.4635
 X23.0945 Z21.1864
 X23.0521 Z21.0454
 X23.0308 Z20.9784
 X23.0295 Z20.9143
 X23.0282 Z20.9090
 X23.0255 Z20.8980
 X23.0229 Z20.8866
 X23.0202 Z20.8767
 X23.0056 Z20.8352
 X23.0050 Z20.8348
 X17.2589
 X17.2377 Z20.8834
 X17.0679 Z21.4597
 X16.3888 Z23.3900
 X15.7098 Z25.0862
 X15.0307 Z26.6574
 X14.3517 Z28.1450
 X13.6726 Z29.5864
 X13.3331 Z30.2760
 X13.1633 Z30.6104
 X12.9936 Z30.9546
 X12.8238 Z31.3043
 X12.6647 Z31.6276
 X12.6594 Z31.6384
 X12.6541 Z31.6494
 X12.6328 Z31.6936
 X12.6222 Z31.7158
 X12.6116 Z31.7379
 X12.6063 Z31.7489
 X12.6050 Z31.7568
 X6.6275
 X6.5426 Z31.5202
 X6.2031 Z30.4478
 X5.5240 Z28.3008
 X4.8450 Z26.1175
 X4.1659 Z23.8907
 X3.4868 Z21.6000
 X2.1287 Z17.0254
 X1.4497 Z14.6888
 X0.0916 Z10.0090
 X-0.5875 Z7.6197
 X-1.2665 Z5.1988
G0 Z35.0000
 Y12.8696
G1 Z5.3509
 X-0.5875 Z7.7929
 X0.0916 Z10.2558
 X0.7706 Z12.7196
 X1.4497 Z15.1567
 X2.1287 Z17.5653
 X3.4868 Z22.4231
 X4.1659 Z24.8561
 X4.8450 Z27.2588
 X5.5240 Z29.6247
 X5.8635 Z30.8114
 X5.9484 Z31.1076
 X5.9909 Z31.2556
 X6.0121 Z31.3296
 X6.0227 Z31.3666
 X6.0280 Z31.3850
 X6.0333 Z31.4035
 X6.0757 Z31.5514
 X6.0970 Z31.6253
 X6.1076 Z31.6623
 X6.1155 Z31.6900
 X6.1235 Z31.7177
 X6.1314 Z31.7454
 X6.1341 Z31.7547
 X6.1354 Z31.7568
 X11.6355
 X12.3145 Z30.4399
 X12.9936 Z28.7906
 X13.6726 Z27.0113
 X14.3517 Z25.0261
 X14.6912 Z23.8492
 X14.8610 Z23.2663
 X14.9459 Z22.9135
 X15.0307 Z22.5796
 X15.2005 Z21.8025
 X15.2854 Z21.3614
 X15.3278 Z21.0913
 X15.3703 Z20.8537
 X15.7098 Z20.8348
 X24.8770
 X25.2165 Z22.4873
 X25.8956 Z24.9194
 X26.5746 Z26.9063
 X27.2537 Z28.6608
 X27.9327 Z30.2861
 X28.2723 Z31.0721
 X28.5767 Z31.7540
 X28.5770 Z31.7568
 X34.0442
 X34.7233 Z29.8971
 X35.4023 Z27.4919
 X36.0814 Z25.0574
 X36.7604 Z22.6269
 X37.4395 Z20.1796
 X38.1185 Z17.7393
 X38.7976 Z15.2790
 X39.4766 Z12.8222
 X40.1557 Z10.3436
 X40.8347 Z7.8562
 X41.5138 Z5.3942
G0 Z35.0000
 Y15.0564
G1 Z5.4657
 X40.8347 Z7.9540
 X40.1557 Z10.4455
 X39.4766 Z12.9369
 X38.7976 Z15.4281
 X38.1185 Z17.9192
 X37.4395 Z20.4101
 X36.7604 Z22.9009
 X36.0814 Z25.3865
 X35.4023 Z27.8691
 X34.5535 Z30.9721
 X34.3400 Z31.7526
 X34.3387 Z31.7568
 X28.8240
 X28.7816 Z31.6728
 X28.6118 Z31.2734
 X27.9327 Z29.6225
 X27.2537 Z27.8595
 X26.5746 Z25.8900
 X25.8956 Z23.5585
 X25.5561 Z21.9713
 X25.4712 Z21.4981
 X25.4287 Z21.2595
 X25.3624 Z20.8367
 X25.3611 Z20.8348
 X15.0307
 X14.3517 Z23.5724
 X13.6726 Z25.9881
 X12.9936 Z27.9936
 X12.3145 Z29.7692
 X11.9750 Z30.6272
 X11.8052 Z31.0462
 X11.7204 Z31.2472
 X11.6779 Z31.3344
 X11.6567 Z31.3848
 X11.6461 Z31.4098
 X11.6408 Z31.4223
 X11.6381 Z31.4286
 X11.6368 Z31.4317
 X11.6361 Z31.4332
 X11.6355 Z31.4348
 X11.5930 Z31.5339
 X11.5718 Z31.5829
 X11.5612 Z31.6073
 X11.5559 Z31.6195
 X11.5533 Z31.6256
 X11.5506 Z31.6316
 X11.5294 Z31.6800
 X11.5188 Z31.7041
 X11.5135 Z31.7161
 X11.5108 Z31.7221
 X11.5095 Z31.7251
 X11.5088 Z31.7266
 X11.5085 Z31.7274
 X11.5083 Z31.7277
 X11.5082 Z31.7281
 X11.5029 Z31.7401
 X11.5002 Z31.7461
 X11.4989 Z31.7491
 X11.4982 Z31.7505
 X11.4979 Z31.7513
 X11.4977 Z31.7517
 X11.4975 Z31.7520
 X11.4962 Z31.7550
 X11.4956 Z31.7568
 X5.9703
 X5.9696 Z31.7555
 X5.9484 Z31.6783
 X5.8635 Z31.3695
 X5.5240 Z30.1340
 X4.8450 Z27.6619
 X4.1659 Z25.1881
 X3.4868 Z22.7151
 X2.8078 Z20.2445
 X2.1287 Z17.7738
 X1.4497 Z15.3030
 X0.7706 Z12.8319
 X0.0916 Z10.3608
 X-0.5875 Z7.8895
 X-1.2665 Z5.4215
G0 Z35.0000
 Y17.2431
G1 Z5.3497
 X-0.5875 Z7.7892
 X0.0916 Z10.2688
 X0.7706 Z12.7073
 X1.4497 Z15.1421
 X2.1287 Z17.5726
 X2.8078 Z19.9822
 X3.4868 Z22.3918
 X4.1659 Z24.7871
 X4.8450 Z27.1518
 X5.5240 Z29.4997
 X5.8635 Z30.6743
 X6.0333 Z31.2650
 X6.0757 Z31.4132
 X6.0970 Z31.4869
 X6.1076 Z31.5236
 X6.1129 Z31.5419
 X6.1182 Z31.5603
 X6.1394 Z31.6333
 X6.1500 Z31.6698
 X6.1553 Z31.6880
 X6.1580 Z31.6970
 X6.1593 Z31.7016
 X6.1600 Z31.7039
 X6.1603 Z31.7050
 X6.1606 Z31.7061
 X6.1712 Z31.7424
 X6.1726 Z31.7470
 X6.1732 Z31.7492
 X6.1735 Z31.7503
 X6.1739 Z31.7515
 X6.1752 Z31.7568
 X11.8052
 X11.8901 Z31.5944
 X11.9750 Z31.3942
 X12.3145 Z30.5950
 X12.9936 Z28.9452
 X13.6726 Z27.1527
 X14.3517 Z25.1500
 X14.6912 Z23.9867
 X14.8610 Z23.3263
 X14.9459 Z22.9814
 X14.9883 Z22.8038
 X15.0307 Z22.6169
 X15.2005 Z21.8037
 X15.2854 Z21.3450
 X15.3278 Z21.0957
 X15.3490 Z20.9385
 X15.3636 Z20.8482
 X15.3643 Z20.8442
 X15.3646 Z20.8423
 X15.3648 Z20.8414
 X15.3649 Z20.8410
 Z20.8407
 Z20.8406
 X15.3650 Z20.8405
 X15.3663 Z20.8348
 X24.8664
 X24.8770 Z20.8557
 X25.2165 Z22.6102
 X25.8956 Z25.0474
 X26.5746 Z27.0457
 X27.2537 Z28.8262
 X27.9327 Z30.4600
 X28.3572 Z31.4320
 X28.3996 Z31.5249
 X28.4208 Z31.5732
 X28.4314 Z31.5972
 X28.4367 Z31.6092
 X28.4394 Z31.6152
 X28.4407 Z31.6182
 X28.4414 Z31.6197
 X28.4420 Z31.6212
 X28.4845 Z31.7163
 X28.4898 Z31.7281
 X28.4924 Z31.7340
 X28.4938 Z31.7370
 X28.4944 Z31.7384
 X28.4951 Z31.7399
 X28.4964 Z31.7568
 X34.0442
 X34.7233 Z29.7262
 X35.4023 Z27.3514
 X36.0814 Z24.9757
 X36.7604 Z22.5699
 X37.4395 Z20.1377
 X38.1185 Z17.6846
 X38.7976 Z15.2641
 X39.4766 Z12.8097
 X40.1557 Z10.3547
 X40.8347 Z7.8525
 X41.5138 Z5.3930
G0 Z35.0000
 Y19.4298
G1 Z5.2360
 X40.8347 Z7.6575
 X40.1557 Z10.0667
 X38.7976 Z14.7734
 X38.1185 Z17.0978
 X37.4395 Z19.3949
 X36.7604 Z21.7020
 X36.0814 Z23.9499
 X35.4023 Z26.1357
 X34.7233 Z28.2969
 X34.3837 Z29.3341
 X34.2140 Z29.8609
 X34.1291 Z30.1263
 X34.0867 Z30.2589
 X34.0442 Z30.3915
 X33.8745 Z30.9217
 X33.7896 Z31.1867
 X33.7471 Z31.3191
 X33.7259 Z31.3853
 X33.7100 Z31.4350
 X33.7047 Z31.4515
 X33.6623 Z31.5839
 X33.6410 Z31.6501
 X33.6251 Z31.6998
 X33.6092 Z31.7494
 X33.6079 Z31.7535
 X33.6072 Z31.7568
 X27.5932
 X27.2537 Z31.1367
 X26.5746 Z29.7705
 X25.8956 Z28.3358
 X25.2165 Z26.8661
 X24.5375 Z25.2815
 X23.8584 Z23.5529
 X23.5189 Z22.5906
 X23.3491 Z22.0516
 X23.2643 Z21.7848
 X23.1900 Z21.5365
 X23.1794 Z21.5175
 X23.0945 Z21.1839
 X23.0521 Z21.0261
 X23.0308 Z20.9228
 X23.0071 Z20.8351
 X23.0070 Z20.8348
 X17.2483
 X17.2377 Z20.8604
 X17.0679 Z21.5024
 X16.3888 Z23.5754
 X15.7098 Z25.3526
 X15.0307 Z26.9452
 X14.3517 Z28.4561
 X13.6726 Z29.8816
 X13.3331 Z30.5929
 X13.1633 Z30.9251
 X13.0785 Z31.1022
 X12.8663 Z31.5471
 X12.8238 Z31.6242
 X12.8026 Z31.6690
 X12.7920 Z31.6932
 X12.7867 Z31.7052
 X12.7840 Z31.7111
 X12.7827 Z31.7141
 X12.7820 Z31.7156
 X12.7817 Z31.7164
 X12.7815 Z31.7167
 X12.7814 Z31.7171
 X12.7708 Z31.7408
 X12.7681 Z31.7467
 X12.7668 Z31.7497
 X12.7661 Z31.7512
 X12.7658 Z31.7519
 X12.7656 Z31.7523
 X12.7655 Z31.7525
 Z31.7526
 X12.7641 Z31.7556
 X12.7635 Z31.7568
 X6.7123
 X6.6275 Z31.5170
 X6.5426 Z31.2609
 X6.2031 Z30.2225
 X5.5240 Z28.1122
 X4.8450 Z25.9518
 X4.1659 Z23.7767
 X3.4868 Z21.5458
 X2.8078 Z19.2772
 X2.1287 Z16.9781
 X1.4497 Z14.6983
 X0.7706 Z12.3864
 X0.0916 Z10.0234
 X-0.5875 Z7.6368
 X-1.2665 Z5.2597
G0 Z35.0000
 Y21.6166
G1 Z5.1069
 X-0.5875 Z7.3823
 X0.0916 Z9.5970
 X0.7706 Z11.8405
 X1.4497 Z14.0136
 X2.1287 Z16.1825
 X2.8078 Z18.2741
 X3.4868 Z20.3392
 X4.1659 Z22.3891
 X4.8450 Z24.3606
 X5.5240 Z26.2414
 X6.2031 Z28.0665
 X6.8821 Z29.8419
 X7.2216 Z30.7059
 X7.3914 Z31.1141
 X7.4763 Z31.3011
 X7.5187 Z31.4025
 X7.5399 Z31.4530
 X7.5506 Z31.4783
 X7.5559 Z31.4909
 X7.5585 Z31.4972
 X7.5598 Z31.5003
 X7.5605 Z31.5019
 X7.5612 Z31.5035
 X7.6036 Z31.6040
 X7.6248 Z31.6541
 X7.6354 Z31.6792
 X7.6407 Z31.6917
 X7.6434 Z31.6979
 X7.6447 Z31.7010
 X7.6454 Z31.7026
 X7.6459 Z31.7038
 X7.6460 Z31.7042
 X7.6567 Z31.7291
 X7.6620 Z31.7418
 X7.6673 Z31.7545
 X7.6686 Z31.7568
 X14.6700
 X14.6912 Z31.7265
 X15.0307 Z31.2324
 X15.7098 Z30.2193
 X16.3888 Z29.3012
 X17.0679 Z28.4682
 X17.4074 Z28.0897
 X17.7470 Z27.7439
 X18.0865 Z27.4304
 X18.2562 Z27.2849
 X18.4260 Z27.1564
 X18.5958 Z27.0345
 X18.7655 Z26.9237
 X18.9353 Z26.8282
 X19.0202 Z26.7810
 X19.0626 Z26.7575
 X19.1051 Z26.7372
 X19.2748 Z26.6676
 X19.3700 Z26.6375
 X19.3701 Z26.6280
 X19.3703
 X19.3809 Z26.6244
 X19.3915 Z26.6206
 X19.4021 Z26.6167
 X19.4234 Z26.6082
 X19.4446 Z26.5991
 X19.6143 Z26.5530
 X19.6568 Z26.5492
 X19.7389 Z26.5385
 Z26.5258
 X19.7390
 X19.7417 Z26.5254
 X19.7841 Z26.5181
 X19.9539 Z26.4973
 X20.0388 Z26.4908
 X20.1236 Z26.5008
 X20.1342 Z26.5014
 X20.1356 Z26.4878
 X20.1369 Z26.4879
 X20.1382 Z26.4880
 X20.1396
 X20.1449 Z26.4882
 X20.1555 Z26.4886
 X20.1661 Z26.4889
 X20.2085 Z26.4886
 X20.2297 Z26.4876
 X20.2350 Z26.4873
 X20.2377 Z26.4871
 X20.2390
 X20.2397 Z26.4870
 X20.2404
 X20.2510 Z26.4878
 X20.3783 Z26.5026
 X20.4632 Z26.5180
 X20.6329 Z26.5451
 X20.7178 Z26.5645
 X20.8027 Z26.5904
 X20.9725 Z26.6554
 X21.0600 Z26.6925
 X21.0613 Z26.6854
 X21.0626 Z26.6859
 X21.0653 Z26.6871
 X21.0679 Z26.6882
 X21.0786 Z26.6927
 X21.0892 Z26.6971
 X21.0998 Z26.7015
 X21.1422 Z26.7181
 X21.4817 Z26.9016
 X21.6515 Z27.0084
 X21.8213 Z27.1236
 X22.1608 Z27.3936
 X22.5003 Z27.7034
 X23.1794 Z28.4112
 X23.8584 Z29.2347
 X24.5375 Z30.1412
 X24.8770 Z30.6201
 X25.0468 Z30.8652
 X25.1317 Z30.9876
 X25.1741 Z31.0487
 X25.1953 Z31.0793
 X25.2165 Z31.1098
 X25.3863 Z31.3616
 X25.6409 Z31.7447
 X25.6423 Z31.7568
 X32.6437
 X32.6861 Z31.6781
 X33.3652 Z30.0092
 X34.0442 Z28.2172
 X34.7233 Z26.3775
 X35.4023 Z24.5006
 X36.0814 Z22.5368
 X36.7604 Z20.5242
 X37.4395 Z18.4395
 X38.1185 Z16.3113
 X38.7976 Z14.1176
 X39.4766 Z11.9268
 X40.1557 Z9.6582
 X40.8347 Z7.4029
 X41.5138 Z5.0850
G0 Z35.0000
 Y23.8033
G1 Z4.8889
 X40.8347 Z7.0889
 X40.1557 Z9.2168
 X39.4766 Z11.3114
 X38.7976 Z13.3507
 X38.1185 Z15.3628
 X37.4395 Z17.2789
 X36.7604 Z19.1712
 X36.0814 Z20.9769
 X35.4023 Z22.7241
 X34.7233 Z24.3375
 X34.0442 Z25.8248
 X33.3652 Z27.1865
 X32.6861 Z28.5170
 X32.0071 Z29.9458
 X31.6675 Z30.7059
 X31.4978 Z31.1145
 X31.4129 Z31.3161
 X31.3704 Z31.4162
 X31.3492 Z31.4661
 X31.3386 Z31.4910
 X31.3333 Z31.5034
 X31.3307 Z31.5097
 X31.3293 Z31.5128
 X31.3287 Z31.5143
 X31.3280 Z31.5159
 X31.2856 Z31.6151
 X31.2643 Z31.6645
 X31.2537 Z31.6892
 X31.2484 Z31.7015
 X31.2458 Z31.7077
 X31.2445 Z31.7108
 X31.2438 Z31.7123
 X31.2433 Z31.7135
 X31.2431 Z31.7138
 X31.2378 Z31.7262
 X31.2352 Z31.7323
 X31.2338 Z31.7354
 X31.2325 Z31.7385
 X31.2299 Z31.7446
 X31.2285 Z31.7477
 X31.2279 Z31.7492
 X31.2274 Z31.7504
 X31.2272 Z31.7508
 X31.2259 Z31.7538
 X31.2252 Z31.7554
 X31.2247 Z31.7565
 X31.2246 Z31.7567
 Z31.7568
 X9.1129
 X9.1116 Z31.7394
 X9.1103 Z31.7365
 X9.0890 Z31.6901
 X8.9193 Z31.3127
 X8.2402 Z29.8056
 X7.5612 Z28.4139
 X6.8821 Z27.0707
 X6.2031 Z25.7042
 X5.5240 Z24.2140
 X4.8450 Z22.5993
 X4.1659 Z20.8521
 X3.4868 Z19.0560
 X2.8078 Z17.1715
 X2.1287 Z15.2385
 X1.4497 Z13.2452
 X0.7706 Z11.2081
 X0.0916 Z9.1223
 X-0.5875 Z6.9946
 X-1.2665 Z4.8540
G0 Z35.0000
 Y25.9900
G1 Z4.5930
 X-0.5875 Z6.6236
 X0.0916 Z8.6271
 X0.7706 Z10.5096
 X1.4497 Z12.2444
 X2.1287 Z13.8477
 X2.8078 Z15.3269
 X3.4868 Z16.6822
 X4.1659 Z17.9070
 X4.8450 Z18.9860
 X5.5240 Z20.0466
 X6.2031 Z21.1521
 X6.8821 Z22.3270
 X7.5612 Z23.5785
 X8.2402 Z24.8786
 X8.9193 Z26.2131
 X9.5983 Z27.7365
 X10.2774 Z29.2579
 X10.6169 Z30.0787
 X10.7867 Z30.4755
 X10.8715 Z30.6771
 X10.9564 Z30.8787
 X11.1262 Z31.2948
 X11.2111 Z31.5063
 X11.2535 Z31.6207
 X11.2747 Z31.6775
 X11.2853 Z31.7057
 X11.2906 Z31.7198
 X11.2933 Z31.7268
 X11.2946 Z31.7304
 X11.2953 Z31.7321
 X11.2956 Z31.7330
 X11.2958 Z31.7334
 X11.2960 Z31.7339
 X11.6355 Z31.7568
 X28.9513
 X29.2909 Z31.0957
 X29.9699 Z29.4307
 X30.6490 Z27.8290
 X31.3280 Z26.3709
 X32.0071 Z24.9886
 X32.6861 Z23.6758
 X33.3652 Z22.4359
 X34.0442 Z21.2536
 X34.7233 Z20.1317
 X35.4023 Z19.0606
 X36.0814 Z17.9749
 X36.7604 Z16.7530
 X37.4395 Z15.3984
 X38.1185 Z13.9180
 X38.7976 Z12.3116
 X39.4766 Z10.5721
 X40.1557 Z8.6830
 X40.8347 Z6.6996
 X41.5138 Z4.6489
G0 Z35.0000
 Y28.1767
G1 Z3.4980
 X40.8347 Z4.9716
 X40.1557 Z6.3192
 X39.4766 Z7.5334
 X38.7976 Z8.5975
 X38.1185 Z9.4811
 X37.4395 Z10.3241
 X36.7604 Z11.1297
 X36.0814 Z11.9857
 X35.4023 Z12.9046
 X34.7233 Z13.8561
 X34.0442 Z14.7797
 X33.3652 Z15.7931
 X32.6861 Z16.8352
 X32.0071 Z17.9224
 X31.3280 Z19.0742
 X30.6490 Z20.2758
 X29.9699 Z21.4910
 X29.2909 Z22.8346
 X28.6118 Z24.2205
 X27.9327 Z25.6378
 X27.2537 Z27.0565
 X26.5746 Z28.6377
 X25.8956 Z30.1732
 X25.5561 Z30.9269
 X25.2165 Z31.7023
 X24.5375 Z31.7568
 X15.1475
 Z31.7068
 Z31.7067
 X15.1422 Z31.6951
 X15.1395 Z31.6903
 X15.1382 Z31.6879
 X15.1375 Z31.6867
 X15.1372 Z31.6862
 X15.1370 Z31.6859
 X15.1369 Z31.6857
 Z31.6856
 X15.1368
 X15.1355 Z31.6832
 X15.1349 Z31.7566
 X15.0307 Z31.5384
 X14.3517 Z30.0364
 X13.6726 Z28.4710
 X12.9936 Z27.0005
 X12.3145 Z25.5207
 X11.6355 Z24.0670
 X10.9564 Z22.7241
 X10.2774 Z21.4142
 X9.5983 Z20.1921
 X8.9193 Z19.0054
 X8.2402 Z17.8566
 X7.5612 Z16.7757
 X6.8821 Z15.7114
 X6.2031 Z14.7234
 X5.5240 Z13.7271
 X4.8450 Z12.8340
 X4.1659 Z11.9262
 X3.4868 Z11.0862
 X2.8078 Z10.2245
 X2.1287 Z9.4549
 X1.4497 Z8.5699
 X0.7706 Z7.5052
 X0.0916 Z6.2927
 X-0.5875 Z4.9487
 X-1.2665 Z3.4805
G0 Z35.0000
 Y30.3635
G1 Z0.0068
 X-0.1750
 X-0.1737 Z0.0078
 X0.0916 Z0.2508
 X0.7706 Z0.8589
 X1.4497 Z1.4194
 X2.1287 Z2.0625
 X2.8078 Z2.6918
 X3.4868 Z3.3701
 X4.1659 Z4.0860
 X4.8450 Z4.7739
 X5.5240 Z5.5118
 X6.2031 Z6.2075
 X6.8821 Z7.0023
 X7.5612 Z7.7563
 X8.2402 Z8.5744
 X8.9193 Z9.4283
 X9.5983 Z10.2363
 X10.2774 Z11.0695
 X10.9564 Z11.9706
 X11.6355 Z12.7834
 X12.3145 Z13.7507
 X12.6541 Z14.1612
 X12.9936 Z14.5935
 X13.6726 Z15.6201
 X14.3517 Z16.4988
 X15.0307 Z17.2621
 X15.3703 Z17.7156
 X15.5400 Z17.9256
 X15.6249 Z18.0452
 X15.7098 Z18.1530
 X16.3888 Z18.8543
 X16.5586 Z19.0361
 X16.6435 Z19.1349
 X16.6859 Z19.1880
 X16.7072 Z19.2182
 X16.7178 Z19.2328
 X16.7284 Z19.2472
 X17.0679 Z19.5532
 X17.4074 Z19.8375
 X17.5772 Z19.9831
 X17.7470 Z20.1300
 X18.4260 Z20.5851
 X18.7655 Z20.7728
 X18.8504 Z20.8170
 X18.8929 Z20.8474
 X18.9141 Z20.8656
 X18.9247 Z20.8742
 X18.9300 Z20.8784
 X18.9353 Z20.8825
 X18.9777 Z20.9123
 X18.9990 Z20.9251
 X19.0096 Z20.9311
 X19.0202 Z20.9367
 X19.0414 Z20.9468
 X19.0626 Z20.9557
 X19.1051 Z20.9693
 X19.4446 Z21.0248
 X19.4734 Z21.0319
 X19.4736 Z21.0263
 X19.4738
 X19.4764 Z21.0270
 X19.4817 Z21.0282
 X19.4844 Z21.0288
 X19.4857 Z21.0291
 X19.4864 Z21.0292
 X19.4870 Z21.0293
 X19.4976 Z21.0314
 X19.5003 Z21.0318
 X19.5016 Z21.0320
 X19.5023 Z21.0321
 X19.5026 Z21.0322
 X19.5028
 X19.5029
 X19.5043 Z21.0324
 X19.5049 Z21.0539
 X19.9804 Z21.1220
 X19.9857 Z21.1246
 X19.9963 Z21.1296
 X20.0175 Z21.1388
 X20.0281 Z21.1428
 X20.0388 Z21.1465
 X20.0600 Z21.1529
 X20.0812 Z21.1579
 X20.1024 Z21.1615
 X20.1130 Z21.1627
 X20.1236 Z21.1637
 X20.4632 Z21.1077
 X20.8027 Z21.0545
 X21.0998 Z20.9816
 X21.1210 Z20.9797
 X21.1316 Z20.9790
 X21.1422 Z20.9780
 X21.4817 Z20.8233
 X21.5666 Z20.7926
 X21.5878 Z20.7875
 X21.6091 Z20.7811
 X21.6303 Z20.7735
 X21.6409 Z20.7692
 X21.6515 Z20.7646
 X21.8213 Z20.6601
 X22.1608 Z20.4510
 X22.5003 Z20.2059
 X23.1794 Z19.6355
 X23.8584 Z18.9702
 X24.5375 Z18.2016
 X25.2165 Z17.3898
 X25.8956 Z16.5404
 X26.5746 Z15.6618
 X27.2537 Z14.7445
 X27.9327 Z13.8061
 X28.6118 Z12.8672
 X29.2909 Z12.0040
 X29.9699 Z11.0873
 X30.6490 Z10.2633
 X31.3280 Z9.3800
 X32.0071 Z8.5983
 X32.6861 Z7.8058
 X33.3652 Z7.0204
 X34.0442 Z6.3037
 X34.7233 Z5.5260
 X35.4023 Z4.8217
 X36.0814 Z4.1068
 X36.7604 Z3.4039
 X37.4395 Z2.7218
 X38.1185 Z2.0827
 X38.7976 Z1.4771
 X39.4766 Z0.8654
 X40.4090 Z0.0081
 X40.4097 Z0.0068
 X41.5138
G0 Z35.0000
M5 (stop spindle)
G04 P3 (wait for 3 seconds)
G0 Z35.0000
M2 (end program)
