;PYCAM-META-DATA: Filename: /home/abarry/MIT/RLG/robotlib3/robots/Plane/CAD/Rev3/CAM/cameraCowlForCAM2.STL
;PYCAM-META-DATA: Timestamp: 2012-01-06 15:56:54.717637
;PYCAM-META-DATA: Version: 0.5.1
;Estimated machine time: 7 minutes
G40 (disable tool radius compensation)
G49 (disable tool length compensation)
G80 (cancel modal motion)
G54 (select coordinate system 1)
G90 (disable incremental moves)
G21 (metric)
G64 (continuous mode with maximum speed)
F152.00000
S1000.00000
;PYCAM_TOOLPATH_SETTINGS: START
;[Bounds]
;maxz = 31.75684
;maxx = 39.0771201115
;maxy = 23.1017901115
;minx = 1.1701576585
;miny = 1.9308876585
;minz = 0.0068379
;
;[Tool]
;torus_radius = 0.25
;speed = 1000.0
;shape = CylindricalCutter
;tool_radius = 3.175
;feedrate = 152.0
;
;[Process]
;engrave_offset = 0.0
;step_down = 3.0
;generator = DropCutter
;postprocessor = PathAccumulator
;overlap_percent = 60
;milling_style = ignore
;material_allowance = 0.0
;pocketing_type = none
;path_direction = x
;
;PYCAM_TOOLPATH_SETTINGS: END
T2 M6
G0 Z35.0000
M3 (start spindle)
G04 P3 (wait for 3 seconds)
 X1.1702 Y1.9309
G1 Z12.9787
 X1.9599 Z15.0247
 X2.7496 Z16.9240
 X3.5393 Z18.6843
 X4.3291 Z20.3059
 X5.1188 Z21.7818
 X5.9085 Z23.1104
 X6.6983 Z24.4292
 X7.4880 Z25.9010
 X8.2777 Z27.5062
 X9.0674 Z29.3935
 X9.4623 Z30.3765
 X9.6597 Z30.9294
 X9.7585 Z31.2011
 X9.8078 Z31.3358
 X9.8325 Z31.4028
 X9.8448 Z31.4363
 X9.8510 Z31.4531
 X9.9605 Z31.7566
 X9.9613 Z31.7493
 X9.9617 Z31.7503
 X9.9621 Z31.7513
 X9.9636 Z31.7554
 X9.9644 Z31.7568
 X30.3407
 X30.3901 Z31.6558
 X31.1798 Z29.5306
 X31.9696 Z27.6416
 X32.7593 Z25.9815
 X33.5490 Z24.4888
 X34.3387 Z23.1753
 X35.1285 Z21.8679
 X35.9182 Z20.3950
 X36.7079 Z18.7738
 X37.4977 Z17.0117
 X38.2874 Z15.1087
 X39.0771 Z13.0570
G0 Z35.0000
 Y4.2832
G1 Z13.9777
 X38.2874 Z16.3598
 X37.4977 Z18.6872
 X36.7079 Z20.9426
 X35.9182 Z23.1082
 X35.1285 Z25.1661
 X34.3387 Z27.1366
 X33.5490 Z29.0219
 X33.1542 Z29.9117
 X32.9567 Z30.3435
 X32.8580 Z30.5562
 X32.8087 Z30.6617
 X32.7840 Z30.7142
 X32.7716 Z30.7404
 X32.7593 Z30.7666
 X32.5619 Z31.1809
 X32.4631 Z31.4013
 X32.3089 Z31.7486
 X32.3074 Z31.7568
 X21.7031
 X21.3082 Z31.6241
 X21.2095 Z31.5815
 X21.1602 Z31.5558
 X21.1355 Z31.5417
 X21.1231 Z31.5352
 X21.1170 Z31.5318
 X21.1139 Z31.5302
 X21.1123 Z31.5293
 X21.1108 Z31.5285
 X20.9134 Z31.5078
 X20.7159 Z31.4732
 X20.6666 Z31.4592
 X20.6172 Z31.4488
 X20.5185 Z31.4345
 X20.3211 Z31.4203
 X20.2224 Z31.4093
 X20.1236 Z31.4131
 X19.7288 Z31.4676
 X19.5313 Z31.4842
 X19.4820 Z31.4841
 X19.4573 Z31.4833
 X19.4511 Z31.4830
 X19.4481 Z31.4829
 X19.4465 Z31.4828
 X19.4457
 X19.4450 Z31.4827
 X19.4326 Z31.4840
 X19.3339 Z31.5047
 X18.9390 Z31.6400
 X18.8403 Z31.6813
 X18.7910 Z31.7002
 X18.7663 Z31.7092
 X18.7540 Z31.7135
 X18.7416 Z31.7178
 X18.7354 Z31.7199
 X18.7324 Z31.7210
 X18.7308 Z31.7215
 X18.7300 Z31.7218
 X18.7297 Z31.7219
 X18.7295 Z31.7220
 X18.7294
 X18.7293
 X18.7277 Z31.7225
 X18.7270 Z31.7283
 X18.6444 Z31.7561
 X18.6437 Z31.7568
 X8.0309
 X7.9816 Z31.6729
 X7.8828 Z31.4629
 X7.4880 Z30.6211
 X6.6983 Z28.8733
 X5.9085 Z26.9980
 X5.1188 Z25.0025
 X4.3291 Z22.9677
 X3.5393 Z20.8165
 X2.7496 Z18.5910
 X1.9599 Z16.2799
 X1.1702 Z13.9345
G0 Z35.0000
 Y6.6355
G1 Z14.7506
 X1.9599 Z17.3421
 X2.7496 Z19.8552
 X3.5393 Z22.3431
 X4.3291 Z24.7561
 X5.1188 Z27.1077
 X5.9085 Z29.4445
 X6.3034 Z30.5639
 X6.5008 Z31.0991
 X6.7368 Z31.7567
 X6.7384 Z31.7087
 X6.7399 Z31.7130
 X6.7414 Z31.7173
 X6.7445 Z31.7258
 X6.7461 Z31.7301
 X6.7468 Z31.7322
 X6.7476 Z31.7343
 X6.7492 Z31.7568
 X14.2007
 X14.5955 Z31.1726
 X15.3853 Z29.9323
 X16.1750 Z28.7351
 X16.9647 Z27.6466
 X17.3596 Z27.1362
 X17.7545 Z26.6801
 X18.1493 Z26.2794
 X18.3468 Z26.0912
 X18.4455 Z26.0069
 X18.4948 Z25.9638
 X18.5442 Z25.9225
 X18.7416 Z25.7735
 X18.8403 Z25.7073
 X18.9390 Z25.6413
 X19.0378 Z25.5810
 X19.1365 Z25.5220
 X19.2352 Z25.4736
 X19.2846 Z25.4500
 X19.3339 Z25.4305
 X19.5313 Z25.3539
 X19.6301 Z25.3227
 X19.7288 Z25.3002
 X19.7535 Z25.2956
 X19.7658 Z25.2931
 X19.7720 Z25.2918
 X19.7750 Z25.2912
 X19.7781 Z25.2905
 X19.7812 Z25.2898
 X19.7828 Z25.2895
 X19.7835 Z25.2893
 X19.7839 Z25.2892
 X19.7841
 X19.7842
 X19.7843 Z25.2891
 X19.7858 Z25.2888
 X19.7866 Z25.2886
 X19.7870 Z25.2885
 X19.7872
 X19.7873
 X19.7874 Z25.2884
 X19.7889 Z25.2881
 X19.7897 Z25.2966
 X19.9262 Z25.2663
 X19.9756 Z25.2601
 X20.0496 Z25.2537
 X20.0743 Z25.2532
 X20.1236 Z25.2552
 X20.3211 Z25.2619
 X20.4198 Z25.2729
 X20.5185 Z25.3027
 X20.6419 Z25.3221
 X20.6666 Z25.3280
 X20.7159 Z25.3433
 X20.8147 Z25.3794
 X20.8208 Z25.3818
 X20.8239 Z25.3829
 X20.8254 Z25.3835
 X20.8262 Z25.3838
 X20.8266 Z25.3839
 X20.8268 Z25.3840
 X20.8270 Z25.3841
 X20.8301 Z25.3852
 X20.8316 Z25.3858
 X20.8324 Z25.3861
 X20.8328 Z25.3862
 X20.8330 Z25.3863
 X20.8331
 X20.8332 Z25.3864
 X20.8347 Z25.3926
 X20.9134 Z25.4201
 X21.1108 Z25.5093
 X21.2095 Z25.5647
 X21.3082 Z25.6178
 X21.5057 Z25.7507
 X21.7031 Z25.9041
 X22.0980 Z26.2408
 X22.4928 Z26.6410
 X23.2826 Z27.5777
 X24.0723 Z28.6544
 X24.8620 Z29.8486
 X25.2569 Z30.4783
 X25.4543 Z30.7801
 X25.5530 Z30.9189
 X25.6024 Z30.9936
 X25.6271 Z31.0378
 X25.6394 Z31.0593
 X25.6456 Z31.0699
 X25.6517 Z31.0804
 X25.8492 Z31.3870
 X25.9479 Z31.5610
 X25.9972 Z31.6446
 X26.0219 Z31.6847
 X26.0343 Z31.7043
 X26.0404 Z31.7140
 X26.0435 Z31.7188
 X26.0451 Z31.7212
 X26.0458 Z31.7224
 X26.0462 Z31.7230
 X26.0466 Z31.7236
 X26.4415 Z31.7568
 X33.5490
 X34.3387 Z29.6137
 X35.1285 Z27.3110
 X35.9182 Z24.9377
 X36.7079 Z22.4979
 X37.4977 Z19.9961
 X38.2874 Z17.4241
 X39.0771 Z14.8592
G0 Z35.0000
 Y8.9879
G1 Z15.5103
 X38.2874 Z18.2809
 X37.4977 Z21.0563
 X36.7079 Z23.7982
 X35.9182 Z26.5027
 X35.1285 Z29.1887
 X34.7336 Z30.5018
 X34.5362 Z31.1662
 X34.4375 Z31.4983
 X34.4128 Z31.5813
 X34.3881 Z31.6643
 X34.3607 Z31.7564
 X34.3605 Z31.7568
 X27.6754
 X27.6261 Z31.6475
 X27.2312 Z30.8344
 X26.4415 Z29.1126
 X25.6517 Z27.3325
 X24.8620 Z25.4063
 X24.0723 Z23.2013
 X23.6774 Z21.9106
 X23.5787 Z21.5317
 X23.5293 Z21.3596
 X23.5047 Z21.2490
 X23.4800 Z21.1510
 X23.4306 Z20.9161
 X23.4245 Z20.8874
 X23.4121 Z20.8396
 X23.4106 Z20.8348
 X16.9647
 X16.1750 Z23.2374
 X15.3853 Z25.4843
 X14.5955 Z27.4306
 X13.8058 Z29.2412
 X13.4109 Z30.1106
 X13.2135 Z30.5361
 X13.0408 Z30.9068
 X13.0284 Z30.9340
 X13.0223 Z30.9476
 X13.0161 Z30.9613
 X12.8187 Z31.3930
 X12.7693 Z31.4998
 X12.7446 Z31.5530
 X12.7323 Z31.5795
 X12.7261 Z31.5928
 X12.7199 Z31.6060
 X12.6953 Z31.6590
 X12.6829 Z31.6855
 X12.6767 Z31.6987
 X12.6737 Z31.7053
 X12.6721 Z31.7086
 X12.6713 Z31.7102
 X12.6708 Z31.7115
 X12.6706 Z31.7119
 X12.6582 Z31.7383
 X12.6552 Z31.7449
 X12.6536 Z31.7482
 X12.6528 Z31.7498
 X12.6522 Z31.7512
 X12.6521 Z31.7515
 X12.6505 Z31.7547
 X12.6498 Z31.7564
 X12.6494 Z31.7568
 X5.9641
 X5.9579 Z31.7427
 X5.9085 Z31.5781
 X5.1188 Z28.9496
 X4.3291 Z26.3031
 X3.5393 Z23.6187
 X2.7496 Z20.8933
 X1.9599 Z18.1326
 X1.1702 Z15.4081
G0 Z35.0000
 Y11.3402
G1 Z15.7507
 X1.9599 Z18.6104
 X2.7496 Z21.4755
 X3.5393 Z24.3390
 X4.3291 Z27.1966
 X4.7239 Z28.6172
 X4.9214 Z29.3254
 X5.0201 Z29.6790
 X5.0694 Z29.8557
 X5.1188 Z30.0323
 X5.3162 Z30.7378
 X5.4149 Z31.0900
 X5.4643 Z31.2664
 X5.5137 Z31.4439
 X5.5630 Z31.6213
 X5.5985 Z31.7489
 X5.5993 Z31.7568
 X11.9796
 X12.0289 Z31.6485
 X12.2264 Z31.1901
 X13.0161 Z29.2521
 X13.8058 Z27.1281
 X14.5955 Z24.6668
 X14.9904 Z23.2027
 X15.1878 Z22.2910
 X15.2866 Z21.7998
 X15.3359 Z21.5476
 X15.3606 Z21.3917
 X15.3729 Z21.3164
 X15.3853 Z21.2430
 X15.4099 Z21.0728
 X15.4223 Z20.9897
 X15.4285 Z20.9466
 X15.4315 Z20.9249
 X15.4462 Z20.8370
 X15.4466 Z20.8348
 X24.7633
 X24.8620 Z21.2162
 X25.6517 Z24.5965
 X26.4415 Z27.0154
 X27.2312 Z29.1049
 X27.6261 Z30.0742
 X27.8235 Z30.5569
 X27.9222 Z30.8004
 X28.0209 Z31.0262
 X28.2184 Z31.4757
 X28.2677 Z31.5892
 X28.3379 Z31.7515
 X28.3383 Z31.7568
 X34.7089
 X34.7336 Z31.7011
 X35.1285 Z30.2740
 X35.9182 Z27.4170
 X36.7079 Z24.5377
 X37.4977 Z21.6511
 X38.2874 Z18.7641
 X39.0771 Z15.8940
G0 Z35.0000
 Y13.6925
G1 Z15.8725
 X38.2874 Z18.7522
 X37.4977 Z21.6245
 X36.7079 Z24.4871
 X35.9182 Z27.3322
 X35.5233 Z28.7531
 X34.6935 Z31.7527
 X34.6920 Z31.7361
 X34.6912 Z31.7389
 X34.6908 Z31.7568
 X28.3047
 X28.2986 Z31.7440
 X28.2184 Z31.5597
 X28.0209 Z31.1044
 X27.2312 Z29.1950
 X26.4415 Z27.0936
 X25.6517 Z24.6456
 X25.2569 Z23.1919
 X25.0594 Z22.2861
 X24.9607 Z21.7792
 X24.9114 Z21.5327
 X24.8867 Z21.3851
 X24.8743 Z21.3086
 X24.8620 Z21.2351
 X24.8373 Z21.0730
 X24.8250 Z20.9899
 X24.8188 Z20.9465
 X24.8157 Z20.9244
 X24.8142 Z20.9131
 X24.8134 Z20.9083
 X24.8019 Z20.8391
 X24.8011 Z20.8348
 X15.4840
 X15.3853 Z21.2447
 X14.5955 Z24.7572
 X13.8058 Z27.2195
 X13.0161 Z29.3279
 X12.6212 Z30.3042
 X12.4238 Z30.8063
 X12.3251 Z31.0544
 X12.2757 Z31.1701
 X12.2510 Z31.2254
 X12.2387 Z31.2524
 X12.2325 Z31.2662
 X12.1276 Z31.5122
 X12.0783 Z31.6160
 X12.0536 Z31.6736
 X12.0413 Z31.7022
 X12.0351 Z31.7165
 X12.0320 Z31.7236
 X12.0305 Z31.7272
 X12.0297 Z31.7289
 X12.0293 Z31.7298
 X12.0291 Z31.7303
 X12.0290 Z31.7305
 X12.0289 Z31.7307
 X12.0228 Z31.7449
 X12.0212 Z31.7484
 X12.0204 Z31.7502
 X12.0201 Z31.7511
 X12.0199 Z31.7515
 X12.0197 Z31.7520
 X12.0181 Z31.7555
 X12.0174 Z31.7568
 X5.6263
 X5.6255 Z31.7384
 X5.6232 Z31.7301
 X5.6216 Z31.7557
 X5.1188 Z29.9495
 X4.3291 Z27.1159
 X3.5393 Z24.3081
 X2.7496 Z21.4508
 X1.9599 Z18.6042
 X1.1702 Z15.7444
G0 Z35.0000
 Y16.0448
G1 Z15.3658
 X1.9599 Z18.1098
 X2.7496 Z20.8294
 X3.5393 Z23.5027
 X4.3291 Z26.1547
 X5.1188 Z28.7996
 X5.5137 Z30.1028
 X5.7111 Z30.7596
 X5.8098 Z31.0807
 X5.8592 Z31.2396
 X5.8838 Z31.3185
 X5.8962 Z31.3579
 X5.9024 Z31.3776
 X5.9054 Z31.3874
 X5.9070 Z31.3923
 X5.9078 Z31.3948
 X5.9085 Z31.3972
 X5.9579 Z31.5538
 X5.9826 Z31.6316
 X5.9949 Z31.6704
 X6.0011 Z31.6898
 X6.0042 Z31.6995
 X6.0057 Z31.7043
 X6.0065 Z31.7068
 X6.0069 Z31.7080
 X6.0072 Z31.7092
 X6.0134 Z31.7285
 X6.0165 Z31.7382
 X6.0180 Z31.7430
 X6.0188 Z31.7455
 X6.0192 Z31.7467
 X6.0196 Z31.7479
 X6.0211 Z31.7527
 X6.0227 Z31.7568
 X12.7693
 X12.8187 Z31.6608
 X13.0161 Z31.2484
 X13.8058 Z29.5026
 X14.5955 Z27.6832
 X15.3853 Z25.7078
 X16.1750 Z23.4183
 X16.5699 Z22.0296
 X16.6686 Z21.6249
 X16.7179 Z21.4168
 X16.7426 Z21.3063
 X16.7550 Z21.2442
 X16.7673 Z21.1880
 X16.8167 Z20.9296
 X16.8228 Z20.8930
 X16.8259 Z20.8787
 X16.8352 Z20.8376
 X16.8367 Z20.8348
 X23.2826
 X24.0723 Z23.3687
 X24.8620 Z25.6202
 X25.6517 Z27.5783
 X26.4415 Z29.3810
 X26.8363 Z30.2389
 X27.0338 Z30.6567
 X27.2312 Z31.0759
 X27.4286 Z31.4993
 X27.5489 Z31.7547
G0 Z35.0000
 X27.5520
G1 Z31.7568
 X34.2894
 X34.3387 Z31.6208
 X35.1285 Z29.0078
 X35.9182 Z26.3963
 X36.7079 Z23.6992
 X37.4977 Z20.9891
 X38.2874 Z18.2511
 X39.0771 Z15.5060
G0 Z35.0000
 Y18.3971
G1 Z14.8179
 X38.2874 Z17.3875
 X37.4977 Z19.9117
 X36.7079 Z22.4000
 X35.9182 Z24.7596
 X35.1285 Z27.0947
 X34.3387 Z29.3821
 X33.9439 Z30.4515
 X33.7465 Z30.9730
 X33.6477 Z31.2397
 X33.5984 Z31.3731
 X33.5737 Z31.4390
 X33.5614 Z31.4717
 X33.5552 Z31.4881
 X33.5521 Z31.4962
 X33.5506 Z31.5003
 X33.5498 Z31.5023
 X33.5490 Z31.5043
 X33.4997 Z31.6335
 X33.4750 Z31.6973
 X33.4626 Z31.7290
 X33.4596 Z31.7369
 X33.4580 Z31.7408
 X33.4565 Z31.7448
 X33.4549 Z31.7487
 X33.4542 Z31.7507
 X33.4538 Z31.7517
 X33.4536 Z31.7522
 X33.4534 Z31.7527
 X33.4518 Z31.7568
 X25.7875
 X25.7859 Z31.7425
 X25.6517 Z31.5320
 X24.8620 Z30.2934
 X24.0723 Z29.0879
 X23.2826 Z27.9980
 X22.8877 Z27.5004
 X22.6903 Z27.2663
 X22.4928 Z27.0443
 X22.0980 Z26.6398
 X21.9005 Z26.4586
 X21.8018 Z26.3738
 X21.7031 Z26.2958
 X21.5057 Z26.1385
 X21.4069 Z26.0697
 X21.3082 Z26.0062
 X21.1108 Z25.8927
 X21.0121 Z25.8402
 X20.9627 Z25.8179
 X20.9134 Z25.7960
 X20.7159 Z25.7272
 X20.6172 Z25.6947
 X20.5679 Z25.6818
 X20.5185 Z25.6700
 X20.3211 Z25.6414
 X20.2224 Z25.6328
 X20.1236 Z25.6293
 X19.9262 Z25.6449
 X19.8275 Z25.6577
 X19.7288 Z25.6745
 X19.5313 Z25.7346
 X19.4326 Z25.7690
 X19.3833 Z25.7876
 X19.3339 Z25.8127
 X19.1365 Z25.9084
 X19.0378 Z25.9660
 X18.9390 Z26.0275
 X18.7416 Z26.1678
 X18.5442 Z26.3230
 X18.1493 Z26.6753
 X17.7545 Z27.0919
 X16.9647 Z28.0600
 X16.1750 Z29.1673
 X15.3853 Z30.3665
 X14.9904 Z31.0232
 X14.7930 Z31.3243
 X14.6943 Z31.4781
 X14.6449 Z31.5593
 X14.6202 Z31.5978
 X14.6079 Z31.6166
 X14.6017 Z31.6258
 X14.5986 Z31.6304
 X14.5971 Z31.6327
 X14.5963 Z31.6339
 X14.5955 Z31.6350
 X14.5462 Z31.7058
 X14.5338 Z31.7228
 X14.5277 Z31.7312
 X14.5246 Z31.7354
 X14.5230 Z31.7375
 X14.5223 Z31.7385
 X14.5219 Z31.7391
 X14.5153 Z31.7502
 X14.5138 Z31.7568
 X6.8957
 X6.6983 Z31.3236
 X5.9085 Z29.1767
 X5.1188 Z26.9458
 X4.3291 Z24.6018
 X3.5393 Z22.1982
 X2.7496 Z19.7723
 X1.9599 Z17.2468
 X1.1702 Z14.7099
G0 Z35.0000
 Y20.7495
G1 Z13.8370
 X1.9599 Z16.1826
 X2.7496 Z18.4876
 X3.5393 Z20.6865
 X4.3291 Z22.8181
 X5.1188 Z24.8298
 X5.9085 Z26.7594
 X6.6983 Z28.5584
 X7.4880 Z30.2125
 X7.8828 Z31.0373
 X7.9816 Z31.2709
 X8.0309 Z31.3867
 X8.0556 Z31.4444
 X8.0679 Z31.4733
 X8.0741 Z31.4878
 X8.0772 Z31.4950
 X8.0803 Z31.5022
 X8.1296 Z31.6174
 X8.1543 Z31.6748
 X8.1667 Z31.7034
 X8.1728 Z31.7177
 X8.1759 Z31.7249
 X8.1775 Z31.7285
 X8.1782 Z31.7303
 X8.1788 Z31.7316
 X8.1790 Z31.7320
 X8.1852 Z31.7463
 X8.1867 Z31.7499
 X8.1875 Z31.7517
 X8.1881 Z31.7530
 X8.1883 Z31.7535
 X8.1898 Z31.7568
 X31.9696
 X32.7593 Z30.3615
 X33.5490 Z28.6977
 X34.3387 Z26.9011
 X35.1285 Z24.9531
 X35.9182 Z22.9488
 X36.7079 Z20.8109
 X37.4977 Z18.6052
 X38.2874 Z16.3198
 X39.0771 Z13.9941
G0 Z35.0000
 Y23.1018
G1 Z12.9869
 X38.2874 Z14.9864
 X37.4977 Z16.8312
 X36.7079 Z18.5285
 X35.9182 Z20.0770
 X35.1285 Z21.4670
 X34.3387 Z22.7223
 X33.5490 Z23.9913
 X32.7593 Z25.4355
 X31.9696 Z27.0011
 X31.1798 Z28.8680
 X30.7850 Z29.8212
 X30.5875 Z30.3361
 X30.4888 Z30.5915
 X30.4395 Z30.7187
 X30.4148 Z30.7822
 X30.4024 Z30.8139
 X30.3963 Z30.8297
 X30.3901 Z30.8456
 X30.1927 Z31.3681
 X30.0569 Z31.7529
G0 Z35.0000
 X30.0539
G1 Z31.7176
 X30.0523 Z31.7222
 X30.0515 Z31.7245
 X30.0512 Z31.7568
 X10.2520
 X9.8572 Z30.6966
 X9.0674 Z28.6388
 X8.2777 Z26.8628
 X7.4880 Z25.3010
 X6.6983 Z23.8920
 X5.9085 Z22.6054
 X5.1188 Z21.3880
 X4.3291 Z19.9938
 X3.5393 Z18.4438
 X2.7496 Z16.7473
 X1.9599 Z14.9055
 X1.1702 Z12.9110
G0 Z35.0000
M5 (stop spindle)
G04 P3 (wait for 3 seconds)
G0 Z35.0000
M2 (end program)
