;PYCAM-META-DATA: Filename: C:\Users\abarry\Documents\CAD\Rev3\CAM\cameraCowlForCAM2.STL
;PYCAM-META-DATA: Timestamp: 2012-01-04 10:14:34.547000
;PYCAM-META-DATA: Version: 0.5.1
;Estimated machine time: 14 minutes
G40 (disable tool radius compensation)
G49 (disable tool length compensation)
G80 (cancel modal motion)
G54 (select coordinate system 1)
G90 (disable incremental moves)
G21 (metric)
G61 (exact path mode)
F200.00000
S1000.00000
;PYCAM_TOOLPATH_SETTINGS: START
;[Bounds]
;maxz = 31.75684
;maxx = 38.64044
;maxy = 23.42584
;minx = 1.60683777
;miny = 1.60683777
;minz = 0.0068379
;
;[Tool]
;torus_radius = 0.25
;speed = 1000.0
;shape = CylindricalCutter
;tool_radius = 1.6
;feedrate = 200.0
;
;[Process]
;generator = PushCutter
;pocketing_type = none
;engrave_offset = 0.0
;milling_style = ignore
;path_direction = x
;step_down = 1.5
;postprocessor = ContourCutter
;material_allowance = 0.2
;
;PYCAM_TOOLPATH_SETTINGS: END
T1 M6
G0 Z38.0000
 X12.5111 Y1.6068
G1 Z31.7568
 X9.3799 Y4.7238
 X7.7356 Y7.8408
 X7.0135 Y10.9578
 X7.0424 Y14.0748
 X7.8453 Y17.1918
 X9.5805 Y20.3088
 X12.8899 Y23.4258
 X27.4255
 X30.7441 Y20.3088
 X32.4796 Y17.1918
 X33.2736 Y14.0748
 X33.3059 Y10.9578
 X32.5853 Y7.8408
 X30.9471 Y4.7238
 X27.8201 Y1.6068
 X12.5111
G0 Z38.0000
 X14.3405 Y4.7238
G1 Z31.7568
 X11.6785 Y7.8408
 X10.6396 Y10.9578
 X10.6932 Y14.0748
 X11.8337 Y17.1918
 X14.7321 Y20.3088
 X25.5945
 X28.4879 Y17.1918
 X29.6273 Y14.0748
 X29.6794 Y10.9578
 X28.6334 Y7.8408
 X25.9904 Y4.7238
 X14.3405
G0 Z38.0000
 X12.4452 Y23.4258
G1 Z30.3137
 X8.9346 Y20.3088
 X7.3401 Y17.1918
 X6.6338 Y14.0748
 X6.6136 Y10.9578
 X7.2526 Y7.8408
 X8.7386 Y4.7238
 X12.0607 Y1.6068
 X28.2557
 X31.5738 Y4.7238
 X33.0647 Y7.8408
 X33.7044 Y10.9578
 X33.6797 Y14.0748
 X32.9779 Y17.1918
 X31.3762 Y20.3088
 X27.8693 Y23.4258
 X12.4452
G0 Z38.0000
 X15.8263 Y20.3088
G1 Z30.3137
 X12.5103 Y17.1918
 X11.2904 Y14.0748
 X11.2490 Y10.9578
 X12.3692 Y7.8408
 X15.4332 Y4.7238
 X24.8735
 X27.9343 Y7.8408
 X29.0593 Y10.9578
 X29.0174 Y14.0748
 X27.7970 Y17.1918
 X24.4886 Y20.3088
 X15.8263
G0 Z38.0000
 X11.5699 Y1.6068
G1 Z28.8705
 X8.0374 Y4.7238
 X6.7715 Y7.8408
 X6.2096 Y10.9578
 X6.2253 Y14.0748
 X6.8454 Y17.1918
 X8.2492 Y20.3088
 X11.9513 Y23.4258
 X28.3299
 X32.0749 Y20.3088
 X33.4638 Y17.1918
 X34.0825 Y14.0748
 X34.1045 Y10.9578
 X33.5370 Y7.8408
 X32.2743 Y4.7238
 X28.7418 Y1.6068
 X11.5699
G0 Z38.0000
 X16.6616 Y4.7238
G1 Z28.8705
 X13.0571 Y7.8408
 X11.8310 Y10.9578
 X11.8724 Y14.0748
 X13.1906 Y17.1918
 X17.1404 Y20.3088
 X23.1594
 X27.1133 Y17.1918
 X28.4298 Y14.0748
 X28.4702 Y10.9578
 X27.2434 Y7.8408
 X23.6304 Y4.7238
 X16.6616
G0 Z38.0000
 X11.4492 Y23.4258
G1 Z27.4273
 X7.5256 Y20.3088
 X6.3683 Y17.1918
 X5.8215 Y14.0748
 X5.8056 Y10.9578
 X6.3150 Y7.8408
 X7.3951 Y4.7238
 X11.0699 Y1.6068
 X29.2541
 X32.9134 Y4.7238
 X33.9934 Y7.8408
 X34.5046 Y10.9578
 X34.4835 Y14.0748
 X33.9402 Y17.1918
 X32.7828 Y20.3088
 X28.8593 Y23.4258
 X11.4492
G0 Z38.0000
 X19.3693 Y20.3088
G1 Z27.4273
 X13.8305 Y17.1918
 X12.4084 Y14.0748
 X12.3721 Y10.9578
 X13.7085 Y7.8408
 X18.3606 Y4.7238
 X21.9208
 X26.5809 Y7.8408
 X27.9202 Y10.9578
 X27.8813 Y14.0748
 X26.4596 Y17.1918
 X20.9314 Y20.3088
 X19.3693
G0 Z38.0000
 X10.4953 Y1.6068
G1 Z25.9841
 X6.8019 Y4.7238
 X5.8605 Y7.8408
 X5.4016 Y10.9578
 X5.4179 Y14.0748
 X5.9109 Y17.1918
 X6.8912 Y20.3088
 X10.8865 Y23.4258
 X29.4076
 X33.4140 Y20.3088
 X34.3943 Y17.1918
 X34.8853 Y14.0748
 X34.9046 Y10.9578
 X34.4447 Y7.8408
 X33.4917 Y4.7238
 X29.8119 Y1.6068
 X10.4953
G0 Z38.0000
 X14.3274 Y7.8408
G1 Z25.9841
 X12.8680 Y10.9578
 X12.8963 Y14.0748
 X14.4319 Y17.1918
 X25.8478
 X27.3875 Y14.0748
 X27.4093 Y10.9578
 X25.9521 Y7.8408
 X14.3274
G0 Z38.0000
 X10.2661 Y23.4258
G1 Z24.5409
 X6.3124 Y20.3088
 X5.4476 Y17.1918
 X5.0137 Y14.0748
 X4.9977 Y10.9578
 X5.4006 Y7.8408
 X6.2430 Y4.7238
 X9.8981 Y1.6068
 X30.4362
 X34.0631 Y4.7238
 X34.9014 Y7.8408
 X35.3047 Y10.9578
 X35.2870 Y14.0748
 X34.8544 Y17.1918
 X33.9863 Y20.3088
 X30.0289 Y23.4258
 X10.2661
G0 Z38.0000
 X14.9744 Y17.1918
G1 Z24.5409
 X13.3350 Y14.0748
 X13.3074 Y10.9578
 X14.9035 Y7.8408
 X25.3814
 X26.9602 Y10.9578
 X26.9444 Y14.0748
 X25.2889 Y17.1918
 X14.9744
G0 Z38.0000
 X9.2000 Y1.6068
G1 Z23.0977
 X5.6812 Y4.7238
 X4.9455 Y7.8408
 X4.5997 Y10.9578
 X4.6049 Y14.0748
 X4.9939 Y17.1918
 X5.7436 Y20.3088
 X9.5892 Y23.4258
 X30.6865
 X34.5551 Y20.3088
 X35.3145 Y17.1918
 X35.6889 Y14.0748
 X35.7057 Y10.9578
 X35.3392 Y7.8408
 X34.6176 Y4.7238
 X31.0880 Y1.6068
 X9.2000
G0 Z38.0000
 X15.4120 Y7.8408
G1 Z23.0977
 X13.6916 Y10.9578
 X13.7019 Y14.0748
 X15.4744 Y17.1918
 X24.7926
 X26.5569 Y14.0748
 X26.5741 Y10.9578
 X24.8455 Y7.8408
 X15.4120
G0 Z38.0000
 X8.8609 Y23.4258
G1 Z21.6546
 X5.2053 Y20.3088
 X4.5451 Y17.1918
 X4.2005 Y14.0748
 X4.1981 Y10.9578
 X4.5065 Y7.8408
 X5.1548 Y4.7238
 X8.4342 Y1.6068
 X31.8495
 X35.1407 Y4.7238
 X35.7826 Y7.8408
 X36.1076 Y10.9578
 X36.0878 Y14.0748
 X35.7602 Y17.1918
 X35.0903 Y20.3088
 X31.4544 Y23.4258
 X8.8609
G0 Z38.0000
 X15.8762 Y17.1918
G1 Z21.6546
 X13.9944 Y14.0748
 X13.9922 Y10.9578
 X15.8444 Y7.8408
 X24.3952
 X26.2630 Y10.9578
 X26.2594 Y14.0748
 X24.3845 Y17.1918
 X15.8762
G0 Z38.0000
 X7.5948 Y1.6068
G1 Z20.2114
 X4.6313 Y4.7238
 X4.0628 Y7.8408
 X3.7966 Y10.9578
 X3.7959 Y14.0748
 X4.0908 Y17.1918
 X4.6673 Y20.3088
 X7.9977 Y23.4258
 X32.3122
 X35.6250 Y20.3088
 X36.2026 Y17.1918
 X36.4868 Y14.0748
 X36.5014 Y10.9578
 X36.2226 Y7.8408
 X35.6541 Y4.7238
 X32.6763 Y1.6068
 X7.5948
G0 Z38.0000
 X7.0432 Y23.4258
G1 Z18.7682
 X4.1669 Y20.3088
 X3.6571 Y17.1918
 X3.3965 Y14.0748
 X3.3950 Y10.9578
 X3.6367 Y7.8408
 X4.1261 Y4.7238
 X6.6154 Y1.6068
 X33.6300
 X36.1502 Y4.7238
 X36.6524 Y7.8408
 X36.8989 Y10.9578
 X36.8877 Y14.0748
 X36.6323 Y17.1918
 X36.1322 Y20.3088
 X33.2557 Y23.4258
 X7.0432
G0 Z38.0000
 X5.5169 Y1.6068
G1 Z17.3250
 X3.6290 Y4.7238
 X3.2117 Y7.8408
 X2.9894 Y10.9578
 X2.9952 Y14.0748
 X3.2208 Y17.1918
 X3.6712 Y20.3088
 X5.9428 Y23.4258
 X34.3640
 X36.6356 Y20.3088
 X37.0651 Y17.1918
 X37.2886 Y14.0748
 X37.2965 Y10.9578
 X37.0742 Y7.8408
 X36.6406 Y4.7238
 X34.7346 Y1.6068
 X5.5169
G0 Z38.0000
 X4.6517 Y23.4258
G1 Z15.8818
 X3.1740 Y20.3088
 X2.7871 Y17.1918
 X2.5967 Y14.0748
 X2.5925 Y10.9578
 X2.7709 Y7.8408
 X3.1515 Y4.7238
 X4.3476 Y1.6068
 X35.9351
 X37.1291 Y4.7238
 X37.5046 Y7.8408
 X37.6902 Y10.9578
 X37.6852 Y14.0748
 X37.5023 Y17.1918
 X37.1126 Y20.3088
 X35.6310 Y23.4258
 X4.6517
G0 Z38.0000
 X3.4903 Y1.6068
G1 Z14.4387
 X2.6719 Y4.7238
 X2.3483 Y7.8408
 X2.2124 Y10.9578
 X2.1942 Y14.0748
 X2.3692 Y17.1918
 X2.6986 Y20.3088
 X3.6288 Y23.4258
 X36.6506
 X37.5987 Y20.3088
 X37.9226 Y17.1918
 X38.0641 Y14.0748
 X38.0905 Y10.9578
 X37.9202 Y7.8408
 X37.5972 Y4.7238
 X36.7892 Y1.6068
 X3.4903
G0 Z38.0000
 X2.8583 Y23.4258
G1 Z12.9955
 X2.2202 Y20.3088
 X1.9472 Y17.1918
 X1.7980 Y14.0748
 X1.8125 Y10.9578
 X1.9257 Y7.8408
 X2.1993 Y4.7238
 X2.7787 Y1.6068
 X37.4976
 X38.0708 Y4.7238
 X38.3358 Y7.8408
 X38.4799 Y10.9578
 X38.4611 Y14.0748
 X38.3428 Y17.1918
 X38.0642 Y20.3088
 X37.4179 Y23.4258
 X2.8583
G0 Z38.0000
 X2.1490 Y1.6068
G1 Z11.5523
 X1.7353 Y4.7238
 X1.7512 Y20.3088
 X2.1946 Y23.4258
 X38.0785
 X38.5218 Y20.3088
 X38.5311 Y4.7238
 X38.1240 Y1.6068
 X2.1490
G0 Z38.0000
G0 Z38.0000
M2 (end program)
