;PYCAM-META-DATA: Filename: /home/abarry/MIT/RLG/robotlib3/robots/Plane/CAD/Rev3/CAM/cameraCowlForCAM3-no-deephole.STL
;PYCAM-META-DATA: Timestamp: 2012-01-29 22:57:17.874772
;PYCAM-META-DATA: Version: 0.5.1
;Estimated machine time: 16 minutes
G40 (disable tool radius compensation)
G49 (disable tool length compensation)
G80 (cancel modal motion)
G54 (select coordinate system 1)
G90 (disable incremental moves)
G21 (metric)
G64 (continuous mode with maximum speed)
F152.00000
S1000.00000
;PYCAM_TOOLPATH_SETTINGS: START
;[Bounds]
;maxz = 31.75684
;maxx = 41.113800223
;maxy = 29.9634812087
;minx = -0.866522453
;miny = 0.1492267043
;minz = 0.0068379
;
;[Tool]
;torus_radius = 0.25
;speed = 1000.0
;shape = CylindricalCutter
;tool_radius = 3.15
;feedrate = 152.0
;
;[Process]
;engrave_offset = 0.0
;step_down = 3.0
;generator = PushCutter
;postprocessor = SimpleCutter
;milling_style = ignore
;material_allowance = 4.0
;pocketing_type = none
;path_direction = x
;
;PYCAM_TOOLPATH_SETTINGS: END
T2 M6
G0 Z35.0000
M3 (start spindle)
G04 P3 (wait for 3 seconds)
 X-0.8665 Y0.1492
G1 Z31.7568
 X8.8896
G0 Z35.0000
 X31.4247
G1 Z31.7568
 X41.1138
 Y6.1121
 X36.4987
G0 Z35.0000
 X3.8127
G1 Z31.7568
 X-0.8665
 Y12.0749
 X1.8145
G0 Z35.0000
 X16.9901
G1 Z31.7568
 X23.3374
G0 Z35.0000
 X38.5114
G1 Z31.7568
 X41.1138
 Y18.0378
 X38.4636
G0 Z35.0000
 X23.0653
G1 Z31.7568
 X17.2431
G0 Z35.0000
 X1.8567
G1 Z31.7568
 X-0.8665
 Y24.0006
 X3.9624
G0 Z35.0000
 X36.3660
G1 Z31.7568
 X41.1138
 Y29.9635
 X31.0555
G0 Z35.0000
 X9.2565
G1 Z31.7568
 X-0.8665
 Z28.8705
 X8.1055
G0 Z35.0000
 X32.2332
G1 Z28.8705
 X41.1138
 Y24.0006
 X37.5514
G0 Z35.0000
 X2.7562
G1 Z28.8705
 X-0.8665
 Y18.0378
 X1.0209
G0 Z35.0000
 X19.8601
G1 Z28.8705
 X20.4434
G0 Z35.0000
 X39.2889
G1 Z28.8705
 X41.1138
 Y12.0749
 X39.3328
G0 Z35.0000
 X21.2834
G1 Z28.8705
 X19.0175
G0 Z35.0000
 X0.9869
G1 Z28.8705
 X-0.8665
 Y6.1121
 X2.6414
G0 Z35.0000
 X37.6724
G1 Z28.8705
 X41.1138
 Y0.1492
 X32.5604
G0 Z35.0000
 X7.7387
G1 Z28.8705
 X-0.8665
 Z25.9841
 X6.4827
G0 Z35.0000
 X33.8225
G1 Z25.9841
 X41.1138
 Y6.1121
 X38.7820
G0 Z35.0000
 X1.5233
G1 Z25.9841
 X-0.8665
 Y12.0749
 X0.1590
G0 Z35.0000
 X40.1502
G1 Z25.9841
 X41.1138
 Y18.0378
 X40.1247
G0 Z35.0000
 X0.1854
G1 Z25.9841
 X-0.8665
 Y24.0006
 X1.6083
G0 Z35.0000
 X38.6975
G1 Z25.9841
 X41.1138
 Y29.9635
 X33.5256
G0 Z35.0000
 X6.7987
G1 Z25.9841
 X-0.8665
 Z23.0977
 X5.3290
G0 Z35.0000
 X34.9698
G1 Z23.0977
 X41.1138
 Y24.0006
 X39.7947
G0 Z35.0000
 X0.5040
G1 Z23.0977
 X-0.8665
 Y18.0378
 X-0.6485
G0 Z35.0000
 X40.9377
G1 Z23.0977
 X41.1138
 Y12.0749
 X40.9687
G0 Z35.0000
 X-0.6644
G1 Z23.0977
 X-0.8665
 Y6.1121
 X0.4486
G0 Z35.0000
 X39.8502
G1 Z23.0977
 X41.1138
 Y0.1492
 X35.2615
G0 Z35.0000
 X5.0373
G1 Z23.0977
 X-0.8665
 Z20.2114
 X3.4125
G0 Z35.0000
 X36.8768
G1 Z20.2114
 X41.1138
 Y6.1121
 X40.8801
G0 Z35.0000
 X-0.5932
G1 Z20.2114
 X-0.8665
G0 Z35.0000
 Y24.0006
G1 Z20.2114
 X-0.5496
G0 Z35.0000
 X40.8453
G1 Z20.2114
 X41.1138
 Y29.9635
 X36.6132
G0 Z35.0000
 X3.6948
G1 Z20.2114
 X-0.8665
 Z17.3250
 X1.8200
G0 Z35.0000
 X38.4659
G1 Z17.3250
 X41.1138
G0 Z35.0000
 Y0.1492
G1 Z17.3250
 X38.6856
G0 Z35.0000
 X1.6004
G1 Z17.3250
 X-0.8665
 Z14.4387
 X-0.0678
G0 Z35.0000
 X40.3473
G1 Z14.4387
 X41.1138
G0 Z35.0000
 Y29.9635
G1 Z14.4387
 X40.2088
G0 Z35.0000
 X0.0707
G1 Z14.4387
 X-0.8665
G0 Z35.0000
M5 (stop spindle)
G04 P3 (wait for 3 seconds)
G0 Z35.0000
M2 (end program)
