;PYCAM-META-DATA: Filename: /home/abarry/MIT/RLG/robotlib3/robots/Plane/CAD/Rev3/CAM/cameraCowlForCAM3.STL
;PYCAM-META-DATA: Timestamp: 2012-01-30 00:52:15.671555
;PYCAM-META-DATA: Version: 0.5.1
;Estimated machine time: 3 minutes
G40 (disable tool radius compensation)
G49 (disable tool length compensation)
G80 (cancel modal motion)
G54 (select coordinate system 1)
G90 (disable incremental moves)
G21 (metric)
G64 (continuous mode with maximum speed)
F152.00000
S1000.00000
;PYCAM_TOOLPATH_SETTINGS: START
;[Bounds]
;maxz = 31.7568397522
;maxx = 27.4320368581
;maxy = 19.8301584367
;minx = 12.8152374662
;miny = 10.2825514209
;minz = 0.00683790026233
;
;[Tool]
;torus_radius = 0.25
;speed = 1000.0
;shape = CylindricalCutter
;tool_radius = 2.75
;feedrate = 152.0
;
;[Process]
;engrave_offset = 0.0
;step_down = 3.0
;generator = DropCutter
;postprocessor = PathAccumulator
;milling_style = ignore
;material_allowance = 0.01
;pocketing_type = none
;path_direction = x
;
;PYCAM_TOOLPATH_SETTINGS: END
T2 M6
G0 Z35.0000
M3 (start spindle)
G04 P3 (wait for 3 seconds)
 X12.8152 Y10.2826
G1 Z31.7568
 X13.4796 Z30.5053
 X14.1440 Z29.1964
 X14.8084 Z27.8603
 X15.4728 Z26.4959
 X16.1372 Z25.0913
 X16.8016 Z23.6262
 X17.1338 Z22.8866
 X17.2999 Z22.4884
 X17.3830 Z22.3000
 X17.4660 Z22.0863
 X17.6321 Z21.6941
 X17.7048 Z21.5234
 X17.7100 Z21.5105
 X17.7152 Z21.4970
 X17.7982 Z21.3532
 X17.8813 Z21.0867
 X17.9643 Z20.8905
 X18.0059 Z0.0068
 X22.1168
 X22.2829 Z20.8883
 X22.3660 Z21.1505
 X22.4075 Z21.2696
 X22.4283 Z21.3347
 X22.4490 Z21.4025
 X22.7812 Z22.0938
 X23.4456 Z23.5892
 X24.1100 Z25.0202
 X24.7744 Z26.4067
 X25.4388 Z27.7647
 X26.1032 Z29.0826
 X26.7676 Z30.4036
 X27.4320 Z31.6609
G0 Z35.0000
 Y12.1921
G1 Z29.6290
 X26.7676 Z28.0583
 X26.1032 Z26.3738
 X25.4388 Z24.4634
 X25.1066 Z23.3557
 X24.9405 Z22.7760
 X24.7744 Z22.0943
 X24.6083 Z21.3790
 X24.5253 Z21.0157
 X24.4838 Z20.8445
 X24.4630 Z0.0068
 X15.8050
 X15.6389 Z21.3718
 X15.4728 Z22.1295
 X14.8084 Z24.5108
 X14.1440 Z26.4474
 X13.4796 Z28.1708
 X12.8152 Z29.7621
G0 Z35.0000
 Y14.1016
G1 Z28.6037
 X13.4796 Z26.7493
 X14.1440 Z24.6258
 X14.4762 Z23.3813
 X14.6423 Z22.6919
 X14.8084 Z21.8033
 X14.9745 Z20.9126
 X15.0161 Z0.0068
 X25.1066
 X25.2727 Z20.8939
 X25.4388 Z21.7836
 X26.1032 Z24.5396
 X26.7676 Z26.6418
 X27.4320 Z28.4658
G0 Z35.0000
 Y16.0111
G1 Z28.5278
 X26.7676 Z26.7086
 X26.1032 Z24.5975
 X25.7710 Z23.3696
 X25.6049 Z22.6851
 X25.4388 Z21.8028
 X25.2727 Z20.9122
 X25.2312 Z0.0068
 X15.1406
 X14.9745 Z20.8978
 X14.8084 Z21.8459
 X14.1440 Z24.6929
 X13.4796 Z26.8180
 X12.8152 Z28.6675
G0 Z35.0000
 Y17.9206
G1 Z29.9662
 X13.4796 Z28.3662
 X14.1440 Z26.6381
 X14.8084 Z24.6828
 X15.1406 Z23.5410
 X15.3067 Z22.9489
 X15.4728 Z22.2351
 X15.6389 Z21.4477
 X15.7220 Z21.0942
 X15.7635 Z20.8348
 X15.7843 Z0.0068
 X24.4422
 X24.6083 Z21.3918
 X24.7744 Z22.1873
 X25.4388 Z24.5860
 X26.1032 Z26.5397
 X26.7676 Z28.2476
 X27.4320 Z29.8361
G0 Z35.0000
 Y19.8302
G1 Z31.7568
 X27.2867
 X27.2659 Z31.7238
 X27.1829 Z31.5561
 X27.0998 Z31.3883
 X26.7676 Z30.7196
 X26.1032 Z29.4090
 X25.4388 Z28.0943
 X24.7744 Z26.7276
 X24.1100 Z25.3129
 X23.4456 Z23.8247
 X23.1134 Z23.0355
 X22.9473 Z22.6414
 X22.8643 Z22.4242
 X22.7812 Z22.2290
 X22.6151 Z21.7769
 X22.5736 Z21.6699
 X22.5321 Z21.5630
 X22.4490 Z21.4065
 X22.3660 Z21.1237
 X22.2829 Z20.8963
 X22.2414 Z0.0068
 X18.1304
 X17.9643 Z20.9006
 X17.8813 Z21.2041
 X17.8398 Z21.3527
 X17.8190 Z21.4337
 X17.7982 Z21.4958
 X17.4660 Z22.2330
 X16.8016 Z23.8524
 X16.1372 Z25.3486
 X15.4728 Z26.8038
 X14.8084 Z28.2029
 X14.1440 Z29.5396
 X13.8118 Z30.1886
 X13.6457 Z30.5357
 X13.4796 Z30.8750
 X12.8152 Z31.7568
G0 Z35.0000
M5 (stop spindle)
G04 P3 (wait for 3 seconds)
G0 Z35.0000
M2 (end program)
