;PYCAM-META-DATA: Filename: /home/abarry/MIT/RLG/robotlib3/robots/Plane/CAD/Rev3/CAM/cameraCowlForCAM3-no-deephole.STL
;PYCAM-META-DATA: Timestamp: 2012-01-23 20:46:59.594259
;PYCAM-META-DATA: Version: 0.5.1
;Estimated machine time: 8 minutes
G40 (disable tool radius compensation)
G49 (disable tool length compensation)
G80 (cancel modal motion)
G54 (select coordinate system 1)
G90 (disable incremental moves)
G21 (metric)
G64 (continuous mode with maximum speed)
F152.00000
S1000.00000
;PYCAM_TOOLPATH_SETTINGS: START
;[Bounds]
;maxz = 31.75684
;maxx = 41.473800223
;maxy = 30.3234812087
;minx = -1.226522453
;miny = -0.2107732957
;minz = 0.0068379
;
;[Tool]
;torus_radius = 0.25
;speed = 1000.0
;shape = CylindricalCutter
;tool_radius = 2.79
;feedrate = 152.0
;
;[Process]
;engrave_offset = 0.0
;step_down = 3.0
;generator = DropCutter
;postprocessor = PathAccumulator
;milling_style = ignore
;material_allowance = 0.01
;pocketing_type = none
;path_direction = x
;
;PYCAM_TOOLPATH_SETTINGS: END
T1 M6
G0 Z35.0000
M3 (start spindle)
G04 P3 (wait for 3 seconds)
 X-1.2265 Y-0.2108
G1 Z0.0068
 X-0.5378
 X0.1509 Z0.5983
 X0.8396 Z1.2498
 X1.5283 Z1.9053
 X2.2171 Z2.5709
 X2.9058 Z3.2677
 X3.5945 Z3.9974
 X4.2832 Z4.7317
 X4.9719 Z5.4751
 X5.6606 Z6.2421
 X6.3493 Z7.0387
 X7.0381 Z7.8498
 X7.7268 Z8.7032
 X8.4155 Z9.5657
 X9.1042 Z10.4216
 X9.7929 Z11.3939
 X10.4816 Z12.3238
 X11.1703 Z13.3173
 X11.8591 Z14.2768
 X12.5478 Z15.3605
 X13.2365 Z16.3747
 X13.9252 Z17.3456
 X14.6139 Z18.4142
 X15.3026 Z19.4674
 X15.9913 Z20.3574
 X16.3357 Z20.8225
 X16.6801 Z21.2476
 X17.3688 Z21.9821
 X17.6701 Z22.2880
 X17.6916 Z22.3131
 X17.7131 Z22.3374
 X17.8853 Z22.4959
 X18.0575 Z22.6321
 X18.4019 Z22.8743
 X18.9184 Z23.2159
 X19.0045 Z23.2581
 X19.0475 Z23.2781
 X19.0690 Z23.2898
 X19.0798 Z23.2951
 X19.0906 Z23.3001
 X19.4349 Z23.3896
 X20.0322 Z23.5473
 X20.0335 Z23.5249
 X20.0349 Z23.5253
 X20.0375 Z23.5259
 X20.0806 Z23.5334
 X20.1021 Z23.5375
 X20.1129 Z23.5390
 X20.1236 Z23.5401
 X20.4680 Z23.4625
 X21.0597 Z23.3711
 X21.0598 Z23.3366
 X21.0599
 X21.0706 Z23.3346
 X21.1137 Z23.3276
 X21.1352 Z23.3239
 X21.1460 Z23.3215
 X21.1513 Z23.3201
 X21.1567 Z23.3187
 X21.5011 Z23.0822
 X22.0445 Z22.7772
 X22.0459 Z22.7341
 X22.0472 Z22.7333
 X22.0499 Z22.7317
 X22.0606 Z22.7252
 X22.0714 Z22.7182
 X22.0768 Z22.7147
 X22.0822 Z22.7114
 X22.1037 Z22.7026
 X22.1252 Z22.6953
 X22.1467 Z22.6865
 X22.1683 Z22.6764
 X22.1898 Z22.6648
 X22.8785 Z21.9786
 X23.5672 Z21.2260
 X24.2559 Z20.3571
 X24.9446 Z19.3798
 X25.2890 Z18.8960
 X25.3751 Z18.7974
 X25.4181 Z18.7547
 X25.4612 Z18.7077
 X25.6334 Z18.4784
 X26.3221 Z17.3843
 X27.0108 Z16.4582
 X27.6995 Z15.3927
 X28.3882 Z14.2928
 X29.0769 Z13.3540
 X29.7656 Z12.3726
 X30.4544 Z11.4272
 X31.1431 Z10.5268
 X31.8318 Z9.5933
 X32.5205 Z8.6856
 X33.2092 Z7.8667
 X33.8979 Z7.0085
 X34.5867 Z6.2429
 X35.2754 Z5.4366
 X35.9641 Z4.7043
 X36.6528 Z3.9903
 X37.3415 Z3.2494
 X38.0302 Z2.5329
 X38.7189 Z1.8513
 X39.4077 Z1.2590
 X40.0964 Z0.6020
 X40.7256 Z0.0070
 X40.7257 Z0.0068
 X41.4738
G0 Z35.0000
 Y4.1513
G1 Z4.8746
 X40.7851 Z6.9520
 X40.0964 Z8.9966
 X39.4077 Z10.9395
 X38.7189 Z12.7377
 X38.0302 Z14.4069
 X37.3415 Z15.9543
 X36.6528 Z17.3805
 X35.9641 Z18.6799
 X35.2754 Z19.8387
 X34.5867 Z20.9486
 X33.8979 Z22.1474
 X33.2092 Z23.3992
 X32.5205 Z24.7074
 X31.8318 Z26.1550
 X31.1431 Z27.6127
 X30.4544 Z29.2703
 X30.1100 Z30.0654
 X29.9378 Z30.5011
 X29.8517 Z30.7171
 X29.7656 Z30.9345
 X29.5935 Z31.3841
 X29.4468 Z31.7561
G0 Z35.0000
 X29.4455
G1 Z31.7324
 X29.4442 Z31.7358
 X29.4435 Z31.7376
 X29.4431 Z31.7384
 X29.4428 Z31.7393
 X29.4415 Z31.7427
 X29.4408 Z31.7445
 X29.4401 Z31.7462
 X29.4388 Z31.7496
 X29.4381 Z31.7514
 X29.4378 Z31.7522
 X29.4376 Z31.7527
 X29.4375 Z31.7568
 X10.9121
 X10.8260 Z31.5988
 X10.4816 Z30.7445
 X9.7929 Z29.0731
 X9.1042 Z27.5165
 X8.4155 Z26.0329
 X7.7268 Z24.6106
 X7.0381 Z23.3364
 X6.3493 Z22.0831
 X5.6606 Z20.9140
 X4.9719 Z19.7691
 X4.2832 Z18.6053
 X3.5945 Z17.3038
 X2.9058 Z15.8777
 X2.2171 Z14.3322
 X1.5283 Z12.6665
 X0.8396 Z10.8736
 X0.1509 Z8.9380
 X-0.5378 Z6.9372
 X-1.2265 Z4.8700
G0 Z35.0000
 Y8.5133
G1 Z5.3242
 X-0.5378 Z7.6593
 X0.1509 Z9.9267
 X0.8396 Z12.2253
 X1.5283 Z14.4526
 X2.2171 Z16.6710
 X2.9058 Z18.8276
 X3.5945 Z20.9529
 X4.2832 Z23.0158
 X4.9719 Z25.0171
 X5.6606 Z26.9571
 X6.3493 Z28.8343
 X7.2102 Z31.1010
 X7.2963 Z31.3070
 X7.3394 Z31.4172
 X7.3609 Z31.4720
 X7.3717 Z31.4993
 X7.3770 Z31.5130
 X7.3797 Z31.5198
 X7.3811 Z31.5232
 X7.3817 Z31.5250
 X7.3824 Z31.5267
 X7.4255 Z31.6356
 X7.4470 Z31.6898
 X7.4577 Z31.7168
 X7.4631 Z31.7303
 X7.4658 Z31.7371
 X7.4672 Z31.7405
 X7.4678 Z31.7421
 X7.4682 Z31.7430
 X7.4685 Z31.7438
 X7.4712 Z31.7506
 X7.4725 Z31.7568
 X14.3987
 X14.4417 Z31.7044
 X14.6139 Z31.4425
 X15.3026 Z30.3992
 X15.9913 Z29.4331
 X16.6801 Z28.5411
 X17.3688 Z27.7550
 X17.7131 Z27.4027
 X17.8853 Z27.2390
 X18.0575 Z27.0849
 X18.4019 Z26.8155
 X18.5740 Z26.6894
 X18.6601 Z26.6317
 X18.7462 Z26.5770
 X18.9184 Z26.4794
 X19.0906 Z26.3954
 X19.2843 Z26.3063
 X19.2950 Z26.3021
 X19.3004 Z26.3006
 X19.3031 Z26.2998
 X19.3058 Z26.2990
 X19.3273 Z26.2958
 X19.3381
 X19.3488 Z26.2907
 X19.4134 Z26.2642
 X19.4242 Z26.2590
 X19.4349 Z26.2549
 X19.6071 Z26.2114
 X19.6999 Z26.1908
 X19.7006 Z26.1969
 X19.7416 Z26.1934
 X19.7430 Z26.1812
 X19.7793 Z26.1732
 X19.8654 Z26.1592
 X19.8869 Z26.1549
 X19.8923 Z26.1538
 X19.8950 Z26.1532
 X19.8977 Z26.1526
 X19.9084 Z26.1515
 X20.0375 Z26.1473
 X20.1236 Z26.1516
 X20.1660 Z26.1563
 X20.1663 Z26.1431
 X20.1882 Z26.1424
 X20.2097 Z26.1436
 X20.2528 Z26.1453
 X20.2743 Z26.1455
 X20.2851 Z26.1453
 X20.2904 Z26.1452
 X20.2958 Z26.1451
 X20.3819 Z26.1563
 X20.5971 Z26.1902
 X20.6402 Z26.1991
 X20.6617 Z26.2030
 X20.6725 Z26.2047
 X20.6778 Z26.2055
 X20.6805 Z26.2059
 X20.6832 Z26.2062
 X20.7047 Z26.2120
 X20.8124 Z26.2495
 X20.9845 Z26.3062
 X21.1567 Z26.3795
 X21.3289 Z26.4607
 X21.3504 Z26.4724
 X21.3612 Z26.4780
 X21.3666 Z26.4807
 X21.3692 Z26.4820
 X21.3706 Z26.4827
 X21.3713 Z26.4830
 X21.3716 Z26.4832
 X21.3719 Z26.4834
 X21.3746 Z26.4847
 X21.3760 Z26.4853
 X21.3766 Z26.4857
 X21.3770 Z26.4858
 X21.3771 Z26.4859
 X21.3772 Z26.4860
 X21.3773
 X21.3787 Z26.4992
 X21.4580 Z26.5359
 X21.5011 Z26.5565
 X21.8454 Z26.7814
 X22.0176 Z26.9127
 X22.1898 Z27.0508
 X22.8785 Z27.7082
 X23.5672 Z28.4799
 X24.2559 Z29.3661
 X24.9446 Z30.3514
 X25.2890 Z30.8242
 X25.4612 Z31.0610
 X25.5473 Z31.2053
 X25.5903 Z31.2702
 X25.6118 Z31.3008
 X25.6226 Z31.3156
 X25.6280 Z31.3229
 X25.6334 Z31.3301
 X25.8055 Z31.5833
 X25.8486 Z31.6446
 X25.8701 Z31.6743
 X25.8809 Z31.6889
 X25.8862 Z31.6961
 X25.8889 Z31.6997
 X25.8903 Z31.7015
 X25.8910 Z31.7025
 X25.8916 Z31.7036
 X25.9131 Z31.7363
 X25.9185 Z31.7446
 X25.9212 Z31.7487
 X25.9226 Z31.7507
 X25.9232 Z31.7518
 X25.9236 Z31.7523
 X25.9237 Z31.7525
 X25.9238 Z31.7527
 X25.9239 Z31.7528
 X25.9253 Z31.7568
 X32.8514
 X32.8528 Z31.7527
 X32.8534 Z31.7512
 X32.8538 Z31.7504
 X32.8541 Z31.7496
 X32.8649 Z31.7336
 X33.2092 Z30.8679
 X33.8979 Z29.0125
 X34.5867 Z27.1443
 X35.2754 Z25.1787
 X35.9641 Z23.1411
 X36.6528 Z21.0473
 X37.3415 Z18.9238
 X38.0302 Z16.7680
 X38.7189 Z14.5556
 X39.4077 Z12.3253
 X40.0964 Z10.0208
 X40.7851 Z7.7499
 X41.4738 Z5.4178
G0 Z35.0000
 Y12.8753
G1 Z5.6850
 X40.7851 Z8.1832
 X40.0964 Z10.7198
 X39.4077 Z13.2172
 X38.7189 Z15.7090
 X38.0302 Z18.2080
 X37.3415 Z20.6784
 X36.6528 Z23.1605
 X35.9641 Z25.6254
 X35.2754 Z28.0897
 X34.9310 Z29.3105
 X34.7588 Z29.9181
 X34.6727 Z30.2212
 X34.6297 Z30.3725
 X34.6082 Z30.4482
 X34.5974 Z30.4860
 X34.5867 Z30.5238
 X34.4145 Z31.1276
 X34.3284 Z31.4288
 X34.2853 Z31.5793
 X34.2638 Z31.6544
 X34.2531 Z31.6920
 X34.2477 Z31.7108
 X34.2436 Z31.7249
 X34.2423 Z31.7296
 X33.8979 Z31.7568
 X28.5604
 X28.3882 Z31.4211
 X27.6995 Z29.8338
 X27.0108 Z28.1578
 X26.3221 Z26.3179
 X25.6334 Z24.2265
 X25.2890 Z22.9439
 X25.1168 Z22.2292
 X25.0307 Z21.8417
 X24.9662 Z21.5320
 X24.9554 Z21.4791
 X24.8586 Z20.9651
 X24.8532 Z20.9004
 X24.8478 Z20.8706
 X24.8451 Z20.8597
 X24.8438 Z20.8529
 X24.8431 Z20.8495
 X24.8427 Z20.8478
 X24.8426 Z20.8469
 X24.8425 Z20.8465
 Z20.8463
 X24.8424 Z20.8460
 X24.8411 Z20.8391
 X24.8404 Z20.8357
 X24.8401 Z20.8348
 X15.4748
 X15.3026 Z21.4725
 X14.6139 Z24.2673
 X13.9252 Z26.4127
 X13.2365 Z28.2741
 X12.5478 Z29.9821
 X12.2034 Z30.8022
 X11.7918 Z31.7395
 X11.7905 Z31.7568
 X6.0938
 X6.0911 Z31.7489
 X6.0050 Z31.4488
 X5.6606 Z30.2463
 X4.9719 Z27.8466
 X4.2832 Z25.4191
 X3.5945 Z22.9524
 X2.2171 Z18.0256
 X1.5283 Z15.5833
 X0.8396 Z13.1114
 X0.1509 Z10.6305
 X-0.5378 Z8.1173
 X-1.2265 Z5.6393
G0 Z35.0000
 Y17.2374
G1 Z5.6381
 X-0.5378 Z8.1135
 X0.1509 Z10.6354
 X0.8396 Z13.0988
 X1.5283 Z15.5683
 X2.2171 Z18.0264
 X2.9058 Z20.4761
 X3.5945 Z22.9164
 X4.2832 Z25.3424
 X4.9719 Z27.7363
 X5.3163 Z28.9323
 X5.4884 Z29.5224
 X5.5745 Z29.8190
 X5.6606 Z30.1152
 X5.8328 Z30.7108
 X5.9189 Z31.0097
 X5.9835 Z31.2338
 X5.9942 Z31.2714
 X5.9996 Z31.2903
 X6.0023 Z31.2998
 X6.0036 Z31.3045
 X6.0050 Z31.3092
 X6.0911 Z31.6088
 X6.1126 Z31.6829
 X6.1234 Z31.7199
 X6.1287 Z31.7383
 X6.1314 Z31.7476
 X6.1328 Z31.7568
 X11.8591
 X12.5478 Z30.1307
 X13.2365 Z28.4288
 X13.9252 Z26.5600
 X14.6139 Z24.4128
 X14.9583 Z23.1129
 X15.1305 Z22.3599
 X15.2165 Z21.9373
 X15.2919 Z21.5416
 X15.2973 Z21.5175
 X15.3013
 X15.3020 Z21.4906
 X15.3847 Z21.0048
 X15.3854 Z20.9716
 X15.4022 Z20.8674
 X15.4035 Z20.8595
 X15.4042 Z20.8558
 X15.4045 Z20.8539
 X15.4049 Z20.8520
 X15.4062 Z20.8444
 X15.4069 Z20.8406
 X15.4072 Z20.8387
 X15.4074 Z20.8378
 X15.4075 Z20.8373
 X15.4076 Z20.8368
 X15.4089 Z20.8348
 X24.7725
 X24.9446 Z21.4863
 X25.6334 Z24.3097
 X26.3221 Z26.4695
 X27.0108 Z28.3037
 X27.6995 Z29.9940
 X28.0439 Z30.8062
 X28.3452 Z31.4962
 X28.3667 Z31.5412
 X28.3775 Z31.5657
 X28.3828 Z31.5779
 X28.3855 Z31.5841
 X28.3869 Z31.5871
 X28.3875 Z31.5886
 X28.3882 Z31.5902
 X28.4313 Z31.6872
 X28.4420 Z31.7113
 X28.4474 Z31.7233
 X28.4501 Z31.7293
 X28.4514 Z31.7323
 X28.4521 Z31.7338
 X28.4524 Z31.7346
 X28.4526 Z31.7349
 X28.4528 Z31.7353
 X28.4541 Z31.7383
 X28.4548 Z31.7398
 X28.4551 Z31.7406
 X28.4553 Z31.7409
 X28.4555 Z31.7413
 X28.4568 Z31.7568
 X34.1562
 X34.2423 Z31.5525
 X35.2754 Z27.9396
 X35.9641 Z25.5302
 X36.6528 Z23.0984
 X37.3415 Z20.6346
 X38.0302 Z18.1497
 X38.7189 Z15.6937
 X39.4077 Z13.2044
 X40.0964 Z10.7227
 X40.7851 Z8.1793
 X41.4738 Z5.6838
G0 Z35.0000
 Y21.5994
G1 Z5.3600
 X40.7851 Z7.7108
 X40.0964 Z9.9961
 X39.4077 Z12.2883
 X38.7189 Z14.5313
 X38.0302 Z16.7252
 X37.3415 Z18.8748
 X36.6528 Z20.9908
 X35.9641 Z23.0146
 X35.2754 Z24.9838
 X34.5867 Z26.8874
 X33.8979 Z28.7335
 X33.5536 Z29.6523
 X33.3814 Z30.0973
 X33.2953 Z30.3158
 X33.2523 Z30.4241
 X33.2092 Z30.5317
 X33.0370 Z30.9610
 X32.9510 Z31.1765
 X32.9079 Z31.2690
 X32.8864 Z31.3220
 X32.8756 Z31.3484
 X32.8702 Z31.3616
 X32.8676 Z31.3682
 X32.8649 Z31.3748
 X32.7788 Z31.5852
 X32.7573 Z31.6375
 X32.7465 Z31.6636
 X32.7411 Z31.6767
 X32.7384 Z31.6832
 X32.7371 Z31.6864
 X32.7357 Z31.6897
 X32.7250 Z31.7157
 X32.7196 Z31.7288
 X32.7169 Z31.7353
 X32.7156 Z31.7385
 X32.7149 Z31.7402
 X32.7143 Z31.7416
 X32.7142 Z31.7418
 X32.7115 Z31.7483
 X32.7102 Z31.7515
 X32.7095 Z31.7532
 X32.7089 Z31.7546
 X32.7088 Z31.7548
 X32.7075 Z31.7568
 X25.6334
 X24.9446 Z30.7810
 X24.2559 Z29.8247
 X23.5672 Z28.9320
 X22.8785 Z28.1534
 X22.5341 Z27.8024
 X22.3620 Z27.6448
 X22.2759 Z27.5629
 X22.1898 Z27.4870
 X21.8454 Z27.2113
 X21.6732 Z27.0944
 X21.5872 Z27.0346
 X21.5011 Z26.9821
 X21.3289 Z26.8806
 X21.1567 Z26.7962
 X20.9845 Z26.7289
 X20.8984 Z26.6925
 X20.8554 Z26.6769
 X20.8124 Z26.6638
 X20.6402 Z26.6184
 X20.6294 Z26.6161
 X20.6240 Z26.6149
 X20.6213 Z26.6142
 X20.6200 Z26.6139
 X20.6193 Z26.6138
 X20.6190 Z26.6137
 X20.6188
 X20.6187 Z26.6136
 X20.6133 Z26.6123
 X20.6106 Z26.6117
 X20.6092 Z26.6114
 X20.6086 Z26.6112
 X20.6082 Z26.6111
 X20.6081
 X20.6080
 X20.6079
 X20.6065 Z26.6107
 X20.6052 Z26.6203
 X20.4680 Z26.5872
 X20.3819 Z26.5732
 X20.2958 Z26.5632
 X20.2528 Z26.5603
 X20.2097 Z26.5610
 X20.1236 Z26.5687
 X19.9515 Z26.5677
 X19.8654 Z26.5742
 X19.7793 Z26.5904
 X19.6071 Z26.6254
 X19.5210 Z26.6486
 X19.4349 Z26.6763
 X19.2627 Z26.7397
 X19.1767 Z26.7753
 X19.0906 Z26.8148
 X18.9184 Z26.9054
 X18.8323 Z26.9521
 X18.7462 Z27.0077
 X18.4019 Z27.2487
 X18.0575 Z27.5362
 X17.7131 Z27.8414
 X17.3688 Z28.1987
 X16.6801 Z29.0013
 X15.9913 Z29.9190
 X15.3026 Z30.9048
 X15.1305 Z31.1529
 X14.9583 Z31.3758
 X14.8722 Z31.5197
 X14.8291 Z31.5895
 X14.8076 Z31.6221
 X14.7969 Z31.6380
 X14.7915 Z31.6458
 X14.7888 Z31.6496
 X14.7874 Z31.6516
 X14.7861 Z31.6535
 X14.7431 Z31.7125
 X14.7323 Z31.7270
 X14.7215 Z31.7439
 X14.7202 Z31.7568
 X7.6138
 X7.6084 Z31.7441
 X7.5976 Z31.7186
 X7.5546 Z31.6163
 X7.4685 Z31.4103
 X7.3824 Z31.2240
 X7.0381 Z30.3872
 X6.3493 Z28.5800
 X5.6606 Z26.7644
 X4.9719 Z24.8434
 X4.2832 Z22.8649
 X3.5945 Z20.7978
 X2.9058 Z18.7131
 X2.2171 Z16.5866
 X1.5283 Z14.3966
 X0.8396 Z12.1996
 X0.1509 Z9.9302
 X-0.5378 Z7.6851
 X-1.2265 Z5.3726
G0 Z35.0000
 Y25.9614
G1 Z4.8364
 X-0.5378 Z6.8958
 X0.1509 Z8.9210
 X0.8396 Z10.8188
 X1.5283 Z12.5684
 X2.2171 Z14.1856
 X2.9058 Z15.6771
 X3.5945 Z17.0427
 X4.2832 Z18.2752
 X4.9719 Z19.3595
 X5.6606 Z20.4449
 X6.3493 Z21.6021
 X7.0381 Z22.8121
 X7.7268 Z24.0732
 X8.4155 Z25.4351
 X9.1042 Z26.8464
 X9.7929 Z28.3673
 X10.4816 Z29.9905
 X10.8260 Z30.8129
 X10.9982 Z31.2351
 X11.2026 Z31.7436
G0 Z35.0000
 X11.2134
G1 Z31.7568
 X29.0769
 X29.7656 Z30.1540
 X30.4544 Z28.5033
 X31.1431 Z27.0028
 X31.8318 Z25.5469
 X32.5205 Z24.1773
 X33.2092 Z22.9100
 X33.8979 Z21.6971
 X34.5867 Z20.5416
 X35.2754 Z19.4445
 X35.9641 Z18.3439
 X36.6528 Z17.1145
 X37.3415 Z15.7497
 X38.0302 Z14.2571
 X38.7189 Z12.6371
 X39.4077 Z10.8828
 X40.0964 Z8.9784
 X40.7851 Z6.9730
 X41.4738 Z4.8975
G0 Z35.0000
 Y30.3235
G1 Z0.0068
 X40.7851
 X40.0964 Z0.5817
 X39.4077 Z1.2150
 X38.7189 Z1.8537
 X38.0302 Z2.4755
 X37.3415 Z3.1645
 X36.6528 Z3.8289
 X35.9641 Z4.5811
 X35.2754 Z5.2941
 X34.5867 Z6.0284
 X33.8979 Z6.8005
 X33.2092 Z7.6014
 X32.5205 Z8.3817
 X31.8318 Z9.1974
 X31.1431 Z10.0086
 X30.4544 Z10.9173
 X29.7656 Z11.7821
 X29.0769 Z12.7013
 X28.3882 Z13.6263
 X27.6995 Z14.6133
 X27.0108 Z15.5573
 X26.3221 Z16.4432
 X25.6334 Z17.4226
 X24.9446 Z18.3065
 X24.2559 Z19.1454
 X23.5672 Z19.8821
 X23.2229 Z20.2254
 X22.9646 Z20.4706
 X22.9215 Z20.5185
 X22.9000 Z20.5428
 X22.8785 Z20.5663
 X22.5341 Z20.8232
 X22.4481 Z20.8882
 X22.4050 Z20.9289
 X22.3835 Z20.9498
 X22.3620 Z20.9695
 X22.1898 Z21.0904
 X21.6732 Z21.4086
 X21.6302 Z21.4365
 X21.6087 Z21.4498
 X21.5979 Z21.4561
 X21.5872 Z21.4621
 X21.5011 Z21.4990
 X21.3289 Z21.5717
 X21.2858 Z21.5989
 X21.2643 Z21.6105
 X21.2536 Z21.6157
 X21.2428 Z21.6207
 X21.1567 Z21.6476
 X20.8124 Z21.7242
 X20.4680 Z21.7953
 X20.3819 Z21.7988
 X20.2958 Z21.8079
 X20.2528 Z21.8243
 X20.2313 Z21.8305
 X20.2205 Z21.8330
 X20.2151 Z21.8341
 X20.2097 Z21.8352
 X20.1882 Z21.8385
 X20.1774 Z21.8396
 X20.1667 Z21.8404
 X20.1236 Z21.8400
 X19.7793 Z21.7670
 X19.4349 Z21.7177
 X18.7462 Z21.4249
 X18.4032 Z21.2462
 X18.4025 Z21.2123
 X18.4019 Z21.2120
 X18.2297 Z21.1288
 X18.1436 Z21.0930
 X18.1221 Z21.0863
 X18.1005 Z21.0782
 X18.0790 Z21.0687
 X18.0575 Z21.0580
 X17.3688 Z20.4348
 X17.1105 Z20.2093
 X17.0675 Z20.1881
 X17.0459 Z20.1762
 X17.0352 Z20.1698
 X17.0244 Z20.1630
 X16.6801 Z19.7888
 X15.9913 Z19.0155
 X15.3026 Z18.1835
 X14.6139 Z17.3536
 X13.9252 Z16.3801
 X13.2365 Z15.4674
 X12.5478 Z14.5296
 X11.8591 Z13.5499
 X11.1703 Z12.6726
 X10.4816 Z11.7726
 X9.7929 Z10.8900
 X9.1042 Z10.0715
 X8.4155 Z9.1742
 X7.7268 Z8.3280
 X7.0381 Z7.5439
 X6.3493 Z6.7280
 X5.6606 Z5.9988
 X4.9719 Z5.2366
 X4.2832 Z4.5259
 X3.5945 Z3.7955
 X2.9058 Z3.1110
 X2.2171 Z2.4477
 X1.5283 Z1.7897
 X0.8396 Z1.2168
 X0.1509 Z0.5834
 X-0.4779 Z0.0073
 X-0.4783 Z0.0070
 X-0.4785 Z0.0069
 X-0.4786 Z0.0068
 X-1.2265
G0 Z35.0000
M5 (stop spindle)
G04 P3 (wait for 3 seconds)
G0 Z35.0000
M2 (end program)
