;PYCAM-META-DATA: Filename: /home/abarry/MIT/RLG/robotlib3/robots/Plane/CAD/Rev3/CAM/cameraCowlForCAM3.STL
;PYCAM-META-DATA: Timestamp: 2012-01-06 15:05:23.764314
;PYCAM-META-DATA: Version: 0.5.1
;Estimated machine time: 10 minutes
G40 (disable tool radius compensation)
G49 (disable tool length compensation)
G80 (cancel modal motion)
G54 (select coordinate system 1)
G90 (disable incremental moves)
G21 (metric)
G64 (continuous mode with maximum speed)
F152.00000
S1000.00000
;PYCAM_TOOLPATH_SETTINGS: START
;[Bounds]
;maxz = 31.7568397522
;maxx = 39.0771164931
;maxy = 28.4337226462
;minx = 1.17015783116
;miny = 1.67898721136
;minz = 0.00683790026233
;
;[Tool]
;torus_radius = 0.25
;speed = 1000.0
;shape = CylindricalCutter
;tool_radius = 3.175
;feedrate = 152.0
;
;[Process]
;engrave_offset = 0.0
;step_down = 3.0
;generator = DropCutter
;postprocessor = PathAccumulator
;overlap_percent = 60
;milling_style = ignore
;material_allowance = 0.0
;pocketing_type = none
;path_direction = x
;
;PYCAM_TOOLPATH_SETTINGS: END
T2 M6
G0 Z35.0000
M3 (start spindle)
G04 P3 (wait for 3 seconds)
 X1.1702 Y1.6790
G1 Z8.8945
 X1.9599 Z10.0512
 X2.7496 Z11.0500
 X3.5393 Z12.0541
 X4.3291 Z13.1452
 X5.1188 Z14.2281
 X5.9085 Z15.3980
 X6.6983 Z16.6263
 X7.4880 Z17.8986
 X8.2777 Z19.2730
 X9.0674 Z20.6930
 X9.8572 Z22.2153
 X10.6469 Z23.8241
 X11.4366 Z25.5842
 X12.2264 Z27.3837
 X13.0161 Z29.2378
 X13.4109 Z30.1873
 X13.6084 Z30.7005
 X13.7071 Z30.9648
 X13.7565 Z31.0962
 X13.7811 Z31.1617
 X13.7935 Z31.1944
 X13.7996 Z31.2107
 X13.8027 Z31.2189
 X13.8043 Z31.2230
 X13.8058 Z31.2271
 X13.9045 Z31.4871
 X13.9539 Z31.6163
 X13.9786 Z31.6807
 X13.9909 Z31.7128
 X13.9971 Z31.7289
 X14.0002 Z31.7369
 X14.0017 Z31.7409
 X14.0025 Z31.7429
 X14.0031 Z31.7447
 X14.0032 Z31.7449
 X14.0048 Z31.7489
 X14.0056 Z31.7509
 X14.0062 Z31.7527
 X14.0063 Z31.7529
 X14.0079 Z31.7568
 X26.2440
 X26.4415 Z31.3889
 X27.2312 Z29.3797
 X28.0209 Z27.5102
 X28.8106 Z25.6393
 X29.6004 Z23.9248
 X30.3901 Z22.3219
 X31.1798 Z20.7721
 X31.9696 Z19.3482
 X32.7593 Z17.9656
 X33.5490 Z16.6507
 X34.3387 Z15.4184
 X35.1285 Z14.2683
 X35.9182 Z13.1107
 X36.7079 Z12.0883
 X37.4977 Z11.0317
 X37.8925 Z10.5714
 X38.2874 Z10.0810
 X39.0771 Z8.9261
G0 Z35.0000
 Y4.1112
G1 Z12.7994
 X38.2874 Z14.7392
 X37.4977 Z16.5369
 X36.7079 Z18.1943
 X35.9182 Z19.7062
 X35.1285 Z21.0580
 X34.3387 Z22.3994
 X33.5490 Z23.8276
 X32.7593 Z25.3729
 X31.9696 Z27.0273
 X31.1798 Z28.8111
 X30.7850 Z29.7458
 X30.5875 Z30.2331
 X30.4888 Z30.4739
 X30.4395 Z30.5937
 X30.4148 Z30.6534
 X30.4024 Z30.6832
 X30.3901 Z30.7129
 X30.1927 Z31.1915
 X30.0940 Z31.4539
 X30.0446 Z31.5824
 X30.0199 Z31.6459
 X30.0076 Z31.6775
 X30.0014 Z31.6933
 X29.9983 Z31.7012
 X29.9968 Z31.7051
 X29.9960 Z31.7071
 X29.9956 Z31.7080
 X29.9954 Z31.7085
 X29.9952 Z31.7090
 X29.9891 Z31.7247
 X29.9860 Z31.7326
 X29.9844 Z31.7365
 X29.9837 Z31.7384
 X29.9833 Z31.7394
 X29.9831 Z31.7399
 X29.9829 Z31.7404
 X29.9798 Z31.7482
 X29.9783 Z31.7521
 X29.9775 Z31.7541
 X29.9771 Z31.7551
 X29.9769 Z31.7556
 X29.9767 Z31.7560
 X29.9752 Z31.7568
 X10.3646
 X10.3631 Z31.7531
 X10.2520 Z31.4772
 X9.8572 Z30.5142
 X9.0674 Z28.6051
 X8.2777 Z26.8945
 X7.4880 Z25.2653
 X6.6983 Z23.7422
 X5.9085 Z22.3260
 X5.1188 Z20.9862
 X4.3291 Z19.6263
 X3.5393 Z18.1130
 X2.7496 Z16.4564
 X1.9599 Z14.6617
 X1.1702 Z12.7269
G0 Z35.0000
 Y6.5435
G1 Z13.8357
 X1.9599 Z16.1499
 X2.7496 Z18.4176
 X3.5393 Z20.5887
 X4.3291 Z22.7502
 X5.1188 Z24.7582
 X5.9085 Z26.7039
 X6.6983 Z28.5091
 X7.4880 Z30.1857
 X7.8828 Z31.0087
 X7.9816 Z31.2276
 X8.1296 Z31.5571
 X8.1543 Z31.6124
 X8.1667 Z31.6399
 X8.1728 Z31.6537
 X8.1759 Z31.6606
 X8.1775 Z31.6641
 X8.1782 Z31.6658
 X8.1786 Z31.6666
 X8.1790 Z31.6675
 X8.2037 Z31.7225
 X8.2098 Z31.7362
 X8.2129 Z31.7431
 X8.2145 Z31.7465
 X8.2152 Z31.7482
 X8.2156 Z31.7491
 X8.2160 Z31.7499
 X8.2176 Z31.7533
 X8.2191 Z31.7568
 X8.2206
 X31.9696
 X32.7593 Z30.3125
 X33.5490 Z28.6492
 X34.3387 Z26.8457
 X35.1285 Z24.8999
 X35.9182 Z22.8799
 X36.7079 Z20.7155
 X37.4977 Z18.5351
 X38.2874 Z16.2423
 X39.0771 Z13.8601
G0 Z35.0000
 Y8.9757
G1 Z14.7893
 X38.2874 Z17.3585
 X37.4977 Z19.8937
 X36.7079 Z22.3481
 X35.9182 Z24.7485
 X35.1285 Z27.1023
 X34.3387 Z29.4037
 X33.9439 Z30.5221
 X33.6477 Z31.3255
 X33.5984 Z31.4593
 X33.5737 Z31.5260
 X33.5614 Z31.5593
 X33.5552 Z31.5760
 X33.5521 Z31.5843
 X33.5506 Z31.5885
 X33.5498 Z31.5905
 X33.5490 Z31.5926
 X33.5243 Z31.6592
 X33.5120 Z31.6924
 X33.5058 Z31.7090
 X33.5027 Z31.7173
 X33.5012 Z31.7214
 X33.5004 Z31.7235
 X33.4997 Z31.7256
 X33.4935 Z31.7422
 X33.4919 Z31.7463
 X33.4912 Z31.7484
 X33.4904 Z31.7505
 X33.4889 Z31.7546
 X33.4881 Z31.7568
 X25.8738
 X25.8492 Z31.7205
 X25.6517 Z31.4012
 X24.8620 Z30.2231
 X24.0723 Z29.0786
 X23.2826 Z28.0446
 X22.8877 Z27.5869
 X22.6903 Z27.3720
 X22.5915 Z27.2652
 X22.4928 Z27.1545
 X22.2954 Z26.9703
 X22.1967 Z26.8754
 X22.0980 Z26.7806
 X21.9005 Z26.6258
 X21.7525 Z26.5082
 X21.7031 Z26.4708
 X21.5057 Z26.3468
 X21.4069 Z26.2837
 X21.3576 Z26.2499
 X21.3082 Z26.2178
 X21.0121 Z26.0703
 X20.9627 Z26.0468
 X20.9504 Z26.0402
 X20.9411 Z26.0351
 X20.9380 Z26.0335
 X20.9134 Z26.0246
 X20.7159 Z25.9639
 X20.6172 Z25.9338
 X20.5925 Z25.9259
 X20.5802 Z25.9217
 X20.5740 Z25.9194
 X20.5709 Z25.9182
 X20.5694 Z25.9176
 X20.5679 Z25.9170
 X20.5185 Z25.9099
 X20.3211 Z25.8876
 X20.2717 Z25.8824
 X20.2470 Z25.8791
 X20.2347 Z25.8777
 X20.2285 Z25.8767
 X20.2224 Z25.8756
 X20.2100 Z25.8733
 X20.2038 Z25.8721
 X20.2008 Z25.8715
 X20.1992 Z25.8712
 X20.1977 Z25.8709
 X20.1915 Z25.8699
 X20.1853 Z25.8703
 X20.1236 Z25.8751
 X19.9262 Z25.8914
 X19.8768 Z25.8946
 X19.8522 Z25.8965
 X19.8398 Z25.8970
 X19.8337 Z25.8971
 X19.8306 Z25.8972
 X19.8275
 X19.7288 Z25.9196
 X19.5313 Z25.9728
 X19.4820 Z25.9871
 X19.4573 Z25.9930
 X19.4450 Z25.9961
 X19.4326 Z25.9994
 X19.3339 Z26.0429
 X19.1365 Z26.1336
 X18.9390 Z26.2442
 X18.7416 Z26.3660
 X18.6923 Z26.3953
 X18.6429 Z26.4275
 X18.5442 Z26.5027
 X18.1493 Z26.8231
 X17.7545 Z27.2019
 X16.9647 Z28.0990
 X16.1750 Z29.1523
 X15.3853 Z30.3197
 X14.9904 Z30.9149
 X14.7930 Z31.2122
 X14.6943 Z31.3670
 X14.4482 Z31.7561
 X14.4479 Z31.7568
 X6.8217
 X6.7970 Z31.6977
 X6.6983 Z31.4309
 X5.9085 Z29.2456
 X5.1188 Z26.9211
 X4.3291 Z24.5864
 X3.5393 Z22.2384
 X2.7496 Z19.7590
 X1.9599 Z17.2328
 X1.1702 Z14.6382
G0 Z35.0000
 Y11.4080
G1 Z15.3534
 X1.9599 Z18.1172
 X2.7496 Z20.8539
 X3.5393 Z23.5536
 X4.3291 Z26.2502
 X5.1188 Z28.8841
 X5.5137 Z30.2098
 X5.7111 Z30.8465
 X5.8098 Z31.1580
 X5.9980 Z31.7532
 X5.9995 Z31.7568
 X12.7014
 X12.7030 Z31.7565
 X12.8187 Z31.5140
 X13.0161 Z31.0976
 X13.8058 Z29.3819
 X14.5955 Z27.5964
 X15.3853 Z25.7050
 X16.1750 Z23.5785
 X16.5699 Z22.3374
 X16.7673 Z21.6352
 X16.9647 Z20.9372
 X16.9894 Z20.8615
 X17.0017 Z0.0068
 X23.2332
 X23.2579 Z20.8644
 X23.2826 Z20.9514
 X24.0723 Z23.5037
 X24.8620 Z25.6315
 X25.6517 Z27.5009
 X26.4415 Z29.2517
 X26.8363 Z30.0988
 X27.0338 Z30.5325
 X27.2312 Z30.9623
 X27.4286 Z31.3779
 X27.5273 Z31.5583
 X27.5767 Z31.6580
 X27.6014 Z31.7077
 X27.6075 Z31.7217
 X27.6106 Z31.7286
 X27.6137 Z31.7355
 X27.6168 Z31.7423
 X27.6183 Z31.7457
 X27.6191 Z31.7474
 X27.6195 Z31.7483
 X27.6197 Z31.7487
 X27.6198 Z31.7489
 X27.6199 Z31.7491
 X27.6214 Z31.7525
 X27.6222 Z31.7542
 X27.6226 Z31.7551
 X27.6228 Z31.7555
 X27.6229 Z31.7557
 Z31.7558
 X27.6230 Z31.7559
 X27.6261 Z31.7568
 X34.3264
 X34.3387 Z31.7390
 X35.1285 Z29.1011
 X35.9182 Z26.4198
 X36.7079 Z23.7390
 X37.4977 Z21.0151
 X38.2874 Z18.2722
 X39.0771 Z15.4851
G0 Z35.0000
 Y13.8402
G1 Z15.8769
 X38.2874 Z18.7643
 X37.4977 Z21.6483
 X36.7079 Z24.5277
 X35.9182 Z27.3780
 X35.5233 Z28.8035
 X35.3259 Z29.5159
 X35.1778 Z30.0501
 X34.7058 Z31.7530
 X34.7043 Z31.7568
 X28.3417
 X28.3171 Z31.7133
 X28.2677 Z31.6066
 X28.2184 Z31.4948
 X28.0209 Z31.0426
 X27.2312 Z29.1290
 X26.4415 Z27.0321
 X25.6517 Z24.6057
 X25.2569 Z23.1615
 X25.0594 Z22.2865
 X24.8620 Z21.3066
 X24.8126 Z21.0613
 X24.7880 Z20.9381
 X24.7756 Z20.8734
 X24.7695 Z20.8431
 X24.7664 Z20.8348
 X24.7648 Z0.0068
 X15.4840
 X15.4346 Z21.0865
 X15.3853 Z21.3553
 X14.5955 Z24.6848
 X13.8058 Z27.1481
 X13.0161 Z29.2576
 X12.6212 Z30.2432
 X12.4238 Z30.7169
 X12.3251 Z30.9498
 X12.2757 Z31.0696
 X12.2510 Z31.1290
 X12.2387 Z31.1587
 X12.0783 Z31.5453
 X12.0536 Z31.6052
 X12.0413 Z31.6353
 X12.0351 Z31.6502
 X12.0320 Z31.6571
 X12.0305 Z31.6605
 X12.0297 Z31.6624
 X11.9919 Z31.7534
 X11.9904 Z31.7568
 X5.6124
 X5.5137 Z31.4333
 X5.1188 Z30.0116
 X4.3291 Z27.1720
 X3.5393 Z24.3300
 X2.7496 Z21.4734
 X1.9599 Z18.6108
 X1.1702 Z15.7480
G0 Z35.0000
 Y16.2725
G1 Z15.7419
 X1.9599 Z18.5959
 X2.7496 Z21.4504
 X3.5393 Z24.2822
 X4.3291 Z27.1015
 X4.9214 Z29.2169
 X5.6324 Z31.7562
 X5.6332 Z31.7568
 X12.0289
 X12.2264 Z31.2847
 X13.0161 Z29.3454
 X13.8058 Z27.2278
 X14.5955 Z24.7654
 X14.9904 Z23.2827
 X15.1878 Z22.3737
 X15.3853 Z21.3384
 X15.4346 Z21.0764
 X15.4593 Z20.9453
 X15.4716 Z20.8760
 X15.4778 Z20.8437
 X15.4809 Z20.8348
 X15.4824 Z0.0068
 X24.7633
 X24.8126 Z21.0868
 X24.8620 Z21.3547
 X25.6517 Z24.6796
 X26.4415 Z27.1077
 X27.2312 Z29.2193
 X27.6261 Z30.1815
 X27.8235 Z30.6653
 X28.0209 Z31.1480
 X28.1196 Z31.3874
 X28.1690 Z31.4983
 X28.1937 Z31.5518
 X28.2060 Z31.5781
 X28.2122 Z31.5911
 X28.2184 Z31.6041
 X28.2430 Z31.6553
 X28.2554 Z31.6805
 X28.2615 Z31.6930
 X28.2646 Z31.6992
 X28.2662 Z31.7023
 X28.2669 Z31.7040
 X28.2862 Z31.7461
 X28.2878 Z31.7568
 X34.6843
 X34.7336 Z31.6397
 X35.1285 Z30.2072
 X35.9182 Z27.3421
 X36.7079 Z24.4767
 X37.4977 Z21.6140
 X38.2874 Z18.7451
 X39.0771 Z15.8692
G0 Z35.0000
 Y18.7047
G1 Z15.4553
 X38.2874 Z18.2144
 X37.4977 Z20.9256
 X36.7079 Z23.6275
 X35.9182 Z26.3266
 X35.1285 Z28.9374
 X34.7336 Z30.2216
 X34.2493 Z31.7535
 X34.2477 Z31.7568
 X27.4780
 X27.4286 Z31.6535
 X27.2312 Z31.2343
 X26.4415 Z29.5303
 X25.6517 Z27.7526
 X24.8620 Z25.8642
 X24.0723 Z23.6989
 X23.6774 Z22.4318
 X23.4800 Z21.6966
 X23.2826 Z20.9462
 X23.2579 Z20.8636
 X23.2455 Z0.0068
 X17.0141
 X16.9894 Z20.8691
 X16.9647 Z20.9696
 X16.1750 Z23.7412
 X15.3853 Z25.9448
 X14.5955 Z27.8603
 X13.8058 Z29.6471
 X13.4109 Z30.5237
 X13.2135 Z30.9411
 X13.1148 Z31.1576
 X13.0161 Z31.3813
 X12.9667 Z31.4942
 X12.9420 Z31.5487
 X12.9297 Z31.5753
 X12.9174 Z31.6014
 X12.8927 Z31.6524
 X12.8803 Z31.6774
 X12.8742 Z31.6897
 X12.8711 Z31.6958
 X12.8696 Z31.6989
 X12.8688 Z31.7004
 X12.8680 Z31.7019
 X12.8557 Z31.7261
 X12.8495 Z31.7380
 X12.8464 Z31.7440
 X12.8449 Z31.7469
 X12.8441 Z31.7484
 X12.8437 Z31.7492
 X12.8435 Z31.7495
 X12.8434 Z31.7497
 Z31.7498
 Z31.7499
 X12.8433
 X12.8418 Z31.7529
 X12.8410 Z31.7543
 X12.8406 Z31.7551
 X12.8404 Z31.7568
 X6.1060
 X5.9085 Z31.2652
 X5.1188 Z28.7210
 X4.3291 Z26.0728
 X3.5393 Z23.4640
 X2.7496 Z20.7836
 X1.9599 Z18.0747
 X1.1702 Z15.3371
G0 Z35.0000
 Y21.1370
G1 Z14.6394
 X1.9599 Z17.1794
 X2.7496 Z19.6588
 X3.5393 Z22.0567
 X4.3291 Z24.4406
 X5.1188 Z26.7501
 X5.9085 Z28.9825
 X6.3034 Z30.0527
 X6.5008 Z30.5790
 X6.5995 Z30.8419
 X6.6489 Z30.9734
 X6.6736 Z31.0391
 X6.6859 Z31.0719
 X6.6983 Z31.1048
 X6.7970 Z31.3675
 X6.8463 Z31.4988
 X6.8710 Z31.5644
 X6.8833 Z31.5973
 X6.8957 Z31.6301
 X6.9204 Z31.6957
 X6.9327 Z31.7285
 X6.9420 Z31.7531
 X6.9435 Z31.7568
 X14.5955
 X15.3853 Z30.7783
 X16.1750 Z29.6187
 X16.9647 Z28.5453
 X17.3596 Z28.0678
 X17.7545 Z27.6405
 X18.1493 Z27.2424
 X18.3467 Z27.0759
 X18.4455 Z26.9925
 X18.5442 Z26.9080
 X18.7416 Z26.7763
 X18.9390 Z26.6431
 X19.1365 Z26.5465
 X19.3092 Z26.4617
 X19.3339 Z26.4502
 X19.5313 Z26.3900
 X19.7041 Z26.3377
 X19.7288 Z26.3318
 X20.0249 Z26.2987
 X20.0743 Z26.2925
 X20.0990 Z26.2895
 X20.1236 Z26.2904
 X20.3211 Z26.3065
 X20.4691 Z26.3180
 X20.5185 Z26.3273
 X20.8640 Z26.4186
 X20.9134 Z26.4387
 X21.2095 Z26.5721
 X21.3082 Z26.6245
 X21.6044 Z26.8124
 X21.7031 Z26.8799
 X21.9005 Z27.0434
 X21.9992 Z27.1242
 X22.0980 Z27.2039
 X22.4928 Z27.5964
 X23.2826 Z28.4862
 X24.0723 Z29.5254
 X24.8620 Z30.6583
 X25.0594 Z30.9697
 X25.1582 Z31.1253
 X25.2075 Z31.2031
 X25.2569 Z31.2808
 X25.3556 Z31.4362
 X25.4049 Z31.5139
 X25.4296 Z31.5527
 X25.4420 Z31.5721
 X25.4481 Z31.5818
 X25.4543 Z31.5915
 X25.5037 Z31.6691
 X25.5283 Z31.7080
 X25.5407 Z31.7274
 X25.5468 Z31.7371
 X25.5530 Z31.7468
 X25.6517 Z31.7568
 X33.3516
 X33.5490 Z31.2735
 X34.3387 Z29.1645
 X35.1285 Z26.9240
 X35.9182 Z24.6007
 X36.7079 Z22.2826
 X37.4977 Z19.8004
 X38.2874 Z17.3022
 X39.0771 Z14.7200
G0 Z35.0000
 Y23.5692
G1 Z13.8730
 X38.2874 Z16.1939
 X37.4977 Z18.4437
 X36.7079 Z20.5928
 X35.9182 Z22.7201
 X35.1285 Z24.7117
 X34.3387 Z26.5745
 X33.5490 Z28.2893
 X32.7593 Z29.9009
 X32.3644 Z30.7480
 X32.1670 Z31.1839
 X32.0683 Z31.4008
 X32.0189 Z31.5089
 X31.9942 Z31.5630
 X31.9819 Z31.5900
 X31.9757 Z31.6034
 X31.9726 Z31.6102
 X31.9711 Z31.6136
 X31.9696 Z31.6169
 X31.9449 Z31.6709
 X31.9325 Z31.6978
 X31.9264 Z31.7113
 X31.9233 Z31.7180
 X31.9217 Z31.7214
 X31.9202 Z31.7247
 X31.9140 Z31.7382
 X31.9109 Z31.7449
 X31.9094 Z31.7483
 X31.9079 Z31.7517
 X31.9063 Z31.7568
 X8.4050
 X8.4042 Z31.7547
 X8.4011 Z31.7476
 X8.3764 Z31.6941
 X8.2777 Z31.4803
 X7.4880 Z29.7656
 X6.6983 Z28.1584
 X5.9085 Z26.4406
 X5.1188 Z24.5769
 X4.3291 Z22.5922
 X3.5393 Z20.4715
 X2.7496 Z18.3274
 X1.9599 Z16.0786
 X1.1702 Z13.7316
G0 Z35.0000
 Y26.0015
G1 Z12.6347
 X1.9599 Z14.5183
 X2.7496 Z16.2552
 X3.5393 Z17.8468
 X4.3291 Z19.2862
 X5.1188 Z20.5578
 X5.9085 Z21.8731
 X6.6983 Z23.2343
 X7.4880 Z24.7077
 X8.2777 Z26.3103
 X9.0674 Z27.9902
 X9.8572 Z29.8018
 X10.2520 Z30.7435
 X10.4495 Z31.2237
 X10.6469 Z31.7041
 X11.4366 Z31.7568
 X29.6004
 X30.3901 Z29.9447
 X31.1798 Z28.1275
 X31.9696 Z26.4377
 X32.7593 Z24.8119
 X33.5490 Z23.3659
 X34.3387 Z21.9604
 X35.1285 Z20.6615
 X35.9182 Z19.3601
 X36.7079 Z17.9234
 X37.4977 Z16.3318
 X38.2874 Z14.5927
 X39.0771 Z12.7049
G0 Z35.0000
 Y28.4337
G1 Z8.7442
 X38.2874 Z9.8383
 X37.4977 Z10.8095
 X36.7079 Z11.7807
 X35.9182 Z12.8160
 X35.1285 Z13.8952
 X34.3387 Z15.0384
 X33.5490 Z16.1870
 X32.7593 Z17.4285
 X31.9696 Z18.7442
 X31.1798 Z20.0881
 X30.3901 Z21.5662
 X29.6004 Z23.0575
 X28.8106 Z24.7318
 X28.0209 Z26.3961
 X27.2312 Z28.1464
 X26.4415 Z30.0231
 X26.0466 Z30.9131
 X25.8492 Z31.3414
 X25.6583 Z31.7557
 X25.6581 Z31.7568
 X14.6513
 X14.6512 Z31.7522
 X14.5955 Z31.6325
 X13.8058 Z29.8047
 X13.0161 Z27.9995
 X12.2264 Z26.2734
 X11.4366 Z24.5526
 X10.6469 Z22.9492
 X9.8572 Z21.4737
 X9.0674 Z20.0114
 X8.2777 Z18.6732
 X7.4880 Z17.3645
 X6.6983 Z16.1137
 X5.9085 Z14.9303
 X5.1188 Z13.8255
 X4.3291 Z12.7282
 X3.5393 Z11.7423
 X2.7496 Z10.7150
 X2.3548 Z10.2682
 X1.9599 Z9.8112
 X1.1702 Z8.7146
G0 Z35.0000
M5 (stop spindle)
G04 P3 (wait for 3 seconds)
G0 Z35.0000
M2 (end program)
