;PYCAM-META-DATA: Filename: /home/abarry/MIT/RLG/robotlib3/robots/Plane/CAD/Rev3/CAM/cameraCowlForCAM3-no-deephole.STL
;PYCAM-META-DATA: Timestamp: 2012-01-23 20:24:07.387570
;PYCAM-META-DATA: Version: 0.5.1
;Estimated machine time: 7 minutes
G40 (disable tool radius compensation)
G49 (disable tool length compensation)
G80 (cancel modal motion)
G54 (select coordinate system 1)
G90 (disable incremental moves)
G21 (metric)
G64 (continuous mode with maximum speed)
F152.00000
S1000.00000
;PYCAM_TOOLPATH_SETTINGS: START
;[Bounds]
;maxz = 31.75684
;maxx = 45.497160446
;maxy = 33.3330024174
;minx = -5.249882676
;miny = -3.2202945044
;minz = 0.0068379
;
;[Tool]
;torus_radius = 0.25
;speed = 1000.0
;shape = CylindricalCutter
;tool_radius = 2.79
;feedrate = 152.0
;
;[Process]
;engrave_offset = 0.0
;step_down = 3.0
;generator = DropCutter
;postprocessor = PathAccumulator
;milling_style = ignore
;material_allowance = 0.01
;pocketing_type = none
;path_direction = x
;
;PYCAM_TOOLPATH_SETTINGS: END
T1 M6
G0 Z35.0000
M3 (start spindle)
G04 P3 (wait for 3 seconds)
 X-5.2499 Y-3.2203
G1 Z0.0068
 X45.4972
 Y0.8412
 X42.4612
 X42.4558 Z0.0175
 X42.3689 Z0.1974
 X42.0213 Z0.8973
 X41.3262 Z2.1985
 X40.6310 Z3.3549
 X40.2834 Z3.8707
 X40.1096 Z4.1109
 X39.9358 Z4.3380
 X39.2407 Z5.0915
 X38.5455 Z5.8291
 X37.8503 Z6.6273
 X37.1552 Z7.3961
 X36.4600 Z8.2383
 X35.7649 Z9.0527
 X35.0697 Z9.9572
 X34.3745 Z10.8385
 X33.6794 Z11.8107
 X32.9842 Z12.7621
 X32.2890 Z13.8185
 X31.5939 Z14.8435
 X30.8987 Z15.9903
 X30.2035 Z17.1086
 X29.5084 Z18.3184
 X28.8132 Z19.5419
 X28.1180 Z20.9124
 X27.4229 Z22.2135
 X26.7277 Z23.5683
 X26.0325 Z24.9483
 X25.3374 Z26.2998
 X24.6422 Z27.6341
 X23.9470 Z28.9561
 X23.2519 Z30.1569
 X23.0781 Z30.4997
 X22.9912 Z30.6619
 X22.9477 Z30.7364
 X22.9043 Z30.8064
 X22.7305 Z31.0399
 X22.6436 Z31.1411
 X22.2363 Z31.6921
 X22.2349 Z31.5871
 X22.2336 Z31.5888
 X22.2309 Z31.5923
 X22.2200 Z31.6060
 X22.2146 Z31.6128
 X22.2118 Z31.6162
 X22.2105 Z31.6179
 X22.2091 Z31.6195
 X22.1657 Z31.6711
 X22.1440 Z31.6953
 X22.1331 Z31.7070
 X22.1277 Z31.7129
 X22.1250 Z31.7160
 X22.1222 Z31.7191
 X22.1114 Z31.7317
 X22.1059 Z31.7378
 X22.1032 Z31.7409
 X22.1019 Z31.7424
 X22.1012 Z31.7431
 X22.1009 Z31.7435
 X22.1005 Z31.7439
 X22.0951 Z31.7499
 X22.0924 Z31.7528
 X22.0910 Z31.7543
 X22.0903 Z31.7550
 X22.0900 Z31.7554
 X22.0898 Z31.7556
 X22.0897 Z31.7557
 Z31.7558
 X22.0788 Z31.7568
 X18.2323
 X18.2316 Z31.7566
 X18.2309 Z31.7559
 X18.2282 Z31.7529
 X18.2255 Z31.7500
 X18.2228 Z31.7471
 X18.2174 Z31.7411
 X18.2147 Z31.7381
 X18.2133 Z31.7366
 X18.2119 Z31.7351
 X18.2065 Z31.7289
 X18.2038 Z31.7258
 X18.2024 Z31.7243
 X18.2018 Z31.7235
 X18.2014 Z31.7231
 X18.2012 Z31.7229
 Z31.7228
 X18.2011
 Z31.7227
 X18.1984 Z31.7196
 X18.1970 Z31.7180
 X18.1963 Z31.7172
 X18.1960 Z31.7168
 X18.1958 Z31.7166
 X18.1957 Z31.7165
 X18.1956 Z31.7164
 X18.1943 Z31.7148
G0 Z35.0000
 X18.1929
G1 Z31.7565
 X17.8766 Z31.3869
 X17.8759 Z31.3673
 X17.8756 Z31.3670
 X17.8754 Z31.3668
 X17.8753 Z31.3667
 X17.8752 Z31.3666
 X17.8725 Z31.3638
 X17.8711 Z31.3624
 X17.8705 Z31.3617
 X17.8701 Z31.3614
 X17.8700 Z31.3612
 X17.8699 Z31.3611
 X17.8698 Z31.3610
 X17.8684 Z31.3596
 X17.8677 Z31.3589
 X17.8674 Z31.3585
 X17.8672 Z31.3583
 X17.8671 Z31.3582
 X17.8657 Z31.3567
 X17.8650 Z31.3560
 X17.8647 Z31.3681
 X17.8155 Z31.3097
 X17.8141 Z31.2994
 X17.8128 Z31.2978
 X17.8100 Z31.2946
 X17.8046 Z31.2881
 X17.7992 Z31.2816
 X17.7883 Z31.2683
 X17.7829 Z31.2616
 X17.7802 Z31.2582
 X17.7788 Z31.2565
 X17.7775 Z31.2548
 X17.7557 Z31.2269
 X17.7449 Z31.2125
 X17.7394 Z31.2052
 X17.7367 Z31.2016
 X17.7354 Z31.1997
 X17.7347 Z31.1988
 X17.7343 Z31.1983
 X17.7342 Z31.1981
 X17.7341 Z31.1980
 Z31.1979
 X17.7340
 X17.7313 Z31.1942
 X17.7299 Z31.1925
 X17.7293 Z31.1920
 X17.7289 Z31.1917
 X17.7287 Z31.1916
 Z31.1915
 X17.7286
 Z31.1914
 X17.7272 Z31.2461
 X17.6906 Z31.1946
 X16.9954 Z30.0352
 X16.3002 Z28.8384
 X15.6051 Z27.5285
 X14.9099 Z26.1908
 X14.2147 Z24.8221
 X13.5196 Z23.4245
 X12.8244 Z22.1128
 X12.1292 Z20.7424
 X11.4341 Z19.4588
 X10.7389 Z18.2569
 X10.0437 Z17.0440
 X9.3486 Z15.9343
 X8.6534 Z14.8473
 X7.9583 Z13.7857
 X7.2631 Z12.7686
 X6.5679 Z11.7826
 X5.8728 Z10.8552
 X5.1776 Z9.9440
 X4.4824 Z9.0799
 X3.7873 Z8.2199
 X3.0921 Z7.4133
 X2.3969 Z6.6313
 X1.7018 Z5.8769
 X1.0066 Z5.1276
 X0.6590 Z4.7374
 X0.3114 Z4.3258
 X-0.3837 Z3.3433
 X-1.0789 Z2.1898
 X-1.4265 Z1.5583
 X-1.6003 Z1.2300
 X-1.6872 Z1.0627
 X-1.7306 Z0.9783
 X-1.7523 Z0.9359
 X-1.7741 Z0.8934
 X-1.9478 Z0.5489
 X-2.0347 Z0.3737
 X-2.0782 Z0.2854
 X-2.0999 Z0.2410
 X-2.1108 Z0.2188
 X-2.1162 Z0.2077
 X-2.1189 Z0.2021
 X-2.1203 Z0.1994
 X-2.1210 Z0.1980
 X-2.1216 Z0.1966
 X-2.1651 Z0.1073
 X-2.1868 Z0.0624
 X-2.1977 Z0.0400
 X-2.2031 Z0.0287
 X-2.2058 Z0.0231
 X-2.2072 Z0.0203
 X-2.2079 Z0.0189
 X-2.2082 Z0.0182
 X-2.2085 Z0.0175
 X-2.2113 Z0.0119
 X-2.2126 Z0.0091
 X-2.2133 Z0.0076
 X-2.2136 Z0.0069
 X-2.2138 Z0.0068
 X-5.2499
 Y4.9027
 X-2.8168
 X-2.4692 Z1.0288
 X-1.7741 Z3.2342
 X-1.0789 Z5.4198
 X-0.3837 Z7.5270
 X0.3114 Z9.6228
 X1.0066 Z11.6443
 X1.7018 Z13.6040
 X2.3969 Z15.4845
 X3.0921 Z17.2327
 X3.7873 Z18.8557
 X4.4824 Z20.3573
 X5.1776 Z21.7355
 X5.8728 Z22.9901
 X6.5679 Z24.2211
 X7.2631 Z25.5390
 X7.9583 Z26.9467
 X8.6534 Z28.4157
 X9.3486 Z30.0012
 X9.6962 Z30.8212
 X9.8700 Z31.2627
 X9.9569 Z31.4884
 X10.0003 Z31.6026
 X10.0220 Z31.6596
 X10.0329 Z31.6880
 X10.0383 Z31.7022
 X10.0410 Z31.7093
 X10.0424 Z31.7129
 X10.0431 Z31.7147
 X10.0437 Z31.7164
 X10.7389 Z31.7568
 X30.2035
 X30.8987 Z30.1830
 X31.5939 Z28.5831
 X32.2890 Z27.0724
 X32.9842 Z25.6190
 X33.6794 Z24.3426
 X34.3745 Z23.0677
 X35.0697 Z21.8273
 X35.7649 Z20.4516
 X36.4600 Z18.9505
 X37.1552 Z17.3262
 X37.8503 Z15.5750
 X38.5455 Z13.6853
 X39.2407 Z11.6985
 X39.9358 Z9.6396
 X40.6310 Z7.5513
 X41.3262 Z5.4416
 X42.0213 Z3.2575
 X42.3689 Z2.1466
 X43.0383 Z0.0080
 X43.0390 Z0.0068
 X45.4972
 Y8.9641
 X43.0641
 X42.7165 Z1.1487
 X42.0213 Z3.5689
 X41.3262 Z5.9826
 X40.6310 Z8.3169
 X39.9358 Z10.6600
 X39.2407 Z13.0075
 X38.5455 Z15.3013
 X37.8503 Z17.5494
 X37.1552 Z19.7600
 X36.4600 Z21.9194
 X35.7649 Z24.0637
 X35.0697 Z26.1202
 X34.3745 Z28.1619
 X33.6794 Z30.1261
 X33.5056 Z30.5968
 X33.4187 Z30.8333
 X33.3752 Z30.9509
 X33.3318 Z31.0688
 X33.2449 Z31.3048
 X33.2014 Z31.4228
 X33.1797 Z31.4817
 X33.1634 Z31.5260
 X33.1580 Z31.5407
 X33.1145 Z31.6587
 X33.0982 Z31.7029
 X33.0806 Z31.7508
 X33.0792 Z31.7545
 X33.0779 Z31.7568
 X26.3910
 X26.3801 Z31.7424
 X26.0325 Z31.1626
 X25.3374 Z30.0547
 X24.6422 Z28.9814
 X23.9470 Z27.9614
 X23.2519 Z27.0213
 X22.9043 Z26.5979
 X22.5567 Z26.1882
 X22.2091 Z25.8271
 X22.0353 Z25.6556
 X21.9484 Z25.5770
 X21.8616 Z25.4989
 X21.6878 Z25.3634
 X21.6443 Z25.3241
 X21.6009 Z25.2876
 X21.5140 Z25.2250
 X21.3402 Z25.1094
 X21.2967 Z25.0804
 X21.2859 Z25.0725
 X21.2804 Z25.0684
 X21.2777 Z25.0664
 X21.2764 Z25.0654
 X21.2750 Z25.0643
 X21.2533 Z25.0524
 X21.1664 Z25.0083
 X20.9926 Z24.9234
 X20.7536 Z24.8166
 X20.7319 Z24.8109
 X20.6885 Z24.8003
 X20.6450 Z24.7869
 X20.6342 Z24.7843
 X20.6044 Z24.7774
 X20.6043 Z24.7907
 X20.5527 Z24.7691
 X20.5513 Z24.7651
 X20.4278 Z24.7364
 X20.3843 Z24.7296
 X20.3409 Z24.7274
 X20.3192 Z24.7255
 X20.3083 Z24.7243
 X20.3029 Z24.7236
 X20.2974 Z24.7229
 X20.2757 Z24.7196
 X20.2703 Z24.7187
 X20.2676 Z24.7182
 X20.2662 Z24.7180
 X20.2655 Z24.7178
 X20.2652
 X20.2650 Z24.7177
 X20.2649
 X20.2648
 X20.2621 Z24.7175
 X20.2553 Z24.7174
 X20.2547 Z24.7327
 X20.1807 Z24.7184
 X20.1793 Z24.7161
 X20.0367 Z24.7137
 X19.9933 Z24.7196
 X19.9498 Z24.7254
 X19.9064 Z24.7293
 X19.8955 Z24.7299
 X19.8901 Z24.7302
 X19.8887
 X19.8881 Z24.7303
 X19.8877
 X19.8874
 X19.8860 Z24.7305
 X19.8711 Z24.7334
 X19.8697 Z24.7483
 X19.8005 Z24.7506
 X19.7991 Z24.7477
 X19.6892 Z24.7696
 X19.6023 Z24.7920
 X19.5588 Z24.8078
 X19.5371 Z24.8151
 X19.5262 Z24.8187
 X19.5154 Z24.8228
 X19.4285 Z24.8678
 X19.2547 Z24.9354
 X19.1243 Z24.9978
 X19.0809 Z25.0212
 X18.7333 Z25.2514
 X18.5595 Z25.3811
 X18.3857 Z25.5246
 X17.6906 Z26.2302
 X16.9954 Z27.0724
 X16.3002 Z28.0273
 X15.6051 Z29.0829
 X14.9099 Z30.1442
 X14.5623 Z30.6975
 X14.3885 Z30.9778
 X14.3016 Z31.1390
 X13.9758 Z31.6795
 X13.9649 Z31.6981
 X13.9378 Z31.7446
 X13.9364 Z31.7568
 X7.2631
 X6.5679 Z29.9510
 X5.8728 Z27.9880
 X5.1776 Z25.9490
 X4.4824 Z23.9060
 X3.7873 Z21.8056
 X3.0921 Z19.6366
 X2.3969 Z17.4235
 X1.7018 Z15.1730
 X1.0066 Z12.8627
 X-0.3837 Z8.2617
 X-1.0789 Z5.8713
 X-1.7741 Z3.5160
 X-2.1216 Z2.3280
 X-2.2954 Z1.7285
 X-2.3823 Z1.4273
 X-2.4258 Z1.2763
 X-2.4475 Z1.2008
 X-2.4584 Z1.1630
 X-2.4638 Z1.1441
 X-2.4692 Z1.1251
 X-2.6430 Z0.5180
 X-2.6865 Z0.3655
 X-2.7082 Z0.2892
 X-2.7190 Z0.2511
 X-2.7299 Z0.2129
 X-2.7516 Z0.1365
 X-2.7625 Z0.0982
 X-2.7679 Z0.0791
 X-2.7706 Z0.0695
 X-2.7727 Z0.0624
 X-2.7734 Z0.0600
 X-2.7842 Z0.0217
 X-2.7863 Z0.0145
 X-2.7883 Z0.0074
 X-2.7890 Z0.0068
 X-5.2499
 Y13.0256
 X-2.8168
 X-2.4692 Z1.1643
 X-1.7741 Z3.6697
 X-1.0789 Z6.1701
 X-0.3837 Z8.6824
 X0.3114 Z11.2134
 X1.0066 Z13.7277
 X1.7018 Z16.2112
 X3.0921 Z21.1842
 X3.7873 Z23.6888
 X4.4824 Z26.1635
 X5.1776 Z28.6363
 X5.5252 Z29.8536
 X5.6990 Z30.4670
 X6.0465 Z31.6969
 X6.0683 Z31.7351
 X6.0696 Z31.7399
 X6.0710 Z31.7568
 X11.7382
 X11.7817 Z31.6758
 X12.1292 Z30.8870
 X12.8244 Z29.2098
 X13.5196 Z27.4231
 X14.2147 Z25.4061
 X14.9099 Z23.0083
 X15.0837 Z22.2438
 X15.1706 Z21.8080
 X15.2140 Z21.6201
 X15.2358 Z21.5121
 X15.2466 Z21.4507
 X15.2521 Z21.4175
 X15.2548 Z21.4000
 X15.2561 Z21.3911
 X15.2568 Z21.3865
 X15.2575 Z21.3820
 X15.3009 Z21.1168
 X15.3227 Z20.9952
 X15.3281 Z20.9069
 X15.3308 Z20.8900
 X15.3322 Z20.8816
 X15.3328 Z20.8773
 X15.3335 Z20.8731
 X15.3362 Z20.8559
 X15.3376 Z20.8473
 X15.3383 Z20.8429
 X15.3386 Z20.8408
 X15.3388 Z20.8397
 X15.3389 Z20.8391
 Z20.8389
 Z20.8387
 Z20.8386
 X15.3403 Z20.8348
 X24.6422
 X25.3374 Z22.9085
 X26.0325 Z25.3214
 X26.7277 Z27.3036
 X27.4229 Z29.0720
 X27.7705 Z29.9123
 X27.9442 Z30.3120
 X28.0311 Z30.5184
 X28.4561 Z31.4945
 X28.4575 Z31.4914
 X28.4656 Z31.5099
 X28.5091 Z31.6136
 X28.5308 Z31.6653
 X28.5417 Z31.6910
 X28.5471 Z31.7038
 X28.5498 Z31.7102
 X28.5512 Z31.7134
 X28.5518 Z31.7151
 X28.5522 Z31.7159
 X28.5523 Z31.7163
 X28.5525 Z31.7167
 X28.5634 Z31.7422
 X28.5661 Z31.7486
 X28.5674 Z31.7518
 X28.5681 Z31.7534
 X28.5685 Z31.7542
 X28.5686 Z31.7546
 X28.5688 Z31.7550
 X28.5702 Z31.7568
 X34.2605
 X34.2659 Z31.7421
 X34.2876 Z31.6653
 X34.3745 Z31.3579
 X35.0697 Z28.8811
 X35.7649 Z26.3806
 X36.4600 Z23.8581
 X37.1552 Z21.3823
 X37.8503 Z18.8848
 X38.5455 Z16.3567
 X39.2407 Z13.8384
 X39.9358 Z11.3086
 X40.6310 Z8.7529
 X41.3262 Z6.2202
 X42.0213 Z3.6994
 X43.0369 Z0.0095
 X43.0383 Z0.0068
 X45.4972
 Y17.0871
 X43.0641
 X42.7165 Z1.1734
 X42.0213 Z3.6986
 X41.3262 Z6.2172
 X40.6310 Z8.7487
 X39.9358 Z11.3161
 X39.2407 Z13.8250
 X38.5455 Z16.3146
 X37.1552 Z21.3194
 X36.4600 Z23.8243
 X35.7649 Z26.3038
 X35.0697 Z28.7376
 X34.7221 Z29.9530
 X34.5483 Z30.5587
 X34.4614 Z30.8615
 X34.2068 Z31.7518
 X34.2065 Z31.7568
 X28.5091
 X28.4656 Z31.6713
 X28.1180 Z30.8801
 X27.4229 Z29.2115
 X26.7277 Z27.4292
 X26.0325 Z25.4323
 X25.3374 Z23.0202
 X25.1636 Z22.2635
 X25.0767 Z21.8316
 X25.0332 Z21.6358
 X25.0115 Z21.5330
 X25.0007 Z21.4751
 X24.9952 Z21.4438
 X24.9925 Z21.4275
 X24.9912 Z21.4192
 X24.9898 Z21.4107
 X24.9463 Z21.1247
 X24.9178 Z20.9615
 X24.9172 Z20.8825
 X24.9165 Z20.8781
 X24.9151 Z20.8692
 X24.9144 Z20.8648
 X24.9141 Z20.8626
 X24.9139 Z20.8614
 X24.9138 Z20.8609
 Z20.8603
 X24.9110 Z20.8423
 X24.9097 Z20.8348
 X15.6051
 X14.9099 Z23.0419
 X14.2147 Z25.5287
 X13.5196 Z27.5534
 X12.8244 Z29.3455
 X12.4768 Z30.1975
 X12.3030 Z30.6151
 X12.2161 Z30.8253
 X12.1727 Z30.9337
 X12.1401 Z31.0085
 X12.1292 Z31.0245
 X11.9555 Z31.4252
 X11.8170 Z31.7447
 X11.8156 Z31.7568
 X6.1049
 X6.1036 Z31.7531
 X6.0900 Z31.7057
 X6.0465 Z31.5542
 X5.8728 Z30.9526
 X5.1776 Z28.5436
 X4.4824 Z26.1081
 X3.7873 Z23.6540
 X3.0921 Z21.1732
 X2.3969 Z18.7019
 X1.7018 Z16.2059
 X1.0066 Z13.7145
 X0.3114 Z11.2232
 X-0.3837 Z8.6783
 X-1.0789 Z6.1672
 X-1.7741 Z3.6690
 X-2.7897 Z0.0094
 X-2.7910 Z0.0068
 X-5.2499
 Y21.1486
 X-2.8168
 X-2.4692 Z1.1385
 X-1.7741 Z3.5403
 X-1.0789 Z5.9356
 X-0.3837 Z8.2418
 X0.3114 Z10.5586
 X1.0066 Z12.8861
 X1.7018 Z15.1476
 X2.3969 Z17.3570
 X3.0921 Z19.5141
 X3.7873 Z21.6522
 X4.4824 Z23.7626
 X5.1776 Z25.7890
 X5.8728 Z27.7697
 X6.5679 Z29.6464
 X6.9155 Z30.5784
 X7.0893 Z31.0295
 X7.1762 Z31.2590
 X7.2196 Z31.3744
 X7.2414 Z31.4313
 X7.2522 Z31.4595
 X7.2577 Z31.4736
 X7.2604 Z31.4806
 X7.2617 Z31.4841
 X7.2624 Z31.4859
 X7.2631 Z31.4876
 X7.3065 Z31.5987
 X7.3283 Z31.6536
 X7.3391 Z31.6823
 X7.3496 Z31.7100
 X7.3595 Z31.7359
 X7.3663 Z31.7538
 X7.3676 Z31.7568
 X14.1930
 X14.2147 Z31.7231
 X14.9099 Z30.6030
 X15.6051 Z29.4955
 X16.3002 Z28.4495
 X16.9954 Z27.4822
 X17.6906 Z26.6226
 X18.0381 Z26.2363
 X18.2119 Z26.0652
 X18.3857 Z25.9026
 X18.5595 Z25.7486
 X18.7333 Z25.6147
 X18.9071 Z25.4890
 X18.9940 Z25.4383
 X19.0374 Z25.4074
 X19.0592 Z25.3932
 X19.0809 Z25.3779
 X19.2547 Z25.2896
 X19.3416 Z25.2456
 X19.3850 Z25.2262
 X19.4068 Z25.2151
 X19.4285 Z25.2041
 X19.6023 Z25.1537
 X19.6892 Z25.1230
 X19.7326 Z25.1118
 X19.7543 Z25.1050
 X19.7652 Z25.1013
 X19.7761 Z25.0976
 X19.9498 Z25.0766
 X20.0367 Z25.0676
 X20.0802 Z25.0666
 X20.1019 Z25.0652
 X20.1128 Z25.0642
 X20.1236 Z25.0631
 X20.2974 Z25.0741
 X20.3409 Z25.0844
 X20.4101 Z25.1010
 X20.4108 Z25.0848
 X20.4115 Z25.0849
 X20.4169 Z25.0862
 X20.4278 Z25.0887
 X20.4712 Z25.0975
 X20.5147 Z25.1042
 X20.5255 Z25.1056
 X20.5310 Z25.1062
 X20.5364 Z25.1068
 X20.5581 Z25.1115
 X20.6450 Z25.1381
 X20.7319 Z25.1687
 X20.8188 Z25.2072
 X20.9057 Z25.2333
 X20.9491 Z25.2506
 X20.9926 Z25.2686
 X21.0795 Z25.3136
 X21.1664 Z25.3618
 X21.3402 Z25.4737
 X21.5140 Z25.5899
 X21.6878 Z25.7228
 X21.8616 Z25.8719
 X22.2091 Z26.2070
 X22.5567 Z26.5757
 X23.2519 Z27.4211
 X23.9470 Z28.3739
 X24.6422 Z29.4159
 X25.3374 Z30.5056
 X25.6850 Z31.0503
 X25.8587 Z31.3254
 X26.1164 Z31.7407
 X26.1166 Z31.7568
 X32.8973
 X32.9407 Z31.7035
 X32.9421 Z31.6999
 X32.9435 Z31.7568
 X32.9842 Z31.6486
 X33.6794 Z29.8169
 X34.3745 Z27.9422
 X35.0697 Z25.9579
 X35.7649 Z23.8996
 X36.4600 Z21.8626
 X37.1552 Z19.6785
 X37.8503 Z17.4932
 X38.5455 Z15.2456
 X40.6310 Z8.3066
 X41.3262 Z5.9107
 X42.0213 Z3.5378
 X42.3689 Z2.3444
 X42.5427 Z1.7418
 X42.6296 Z1.4388
 X42.6731 Z1.2868
 X42.6948 Z1.2107
 X42.7056 Z1.1726
 X42.7111 Z1.1536
 X42.7165 Z1.1346
 X42.8903 Z0.5226
 X42.9337 Z0.3689
 X42.9555 Z0.2919
 X42.9663 Z0.2534
 X42.9772 Z0.2148
 X42.9989 Z0.1377
 X43.0098 Z0.0991
 X43.0152 Z0.0798
 X43.0179 Z0.0701
 X43.0193 Z0.0653
 X43.0206 Z0.0605
 X43.0315 Z0.0219
 X43.0329 Z0.0170
 X43.0342 Z0.0122
 X43.0356 Z0.0074
 X43.0362 Z0.0068
 X45.4972
 Y25.2100
 X43.0641
 X42.7165 Z1.0358
 X42.0213 Z3.2563
 X41.3262 Z5.4505
 X40.6310 Z7.5659
 X39.9358 Z9.6779
 X39.2407 Z11.6903
 X38.5455 Z13.6349
 X37.8503 Z15.4720
 X37.1552 Z17.1665
 X36.4600 Z18.7289
 X35.7649 Z20.1622
 X35.0697 Z21.4618
 X33.6794 Z23.8673
 X32.9842 Z25.1396
 X32.2890 Z26.5231
 X31.5939 Z27.9900
 X30.8987 Z29.5297
 X30.5511 Z30.3670
 X30.3773 Z30.7982
 X30.2904 Z31.0108
 X30.2470 Z31.1163
 X30.2253 Z31.1689
 X30.2144 Z31.1952
 X30.2090 Z31.2083
 X30.2062 Z31.2148
 X30.2049 Z31.2181
 X30.2035 Z31.2214
 X30.1166 Z31.4298
 X30.0732 Z31.5333
 X30.0515 Z31.5848
 X30.0406 Z31.6106
 X30.0352 Z31.6236
 X30.0325 Z31.6301
 X30.0311 Z31.6333
 X30.0297 Z31.6365
 X30.0080 Z31.6893
 X29.9972 Z31.7151
 X29.9809 Z31.7558
 X29.9795 Z31.7562
 X29.9788 Z31.7568
 X10.3913
 X10.0437 Z31.0380
 X9.3486 Z29.4036
 X8.6534 Z27.8764
 X7.9583 Z26.4098
 X7.2631 Z25.0220
 X6.5679 Z23.7687
 X5.8728 Z22.5388
 X5.1776 Z21.3772
 X4.4824 Z20.0739
 X3.7873 Z18.6392
 X3.0921 Z17.0772
 X2.3969 Z15.3849
 X1.7018 Z13.5516
 X1.0066 Z11.5925
 X0.3114 Z9.5557
 X-0.3837 Z7.4894
 X-1.0789 Z5.3965
 X-1.7741 Z3.2333
 X-2.7910 Z0.0080
 X-2.7917 Z0.0068
 X-5.2499
 Y29.2715
 X-2.2140
 X-2.2085 Z0.0174
 X-2.1216 Z0.1940
 X-1.7741 Z0.8801
 X-1.0789 Z2.1513
 X-0.3837 Z3.2742
 X-0.0361 Z3.7719
 X0.1376 Z4.0025
 X0.3114 Z4.2199
 X1.0066 Z4.9320
 X1.7018 Z5.6531
 X2.3969 Z6.4171
 X3.0921 Z7.1572
 X3.7873 Z7.9706
 X4.4824 Z8.7551
 X5.1776 Z9.6196
 X5.8728 Z10.4507
 X6.5679 Z11.3863
 X7.2631 Z12.2942
 X7.9583 Z13.2852
 X8.6534 Z14.2444
 X9.3486 Z15.3604
 X10.0437 Z16.3952
 X10.7389 Z17.4792
 X11.4341 Z18.6461
 X12.1292 Z19.8568
 X12.8244 Z21.0787
 X13.5196 Z22.3486
 X14.2147 Z23.5585
 X14.9099 Z24.7757
 X15.6051 Z25.9389
 X16.3002 Z27.1022
 X16.9954 Z28.1439
 X17.1692 Z28.4538
 X17.2561 Z28.5869
 X17.3430 Z28.7028
 X17.6906 Z29.0966
 X18.3857 Z29.8051
 X18.5595 Z29.9569
 X18.6464 Z30.0563
 X18.6899 Z30.1025
 X18.7333 Z30.1443
 X18.9071 Z30.2661
 X18.9940 Z30.3421
 X19.0374 Z30.3784
 X19.0592 Z30.3945
 X19.0700 Z30.4020
 X19.0809 Z30.4091
 X19.2547 Z30.5025
 X19.3850 Z30.5628
 X19.4068 Z30.5735
 X19.4176 Z30.5792
 X19.4230 Z30.5820
 X19.4258 Z30.5833
 X19.4285 Z30.5846
 X19.4502 Z30.5945
 X19.4719 Z30.6030
 X19.4936 Z30.6101
 X19.5154 Z30.6158
 X19.5371 Z30.6202
 X19.5480 Z30.6218
 X19.5588 Z30.6231
 X19.6023 Z30.6247
 X19.7761 Z30.6152
 X19.9498 Z30.6245
 X19.9526 Z30.6340
 X20.1236 Z30.6434
 X20.4712 Z30.5959
 X20.8188 Z30.5114
 X20.8405 Z30.5040
 X20.8514 Z30.4998
 X20.8568 Z30.4976
 X20.8595 Z30.4964
 X20.8609 Z30.4959
 X20.8616 Z30.4956
 X20.8619 Z30.4954
 X20.8621
 X20.8622 Z30.4953
 X20.8623
 X20.8636 Z30.4947
 X20.8650 Z30.4941
 X20.8663 Z30.5505
 X20.9491 Z30.5124
 X20.9926 Z30.4982
 X21.0360 Z30.4924
 X21.0578 Z30.4874
 X21.0686 Z30.4843
 X21.0795 Z30.4809
 X21.1012 Z30.4731
 X21.1229 Z30.4639
 X21.1447 Z30.4533
 X21.1664 Z30.4413
 X21.8616 Z29.8456
 X22.2091 Z29.4983
 X22.3829 Z29.3109
 X22.4046 Z29.2889
 X22.4155 Z29.2774
 X22.4209 Z29.2715
 X22.4237 Z29.2685
 X22.4250 Z29.2670
 X22.4257 Z29.2663
 X22.4260 Z29.2659
 X22.4262 Z29.2657
 X22.4263 Z29.2656
 Z29.2655
 X22.4264
 X22.4277 Z29.2640
 X22.4284 Z29.2853
 X22.5567 Z29.1430
 X23.2519 Z28.2551
 X23.9470 Z27.2379
 X24.6422 Z26.0543
 X25.3374 Z24.8865
 X26.0325 Z23.6536
 X26.7277 Z22.3451
 X27.4229 Z21.1598
 X28.1180 Z19.9056
 X28.8132 Z18.7273
 X29.5084 Z17.5424
 X30.2035 Z16.4550
 X30.8987 Z15.3733
 X31.5939 Z14.3828
 X32.2890 Z13.3260
 X32.9842 Z12.3661
 X33.6794 Z11.4288
 X34.3745 Z10.5429
 X35.0697 Z9.6614
 X35.7649 Z8.8181
 X36.4600 Z7.9933
 X37.1552 Z7.2145
 X37.8503 Z6.4535
 X38.5455 Z5.7122
 X39.2407 Z5.0048
 X39.5883 Z4.6208
 X39.9358 Z4.2313
 X40.6310 Z3.2851
 X41.3262 Z2.1596
 X41.6738 Z1.5393
 X41.8475 Z1.2159
 X41.9344 Z1.0510
 X41.9779 Z0.9677
 X41.9996 Z0.9259
 X42.0213 Z0.8839
 X42.1951 Z0.5435
 X42.2820 Z0.3702
 X42.3255 Z0.2828
 X42.3472 Z0.2389
 X42.3581 Z0.2169
 X42.3635 Z0.2058
 X42.3662 Z0.2003
 X42.3676 Z0.1976
 X42.3682 Z0.1962
 X42.3689 Z0.1948
 X42.4124 Z0.1064
 X42.4341 Z0.0620
 X42.4450 Z0.0397
 X42.4504 Z0.0286
 X42.4531 Z0.0230
 X42.4545 Z0.0202
 X42.4551 Z0.0188
 X42.4555 Z0.0181
 X42.4558 Z0.0174
 X42.4585 Z0.0118
 X42.4599 Z0.0090
 X42.4606 Z0.0076
 X42.4609 Z0.0069
 X42.4611 Z0.0068
 X45.4972
 Y33.3330
 X-5.2499
G0 Z35.0000
M5 (stop spindle)
G04 P3 (wait for 3 seconds)
G0 Z35.0000
M2 (end program)
