;PYCAM-META-DATA: Filename: /home/abarry/MIT/RLG/robotlib3/robots/Plane/CAD/Rev3/CAM/cameraCowlForCAM3.STL
;PYCAM-META-DATA: Timestamp: 2012-01-06 11:31:50.177731
;PYCAM-META-DATA: Version: 0.5.1
;Estimated machine time: 17 minutes
G40 (disable tool radius compensation)
G49 (disable tool length compensation)
G80 (cancel modal motion)
G54 (select coordinate system 1)
G90 (disable incremental moves)
G21 (metric)
G61 (exact path mode)
F152.00000
S1000.00000
;PYCAM_TOOLPATH_SETTINGS: START
;[Bounds]
;maxz = 31.7568397522
;maxx = 37.450436554
;maxy = 27.3139619446
;minx = 2.79683777034
;miny = 2.79874791294
;minz = 0.00683790026233
;
;[Tool]
;torus_radius = 0.25
;speed = 1000.0
;shape = CylindricalCutter
;tool_radius = 2.79
;feedrate = 152.0
;
;[Process]
;engrave_offset = 0.0
;step_down = 3.0
;generator = PushCutter
;postprocessor = SimpleCutter
;overlap_percent = 0
;milling_style = ignore
;material_allowance = 0.5
;pocketing_type = none
;path_direction = x
;
;PYCAM_TOOLPATH_SETTINGS: END
T1 M6
G0 Z35.0000
M3 (start spindle)
G04 P3 (wait for 3 seconds)
 X2.7968 Y2.7987
G1 Z31.7568
 X11.8439
G0 Z35.0000
 X28.4836
G1 Z31.7568
 X37.4504
 Y7.7018
 X32.9679
G0 Z35.0000
 X23.8818
G1 Z31.7568
 X16.4402
G0 Z35.0000
 X7.3348
G1 Z31.7568
 X2.7968
 Y12.6048
 X5.6381
G0 Z35.0000
 X12.3678
G1 Z31.7568
 X27.9465
G0 Z35.0000
 X34.6839
G1 Z31.7568
 X37.4504
 Y17.5079
 X34.6396
G0 Z35.0000
 X27.8659
G1 Z31.7568
 X12.4514
G0 Z35.0000
 X5.6839
G1 Z31.7568
 X2.7968
 Y22.4109
 X7.4983
G0 Z35.0000
 X17.0026
G1 Z31.7568
 X23.3075
G0 Z35.0000
 X32.8295
G1 Z31.7568
 X37.4504
 Y27.3140
 X28.0759
G0 Z35.0000
 X12.2464
G1 Z31.7568
 X2.7968
 Z28.8705
 X11.0846
G0 Z35.0000
 X29.2542
G1 Z28.8705
 X37.4504
 Y22.4109
 X34.0338
G0 Z35.0000
 X6.2779
G1 Z28.8705
 X2.7968
 Y17.5079
 X4.8438
G0 Z35.0000
 X13.6836
G1 Z28.8705
 X26.6172
G0 Z35.0000
 X35.4646
G1 Z28.8705
 X37.4504
 Y12.6048
 X35.5061
G0 Z35.0000
 X26.6969
G1 Z28.8705
 X13.6097
G0 Z35.0000
 X4.8104
G1 Z28.8705
 X2.7968
 Y7.7018
 X6.1590
G0 Z35.0000
 X34.1550
G1 Z28.8705
 X37.4504
 Y2.7987
 X29.6241
G0 Z35.0000
 X10.6830
G1 Z28.8705
 X2.7968
 Z25.9841
 X9.4231
G0 Z35.0000
 X30.8583
G1 Z25.9841
 X37.4504
 Y7.7018
 X35.2474
G0 Z35.0000
 X5.0654
G1 Z25.9841
 X2.7968
 Y12.6048
 X3.9828
G0 Z35.0000
 X14.7067
G1 Z25.9841
 X25.5676
G0 Z35.0000
 X36.3266
G1 Z25.9841
 X37.4504
 Y17.5079
 X36.2907
G0 Z35.0000
 X25.5191
G1 Z25.9841
 X14.7720
G0 Z35.0000
 X4.0131
G1 Z25.9841
 X2.7968
 Y22.4109
 X5.1328
G0 Z35.0000
 X35.1716
G1 Z25.9841
 X37.4504
 Y27.3140
 X30.5305
G0 Z35.0000
 X9.7966
G1 Z25.9841
 X2.7968
 Z23.0977
 X8.3624
G0 Z35.0000
 X31.9511
G1 Z23.0977
 X37.4504
 Y22.4109
 X36.2311
G0 Z35.0000
 X4.0817
G1 Z23.0977
 X2.7968
 Y17.5079
 X3.1768
G0 Z35.0000
 X15.6390
G1 Z23.0977
 X24.6122
G0 Z35.0000
 X37.1164
G1 Z23.0977
 X37.4504
 Y12.6048
 X37.1405
G0 Z35.0000
 X24.6555
G1 Z23.0977
 X15.6212
G0 Z35.0000
 X3.1605
G1 Z23.0977
 X2.7968
 Y7.7018
 X4.0124
G0 Z35.0000
 X36.2724
G1 Z23.0977
 X37.4504
 Y2.7987
 X32.2349
G0 Z35.0000
 X8.0357
G1 Z23.0977
 X2.7968
 Z20.2114
 X6.4757
G0 Z35.0000
 X33.8167
G1 Z20.2114
 X37.4504
 Y7.7018
 X37.2675
G0 Z35.0000
 X3.0182
G1 Z20.2114
 X2.7968
G0 Z35.0000
 X16.1306 Y12.6048
G1 Z20.2114
 X24.1167
 Y17.5079
 X16.1306
G0 Z35.0000
 X2.7968 Y22.4109
G1 Z20.2114
 X3.0611
G0 Z35.0000
 X37.2381
G1 Z20.2114
 X37.4504
 Y27.3140
 X33.5139
G0 Z35.0000
 X6.7784
G1 Z20.2114
 X2.7968
 Z17.3250
 X4.9582
G0 Z35.0000
 X35.3309
G1 Z17.3250
 X37.4504
G0 Z35.0000
 X16.1306 Y17.5079
G1 Z17.3250
 X24.1167
 Y12.6048
 X16.1306
G0 Z35.0000
 X37.4504 Y2.7987
G1 Z17.3250
 X35.5920
G0 Z35.0000
 X4.6754
G1 Z17.3250
 X2.7968
G0 Z35.0000
 X16.1306 Y12.6048
G1 Z14.4387
 X24.1167
 Y17.5079
 X16.1306
G0 Z35.0000
 X37.4504 Y27.3140
G1 Z14.4387
 X37.3269
G0 Z35.0000
 X2.9525
G1 Z14.4387
 X2.7968
G0 Z35.0000
 X16.1306 Y17.5079
G1 Z11.5523
 X24.1167
 Y12.6048
 X16.1306
 Z8.6659
 X24.1167
 Y17.5079
 X16.1306
 Z5.7796
 X24.1167
 Y12.6048
 X16.1306
 Z2.8932
 X24.1167
 Y17.5079
 X16.1306
 Z0.0068
 X24.1167
 Y12.6048
 X16.1306
G0 Z35.0000
M5 (stop spindle)
G04 P3 (wait for 3 seconds)
G0 Z35.0000
M2 (end program)
