;PYCAM-META-DATA: Filename: C:\Users\abarry\Documents\CAD\Rev3\CAM\cameraCowlForCAM2.STL
;PYCAM-META-DATA: Timestamp: 2012-01-04 10:14:16.825000
;PYCAM-META-DATA: Version: 0.5.1
;Estimated machine time: 23 minutes
G40 (disable tool radius compensation)
G49 (disable tool length compensation)
G80 (cancel modal motion)
G54 (select coordinate system 1)
G90 (disable incremental moves)
G21 (metric)
G61 (exact path mode)
F200.00000
S1000.00000
;PYCAM_TOOLPATH_SETTINGS: START
;[Bounds]
;maxz = 31.75684
;maxx = 38.64044
;maxy = 23.42584
;minx = 1.60683777
;miny = 1.60683777
;minz = 0.0068379
;
;[Tool]
;torus_radius = 0.25
;speed = 1000.0
;shape = CylindricalCutter
;tool_radius = 1.6
;feedrate = 200.0
;
;[Process]
;generator = PushCutter
;pocketing_type = none
;engrave_offset = 0.0
;milling_style = ignore
;path_direction = x
;step_down = 3.0
;postprocessor = SimpleCutter
;overlap_percent = 0
;material_allowance = 0.5
;
;PYCAM_TOOLPATH_SETTINGS: END
T1 M6
G0 Z38.0000
 X1.6068 Y1.6068
G1 Z31.7568
 X11.9823
G0 Z38.0000
 X28.3420
G1 Z31.7568
 X38.6404
 Y4.7238
 X31.3110
G0 Z38.0000
 X25.4635
G1 Z31.7568
 X14.8596
G0 Z38.0000
 X9.0226
G1 Z31.7568
 X1.6068
 Y7.8408
 X7.4128
G0 Z38.0000
 X12.0222
G1 Z31.7568
 X28.2911
G0 Z38.0000
 X32.9038
G1 Z31.7568
 X38.6404
 Y10.9578
 X33.6078
G0 Z38.0000
 X29.3744
G1 Z31.7568
 X10.9412
G0 Z38.0000
 X6.7126
G1 Z31.7568
 X1.6068
 Y14.0748
 X6.7405
G0 Z38.0000
 X10.9977
G1 Z31.7568
 X29.3209
G0 Z38.0000
 X33.5756
G1 Z31.7568
 X38.6404
 Y17.1918
 X32.8042
G0 Z38.0000
 X28.1442
G1 Z31.7568
 X12.1760
G0 Z38.0000
 X7.5196
G1 Z31.7568
 X1.6068
 Y20.3088
 X9.2021
G0 Z38.0000
 X15.2583
G1 Z31.7568
 X25.0664
G0 Z38.0000
 X31.1086
G1 Z31.7568
 X38.6404
 Y23.4258
 X27.9419
G0 Z38.0000
 X12.3633
G1 Z31.7568
 X1.6068
 Z28.8705
 X11.3988
G0 Z38.0000
 X28.9126
G1 Z28.8705
 X38.6404
 Y20.3088
 X32.4645
G0 Z38.0000
 X22.1520
G1 Z28.8705
 X18.1470
G0 Z38.0000
 X7.8471
G1 Z28.8705
 X1.6068
 Y17.1918
 X6.5320
G0 Z38.0000
 X13.5548
G1 Z28.8705
 X26.7416
G0 Z38.0000
 X33.7786
G1 Z28.8705
 X38.6404
 Y14.0748
 X34.3830
G0 Z38.0000
 X28.1242
G1 Z28.8705
 X12.1740
G0 Z38.0000
 X5.9249
G1 Z28.8705
 X1.6068
 Y10.9578
 X5.9086
G0 Z38.0000
 X12.1366
G1 Z28.8705
 X28.1664
G0 Z38.0000
 X34.4054
G1 Z28.8705
 X38.6404
 Y7.8408
 X33.8436
G0 Z38.0000
 X26.8853
G1 Z28.8705
 X13.4144
G0 Z38.0000
 X6.4632
G1 Z28.8705
 X1.6068
 Y4.7238
 X7.6815
G0 Z38.0000
 X17.4709
G1 Z28.8705
 X22.8306
G0 Z38.0000
 X32.6303
G1 Z28.8705
 X38.6404
 Y1.6068
 X29.2916
G0 Z38.0000
 X11.0471
G1 Z28.8705
 X1.6068
 Z25.9841
 X9.9247
G0 Z38.0000
 X30.3951
G1 Z25.9841
 X38.6404
 Y4.7238
 X33.8149
G0 Z38.0000
 X6.4824
G1 Z25.9841
 X1.6068
 Y7.8408
 X5.5529
G0 Z38.0000
 X14.7146
G1 Z25.9841
 X25.5622
G0 Z38.0000
 X34.7524
G1 Z25.9841
 X38.6404
 Y10.9578
 X35.2056
G0 Z38.0000
 X27.1036
G1 Z25.9841
 X13.1761
G0 Z38.0000
 X5.1006
G1 Z25.9841
 X1.6068
 Y14.0748
 X5.1170
G0 Z38.0000
 X13.2014
G1 Z25.9841
 X27.0810
G0 Z38.0000
 X35.1863
G1 Z25.9841
 X38.6404
 Y17.1918
 X34.7017
G0 Z38.0000
 X25.4537
G1 Z25.9841
 X14.8283
G0 Z38.0000
 X5.6035
G1 Z25.9841
 X1.6068
 Y20.3088
 X6.5702
G0 Z38.0000
 X33.7393
G1 Z25.9841
 X38.6404
 Y23.4258
 X30.0224
G0 Z38.0000
 X10.2679
G1 Z25.9841
 X1.6068
 Z23.0977
 X8.9483
G0 Z38.0000
 X31.3874
G1 Z23.0977
 X38.6404
 Y20.3088
 X34.8721
G0 Z38.0000
 X5.4266
G1 Z23.0977
 X1.6068
 Y17.1918
 X4.6894
G0 Z38.0000
 X15.9102
G1 Z23.0977
 X24.3544
G0 Z38.0000
 X35.6195
G1 Z23.0977
 X38.6404
 Y14.0748
 X35.9893
G0 Z38.0000
 X26.2485
G1 Z23.0977
 X14.0111
G0 Z38.0000
 X4.3044
G1 Z23.0977
 X1.6068
 Y10.9578
 X4.2993
G0 Z38.0000
 X14.0000
G1 Z23.0977
 X26.2649
G0 Z38.0000
 X36.0062
G1 Z23.0977
 X38.6404
 Y7.8408
 X35.6445
G0 Z38.0000
 X24.4140
G1 Z23.0977
 X15.8437
G0 Z38.0000
 X4.6405
G1 Z23.0977
 X1.6068
 Y4.7238
 X5.3725
G0 Z38.0000
 X34.9263
G1 Z23.0977
 X38.6404
 Y1.6068
 X31.7329
G0 Z38.0000
 X8.5514
G1 Z23.0977
 X1.6068
 Z20.2114
 X6.8638
G0 Z38.0000
 X33.4101
G1 Z20.2114
 X38.6404
 Y4.7238
 X35.9578
G0 Z38.0000
 X4.3252
G1 Z20.2114
 X1.6068
 Y7.8408
 X3.7666
G0 Z38.0000
 X36.5257
G1 Z20.2114
 X38.6404
 Y10.9578
 X36.8016
G0 Z38.0000
 X3.4962
G1 Z20.2114
 X1.6068
 Y14.0748
 X3.4959
G0 Z38.0000
 X36.7872
G1 Z20.2114
 X38.6404
 Y17.1918
 X36.5062
G0 Z38.0000
 X3.7865
G1 Z20.2114
 X1.6068
 Y20.3088
 X4.3673
G0 Z38.0000
 X35.9271
G1 Z20.2114
 X38.6404
 Y23.4258
 X33.0544
G0 Z38.0000
 X7.2580
G1 Z20.2114
 X1.6068
 Z17.3250
 X5.0765
G0 Z38.0000
 X35.2310
G1 Z17.3250
 X38.6404
 Y20.3088
 X36.9400
G0 Z38.0000
 X3.3666
G1 Z17.3250
 X1.6068
 Y17.1918
 X2.9198
G0 Z38.0000
 X37.3661
G1 Z17.3250
 X38.6404
 Y14.0748
 X37.5891
G0 Z38.0000
 X2.6950
G1 Z17.3250
 X1.6068
 Y10.9578
 X2.6890
G0 Z38.0000
 X37.5967
G1 Z17.3250
 X38.6404
 Y7.8408
 X37.3757
G0 Z38.0000
 X2.9102
G1 Z17.3250
 X1.6068
 Y4.7238
 X3.3269
G0 Z38.0000
 X36.9451
G1 Z17.3250
 X38.6404
 Y1.6068
 X35.5618
G0 Z38.0000
 X4.7242
G1 Z17.3250
 X1.6068
 Z14.4387
 X3.0909
G0 Z38.0000
 X37.1886
G1 Z14.4387
 X38.6404
 Y4.7238
 X37.8998
G0 Z38.0000
 X2.3699
G1 Z14.4387
 X1.6068
 Y7.8408
 X2.0476
G0 Z38.0000
 X38.2209
G1 Z14.4387
 X38.6404
 Y10.9578
 X38.3905
G0 Z38.0000
 X1.9123
G1 Z14.4387
 X1.6068
 Y14.0748
 X1.8939
G0 Z38.0000
 X38.3642
G1 Z14.4387
 X38.6404
 Y17.1918
 X38.2233
G0 Z38.0000
 X2.0668
G1 Z14.4387
 X1.6068
 Y20.3088
 X2.3960
G0 Z38.0000
 X37.8997
G1 Z14.4387
 X38.6404
 Y23.4258
 X37.0860
G0 Z38.0000
 X3.1935
G1 Z14.4387
 X1.6068
 Z11.5523
 X1.8651
G0 Z38.0000
 X38.4079
G1 Z11.5523
 X38.6404
G0 Z38.0000
 Y1.6068
G1 Z11.5523
 X38.4459
G0 Z38.0000
 X1.8271
G1 Z11.5523
 X1.6068
G0 Z38.0000
G0 Z38.0000
M2 (end program)
