;PYCAM-META-DATA: Filename: /home/abarry/MIT/RLG/robotlib3/robots/Plane/CAD/Rev3/CAM/cameraCowlForCAM3.STL
;PYCAM-META-DATA: Timestamp: 2012-01-06 14:46:05.165620
;PYCAM-META-DATA: Version: 0.5.1
;Estimated machine time: 13 minutes
G40 (disable tool radius compensation)
G49 (disable tool length compensation)
G80 (cancel modal motion)
G54 (select coordinate system 1)
G90 (disable incremental moves)
G21 (metric)
G61 (exact path mode)
F152.00000
S1000.00000
;PYCAM_TOOLPATH_SETTINGS: START
;[Bounds]
;maxz = 31.7568397522
;maxx = 57.1822359458
;maxy = 41.9765689604
;minx = -16.9349616215
;miny = -11.8638591029
;minz = 0.00683790026233
;
;[Tool]
;torus_radius = 0.25
;speed = 1000.0
;shape = CylindricalCutter
;tool_radius = 3.175
;feedrate = 152.0
;
;[Process]
;engrave_offset = 0.0
;step_down = 3.0
;generator = DropCutter
;postprocessor = PathAccumulator
;overlap_percent = 60
;milling_style = ignore
;material_allowance = 0.0
;pocketing_type = none
;path_direction = x
;
;PYCAM_TOOLPATH_SETTINGS: END
T2 M6
G0 Z35.0000
M3 (start spindle)
G04 P3 (wait for 3 seconds)
 X37.7993 Y-4.5220
G1 Z0.0068
 X2.4068
G0 Z35.0000
 X-6.3432 Y-2.0747
G1 Z0.0068
 X6.6209
 X6.7195 Z0.0720
 X7.5079 Z0.7624
 X8.2964 Z1.4417
 X9.0849 Z2.2061
 X9.8734 Z2.9365
 X10.6619 Z3.6722
 X11.4503 Z4.4390
 X12.2388 Z5.1623
 X13.0273 Z5.9033
 X13.8158 Z6.5984
 X14.6043 Z7.2638
 X15.3928 Z7.8939
 X16.1812 Z8.4685
 X16.9697 Z8.9774
 X17.5611 Z9.3008
 X17.6596 Z9.3547
 X17.7089 Z9.3800
 X17.7582 Z9.4037
 X18.5467 Z9.6320
 X19.7294 Z9.9040
 X19.9265 Z9.9416
 X20.0251 Z9.9580
 X20.0744 Z9.9668
 X20.0990 Z9.9702
 X20.1236 Z9.9718
 X20.5179 Z9.9165
 X21.0107 Z9.8578
 X21.0353 Z9.8548
 X21.0476 Z9.8529
 X21.0600 Z9.8505
 X21.0846 Z9.8444
 X21.0969 Z9.8407
 X21.1092 Z9.8366
 X21.2078 Z9.7872
 X21.3064 Z9.7378
 X21.7006 Z9.5404
 X22.0948 Z9.4351
 X22.4644 Z9.3399
 X22.4768 Z9.3374
 X22.4891 Z9.3345
 X22.8833 Z9.0696
 X23.1790 Z8.8334
 X23.2776 Z8.8002
 X23.4747 Z8.7512
 X23.5732 Z8.7344
 X23.5979 Z8.7326
 X23.6102 Z8.7310
 X23.6225 Z8.7291
 X23.6472 Z8.7239
 X23.6595 Z8.7208
 X23.6656 Z8.7190
 X23.6718 Z8.7172
 X24.0660 Z8.4668
 X24.8545 Z7.9015
 X25.6430 Z7.2648
 X26.4315 Z6.6347
 X27.2200 Z5.9115
 X28.0084 Z5.1077
 X28.7969 Z4.3540
 X29.5854 Z3.6285
 X30.3739 Z2.9365
 X31.1624 Z2.2396
 X31.9508 Z1.5112
 X32.7393 Z0.7938
 X33.1336 Z0.4136
 X33.3307 Z0.2265
 X33.4293 Z0.1265
 X33.5278 Z0.0373
 X34.3163 Z0.0068
 X46.5904
 Y0.3726
 X42.5953
 X42.2011 Z0.6782
 X41.4126 Z2.0627
 X41.0184 Z2.6896
 X40.6241 Z3.2670
 X40.2299 Z3.7883
 X39.8357 Z4.2438
 X39.0472 Z5.0338
 X38.2587 Z5.9157
 X37.4702 Z6.7501
 X36.6817 Z7.7064
 X35.8933 Z8.6183
 X35.1048 Z9.6315
 X34.3163 Z10.6187
 X33.5278 Z11.7075
 X32.7393 Z12.8149
 X31.9508 Z13.9507
 X31.1624 Z15.2376
 X30.3739 Z16.4665
 X29.5854 Z17.8012
 X28.7969 Z19.2386
 X28.0084 Z20.6818
 X27.2200 Z22.1809
 X26.4315 Z23.6935
 X25.6430 Z25.1396
 X24.8545 Z26.6535
 X24.0660 Z28.1214
 X23.8689 Z28.3942
 X23.7704 Z28.5277
 X23.7211 Z28.5953
 X23.6718 Z28.6664
 X23.4747 Z29.0680
 X23.3761 Z29.2681
 X23.3268 Z29.3641
 X23.2776 Z29.4611
 X23.0804 Z29.8252
 X22.9819 Z29.9769
 X22.8833 Z30.1074
 X22.4891 Z30.5390
 X22.0948 Z30.9778
 X21.7006 Z31.4210
 X21.5035 Z31.6509
 X21.4542 Z31.7026
 X21.4419 Z31.7179
 X21.4357 Z31.7254
 X21.4296 Z31.7328
 X21.4234 Z31.7401
 X21.4203 Z31.7437
 X21.4188 Z31.7455
 X21.4180 Z31.7464
 X21.4176 Z31.7468
 X21.4172 Z31.7473
 X21.4142 Z31.7508
 X21.4126 Z31.7526
 X21.4118 Z31.7535
 X21.4115 Z31.7539
 X21.4113 Z31.7541
 X21.4112 Z31.7543
 X21.4111
 Z31.7544
 X21.4095 Z31.7561
 X21.4088 Z31.7568
 X18.9409
 X18.5467 Z31.3368
 X18.1524 Z30.9061
 X17.9553 Z30.6896
 X17.8568 Z30.5823
 X17.7582 Z30.4748
 X16.9697 Z29.3237
 X16.1812 Z28.0183
 X15.3928 Z26.5239
 X14.6043 Z25.0195
 X13.8158 Z23.5847
 X13.0273 Z22.0255
 X12.2388 Z20.5383
 X11.4503 Z19.1568
 X10.6619 Z17.7398
 X9.8734 Z16.4092
 X9.0849 Z15.1941
 X8.2964 Z14.0049
 X7.5079 Z12.8079
 X6.7195 Z11.6869
 X5.9310 Z10.6696
 X5.1425 Z9.6161
 X4.3540 Z8.6372
 X3.5655 Z7.6963
 X2.7771 Z6.7992
 X1.9886 Z5.9074
 X1.2001 Z5.0789
 X0.4116 Z4.2373
 X0.0174 Z3.7778
 X-0.3769 Z3.2569
 X-1.1653 Z2.0551
 X-1.5596 Z1.3856
 X-1.7567 Z1.0354
 X-1.8553 Z0.8566
 X-1.9045 Z0.7663
 X-1.9292 Z0.7209
 X-1.9415 Z0.6982
 X-1.9477 Z0.6868
 X-1.9538 Z0.6754
 X-2.1509 Z0.3058
 X-2.2002 Z0.2119
 X-2.2249 Z0.1648
 X-2.2372 Z0.1412
 X-2.2433 Z0.1293
 X-2.2464 Z0.1234
 X-2.2480 Z0.1205
 X-2.2495 Z0.1175
 X-2.2741 Z0.0701
 X-2.2865 Z0.0463
 X-2.2926 Z0.0344
 X-2.2957 Z0.0284
 X-2.2972 Z0.0255
 X-2.2980 Z0.0240
 X-2.2984 Z0.0232
 X-2.2988 Z0.0225
 X-2.3019 Z0.0165
 X-2.3034 Z0.0135
 X-2.3042 Z0.0121
 X-2.3046 Z0.0113
 X-2.3049 Z0.0106
 X-2.3065 Z0.0076
 X-2.3073 Z0.0068
 X-6.3432
 Y2.8199
 X-3.1858
 X-3.1365 Z0.1060
 X-2.7423 Z1.3072
 X-1.9538 Z3.6026
 X-1.1653 Z5.7262
 X-0.3769 Z7.6960
 X0.4116 Z9.5244
 X1.2001 Z11.2152
 X1.9886 Z12.7654
 X2.7771 Z14.1639
 X3.5655 Z15.3880
 X4.3540 Z16.5354
 X5.1425 Z17.7182
 X5.9310 Z18.9934
 X6.7195 Z20.2926
 X7.5079 Z21.7442
 X8.2964 Z23.2614
 X9.0849 Z24.8676
 X9.8734 Z26.5577
 X10.6619 Z28.3887
 X11.0561 Z29.3687
 X11.2532 Z29.8593
 X11.3518 Z30.1038
 X11.4503 Z30.3476
 X11.6475 Z30.8329
 X11.7460 Z31.0744
 X11.7953 Z31.1948
 X11.8199 Z31.2549
 X11.8323 Z31.2850
 X11.8384 Z31.3000
 X11.8415 Z31.3075
 X11.8446 Z31.3150
 X11.9431 Z31.5623
 X11.9678 Z31.6255
 X11.9801 Z31.6570
 X11.9863 Z31.6727
 X11.9893 Z31.6805
 X11.9909 Z31.6844
 X11.9917 Z31.6864
 X11.9924 Z31.6883
 X12.0047 Z31.7196
 X12.0109 Z31.7352
 X12.0140 Z31.7430
 X12.0155 Z31.7469
 X12.0163 Z31.7488
 X12.0167 Z31.7498
 X12.0169 Z31.7503
 X12.0171 Z31.7508
 X12.0186 Z31.7568
 X28.3034
 X28.3037
 X28.3041
 X28.4027 Z31.5072
 X28.7969 Z30.4858
 X29.5854 Z28.5405
 X30.3739 Z26.6647
 X31.1624 Z24.8947
 X31.9508 Z23.3236
 X32.7393 Z21.8157
 X33.5278 Z20.3683
 X34.3163 Z19.0399
 X35.1048 Z17.7719
 X35.8933 Z16.5490
 X36.6817 Z15.4370
 X37.4702 Z14.2167
 X38.2587 Z12.8189
 X39.0472 Z11.2669
 X39.8357 Z9.5720
 X40.6241 Z7.7375
 X41.4126 Z5.7594
 X42.2011 Z3.6252
 X42.5953 Z2.4925
 X42.7925 Z1.9078
 X42.8910 Z1.6106
 X42.9403 Z1.4607
 X42.9649 Z1.3855
 X42.9773 Z1.3477
 X42.9896 Z1.3100
 X43.1867 Z0.7062
 X43.4146 Z0.0087
 X43.4162 Z0.0068
 X46.5904
 Y5.2672
 X43.4331
 X43.3838 Z0.1067
 X42.9896 Z1.3591
 X42.2011 Z3.9112
 X41.4126 Z6.3787
 X40.6241 Z8.8121
 X39.8357 Z11.1666
 X39.0472 Z13.4512
 X38.2587 Z15.7050
 X37.4702 Z17.8527
 X36.6817 Z19.8428
 X35.8933 Z21.6886
 X35.1048 Z23.3948
 X34.3163 Z24.9587
 X33.5278 Z26.4665
 X32.7393 Z28.0597
 X31.9508 Z29.7773
 X31.5566 Z30.6464
 X31.3595 Z31.1563
 X31.2609 Z31.4036
 X31.2116 Z31.5254
 X31.1870 Z31.5858
 X31.1747 Z31.6159
 X31.1685 Z31.6309
 X31.1654 Z31.6384
 X31.1639 Z31.6421
 X31.1631 Z31.6440
 X31.1628 Z31.6449
 X31.1624 Z31.6459
 X31.1377 Z31.7056
 X31.1316 Z31.7205
 X31.1285 Z31.7280
 X31.1269 Z31.7317
 X31.1254 Z31.7354
 X31.1223 Z31.7428
 X31.1208 Z31.7465
 X31.1200 Z31.7484
 X31.1196 Z31.7493
 X31.1194 Z31.7498
 X31.1192 Z31.7502
 X31.1177 Z31.7540
 X31.1169 Z31.7558
 X31.1166 Z31.7567
 X31.1164 Z31.7568
 X9.2820
 X9.0849 Z31.4232
 X8.2964 Z29.6316
 X7.5079 Z27.9112
 X6.7195 Z26.3108
 X5.9310 Z24.8535
 X5.1425 Z23.2866
 X4.3540 Z21.5799
 X3.5655 Z19.7355
 X2.7771 Z17.7487
 X1.9886 Z15.6141
 X1.2001 Z13.4339
 X0.4116 Z11.1287
 X-0.3769 Z8.7592
 X-1.1653 Z6.3576
 X-1.9538 Z3.8836
 X-2.6437 Z1.6617
 X-2.6930 Z1.5050
 X-3.1673 Z0.0089
 X-3.1689 Z0.0068
 X-6.3432
 Y7.7145
 X-3.1858
 X-3.1365 Z0.1118
 X-2.7423 Z1.4394
 X-1.9538 Z4.0962
 X-1.1653 Z6.7084
 X-0.3769 Z9.2659
 X0.4116 Z11.8307
 X1.2001 Z14.3451
 X1.9886 Z16.7880
 X2.7771 Z19.1794
 X3.5655 Z21.4974
 X4.3540 Z23.7164
 X5.1425 Z25.8778
 X5.9310 Z27.9848
 X6.7195 Z29.9487
 X7.1137 Z30.9206
 X7.2123 Z31.1646
 X7.2615 Z31.2850
 X7.2862 Z31.3447
 X7.3108 Z31.4042
 X7.3601 Z31.5224
 X7.3847 Z31.5810
 X7.3971 Z31.6103
 X7.4032 Z31.6249
 X7.4063 Z31.6321
 X7.4078 Z31.6358
 X7.4086 Z31.6376
 X7.4094 Z31.6394
 X7.4340 Z31.6988
 X7.4463 Z31.7289
 X7.4525 Z31.7440
 X7.4556 Z31.7515
 X7.4571 Z31.7552
 X7.4579 Z31.7568
 X16.1566
 X16.1812 Z31.7407
 X16.9697 Z30.9641
 X17.1668 Z30.7692
 X17.2654 Z30.6711
 X17.3640 Z30.5844
 X17.7582 Z30.2848
 X17.9553 Z30.1262
 X18.0539 Z30.0450
 X18.1032 Z30.0046
 X18.1524 Z29.9647
 X18.2017 Z29.9251
 X18.2264 Z29.9060
 X18.2387 Z29.8963
 X18.2448 Z29.8915
 X18.2479 Z29.8891
 X18.2510 Z29.8866
 X18.3003 Z29.8599
 X18.3496 Z29.8339
 X18.5467 Z29.7330
 X18.9409 Z29.5729
 X19.1380 Z29.4928
 X19.2366 Z29.4469
 X19.2612 Z29.4348
 X19.2736 Z29.4287
 X19.2797 Z29.4256
 X19.2828 Z29.4241
 X19.2843 Z29.4233
 X19.2859 Z29.4226
 X19.3352 Z29.4103
 X19.5323 Z29.3655
 X19.6308 Z29.3463
 X19.7294 Z29.3325
 X19.9265 Z29.3174
 X20.0251 Z29.3134
 X20.0744 Z29.3111
 X20.0990 Z29.3093
 X20.1236 Z29.3070
 X20.3208 Z29.3071
 X20.4193 Z29.3149
 X20.5179 Z29.3270
 X20.7150 Z29.3578
 X20.8136 Z29.3809
 X20.9121 Z29.4068
 X21.0107 Z29.4294
 X21.0600 Z29.4374
 X21.0723 Z29.4390
 X21.0784 Z29.4398
 X21.0815 Z29.4402
 X21.0846 Z29.4405
 X21.0908 Z29.4413
 X21.0938 Z29.4416
 X21.0954 Z29.4418
 X21.0961
 X21.0965 Z29.4419
 X21.0969
 X21.1092 Z29.4464
 X21.2078 Z29.4836
 X21.3064 Z29.5212
 X21.4049 Z29.5600
 X21.4296 Z29.5682
 X21.4419 Z29.5720
 X21.4480 Z29.5739
 X21.4511 Z29.5749
 X21.4542 Z29.5759
 X21.5035 Z29.6010
 X21.7006 Z29.7071
 X21.8977 Z29.8019
 X21.9224 Z29.8110
 X21.9254 Z29.8121
 X21.9270 Z29.8126
 X21.9277 Z29.8129
 X21.9281 Z29.8130
 X21.9285 Z29.8131
 X21.9301 Z29.8137
 X21.9308 Z29.8139
 X21.9316 Z29.8144
 X21.9963 Z29.8579
 X22.0948 Z29.9276
 X22.4891 Z30.2323
 X22.5876 Z30.2819
 X22.6369 Z30.3088
 X22.6616 Z30.3239
 X22.6739 Z30.3315
 X22.6800 Z30.3352
 X22.6862 Z30.3388
 X22.7848 Z30.4229
 X22.8833 Z30.5071
 X23.2776 Z30.8747
 X23.6718 Z31.2382
 X23.8689 Z31.4518
 X23.9675 Z31.5617
 X24.0168 Z31.6116
 X24.0414 Z31.6354
 X24.0537 Z31.6470
 X24.0599 Z31.6527
 X24.0630 Z31.6556
 X24.0645 Z31.6570
 X24.0660 Z31.6586
 X24.1153 Z31.7113
 X24.1276 Z31.7240
 X24.1338 Z31.7303
 X24.1400 Z31.7365
 X24.1461 Z31.7427
 X24.1492 Z31.7458
 X24.1507 Z31.7473
 X24.1515 Z31.7481
 X24.1519 Z31.7485
 X24.1523 Z31.7488
 X24.1554 Z31.7519
 X24.1569 Z31.7534
 X24.1577 Z31.7542
 X24.1581 Z31.7546
 X24.1582 Z31.7548
 X24.1583 Z31.7549
 X24.1584
 Z31.7550
 X24.1600 Z31.7565
 X24.1608 Z31.7568
 X32.7393
 X33.5278 Z30.1210
 X34.3163 Z28.1471
 X35.1048 Z26.0581
 X35.8933 Z23.8617
 X36.6817 Z21.5726
 X37.4702 Z19.2795
 X38.2587 Z16.8879
 X39.0472 Z14.4038
 X39.8357 Z11.9156
 X40.6241 Z9.3327
 X41.4126 Z6.7785
 X42.2011 Z4.1359
 X42.5953 Z2.8222
 X42.7925 Z2.1665
 X42.8910 Z1.8335
 X42.9403 Z1.6631
 X42.9649 Z1.5769
 X42.9773 Z1.5336
 X42.9896 Z1.4903
 X43.4146 Z0.0086
 X43.4162 Z0.0068
 X46.5904
 Y10.1618
 X43.4331
 X43.3838 Z0.1189
 X42.2011 Z4.3330
 X41.4126 Z7.0840
 X40.6241 Z9.8478
 X39.8357 Z12.5833
 X39.0472 Z15.2596
 X38.2587 Z17.9368
 X37.4702 Z20.5750
 X36.6817 Z23.1626
 X35.8933 Z25.6884
 X35.1048 Z28.2232
 X34.7105 Z29.4715
 X34.5134 Z30.0817
 X34.4149 Z30.3827
 X34.3163 Z30.6846
 X34.1192 Z31.2902
 X34.0699 Z31.4409
 X34.0453 Z31.5160
 X34.0329 Z31.5535
 X34.0268 Z31.5723
 X34.0237 Z31.5816
 X34.0222 Z31.5863
 X34.0206 Z31.5910
 X33.9960 Z31.6658
 X33.9837 Z31.7031
 X33.9775 Z31.7218
 X33.9744 Z31.7311
 X33.9729 Z31.7358
 X33.9721 Z31.7381
 X33.9713 Z31.7404
 X33.9683 Z31.7498
 X33.9667 Z31.7544
 X33.9659 Z31.7568
 X33.9652
 X26.8950
 X26.8935 Z31.7538
 X26.8873 Z31.7426
 X26.8750 Z31.7200
 X26.8257 Z31.6314
 X26.4315 Z30.9067
 X25.6430 Z29.4288
 X24.8545 Z27.9681
 X24.0660 Z26.4983
 X23.2776 Z25.0678
 X22.4891 Z23.7141
 X22.0948 Z23.1277
 X21.8977 Z22.8368
 X21.8854 Z22.8122
 X21.8792 Z22.7992
 X21.8762 Z22.7925
 X21.8746 Z22.7891
 X21.8738 Z22.7873
 X21.8735 Z22.7865
 X21.8731 Z22.7856
 X21.8484 Z22.7552
 X21.8238 Z22.7284
 X21.8115 Z22.7138
 X21.7992 Z22.6983
 X21.7745 Z22.6644
 X21.7622 Z22.6457
 X21.7499 Z22.6257
 X21.7252 Z22.5808
 X21.7129 Z22.5554
 X21.7068 Z22.5418
 X21.7006 Z22.5274
 X21.5035 Z22.2458
 X21.4727 Z22.2014
 X21.4711 Z22.2001
 X21.4634
 X21.4619 Z22.1866
 X21.4542 Z22.1773
 X21.4049 Z22.1280
 X21.3064 Z22.0309
 X21.1092 Z21.8476
 X21.0600 Z21.7662
 X21.0538 Z21.7539
 X21.0507 Z21.7474
 X21.0492 Z21.7441
 X21.0484 Z21.7425
 X21.0480 Z21.7417
 X21.0478 Z21.7412
 X21.0477 Z21.7410
 X21.0476 Z21.7408
 X21.0461 Z21.7375
 X21.0446 Z21.7340
 X21.0430 Z21.7321
 X21.0415 Z21.7311
 X21.0353 Z21.7270
 X21.0230 Z21.7186
 X21.0168 Z21.7142
 X21.0138 Z21.7119
 X21.0107 Z21.7097
 X20.9121 Z21.6673
 X20.8628 Z21.6511
 X20.8382 Z21.6409
 X20.8259 Z21.6352
 X20.8197 Z21.6322
 X20.8136 Z21.6291
 X20.7889 Z21.6155
 X20.7766 Z21.6078
 X20.7643 Z21.5996
 X20.7396 Z21.5812
 X20.7273 Z21.5709
 X20.7212 Z21.5654
 X20.7181 Z21.5626
 X20.7165 Z21.5612
 X20.7158 Z21.5604
 X20.7154 Z21.5601
 X20.7150 Z21.5597
 X20.6164 Z21.5325
 X20.5918 Z21.5269
 X20.5672 Z21.5201
 X20.5179 Z21.5021
 X20.4932 Z21.4903
 X20.4809 Z21.4836
 X20.4686 Z21.4764
 X20.4440 Z21.4598
 X20.4316 Z21.4503
 X20.4255 Z21.4452
 X20.4193 Z21.4399
 X20.4070 Z21.4285
 X20.3947 Z21.4159
 X20.3824 Z21.4020
 X20.3762 Z21.3945
 X20.3700 Z21.3865
 X20.3454 Z21.3492
 X20.3331 Z21.3263
 X20.3300 Z21.3199
 X20.3285 Z21.3167
 X20.3277 Z21.3150
 X20.3273 Z21.3142
 X20.3271 Z21.3138
 X20.3269 Z21.3134
 X20.3254 Z21.3100
 X20.3246 Z21.3082
 X20.3242 Z21.3074
 X20.3240 Z21.3069
 X20.3239 Z21.3067
 Z21.3066
 X20.3238 Z21.3065
 X20.3223 Z21.3048
 X20.3208 Z21.3047
 X20.2222 Z21.2974
 X20.1483 Z21.2914
 X20.1360 Z21.2905
 X20.1298 Z21.2901
 X20.1236 Z21.2896
 X20.0744 Z21.2892
 X19.9758
 X19.9265 Z21.3085
 X19.4953 Z21.5066
 X19.4830 Z21.5173
 X19.4584 Z21.5385
 X19.3352 Z21.6446
 X18.9409 Z22.0497
 X18.7438 Z22.2790
 X18.5467 Z22.5227
 X17.7582 Z23.7656
 X16.9697 Z25.1346
 X16.1812 Z26.5875
 X15.3928 Z28.0536
 X14.6043 Z29.5314
 X14.2100 Z30.2819
 X14.0129 Z30.6562
 X13.9144 Z30.8431
 X13.8651 Z30.9365
 X13.8404 Z30.9831
 X13.8281 Z31.0065
 X13.8220 Z31.0181
 X13.8158 Z31.0298
 X13.6187 Z31.4028
 X13.5201 Z31.5937
 X13.4377 Z31.7565
 X13.4373 Z31.7568
 X6.3745
 X6.3252 Z31.6280
 X5.9310 Z30.3966
 X5.1425 Z28.0121
 X4.3540 Z25.5051
 X3.5655 Z23.0276
 X2.7771 Z20.4260
 X1.9886 Z17.8023
 X1.2001 Z15.1232
 X0.4116 Z12.4215
 X-0.3769 Z9.7251
 X-1.1653 Z6.9833
 X-1.9538 Z4.2062
 X-3.1673 Z0.0086
 X-3.1689 Z0.0068
 X-6.3432
 Y12.6091
 X-3.1858
 X-3.1365 Z0.1201
 X-1.9538 Z4.3687
 X-1.1653 Z7.2046
 X-0.3769 Z10.0727
 X0.4116 Z12.8900
 X1.2001 Z15.7063
 X1.9886 Z18.5228
 X2.7771 Z21.3308
 X3.5655 Z24.1214
 X4.3540 Z26.8759
 X5.7523 Z31.7517
 X5.7539 Z31.7568
 X12.2388
 X13.0273 Z29.9547
 X13.8158 Z28.0305
 X14.6043 Z25.9129
 X14.9985 Z24.7217
 X15.1956 Z24.0704
 X15.3928 Z23.4091
 X15.5899 Z22.6752
 X15.7870 Z21.8219
 X15.9841 Z20.8626
 X15.9964 Z0.0068
 X24.0660
 X24.2632 Z20.8555
 X24.4603 Z21.7475
 X24.8545 Z23.3246
 X25.6430 Z25.8372
 X26.4315 Z27.9151
 X27.2200 Z29.8128
 X27.6142 Z30.7271
 X27.8113 Z31.1745
 X27.9099 Z31.3985
 X28.0546 Z31.7272
 X28.0562 Z31.7307
 X28.0570 Z31.7324
 X28.0573 Z31.7333
 X28.0575 Z31.7337
 X28.0577 Z31.7342
 X28.0639 Z31.7483
 X28.0654 Z31.7518
 X28.0662 Z31.7535
 X28.0666 Z31.7544
 X28.0668 Z31.7548
 X28.0670 Z31.7553
 X28.0685 Z31.7568
 X34.5627
 X34.6120 Z31.5948
 X34.7105 Z31.2506
 X35.1048 Z29.8712
 X35.8933 Z27.1039
 X36.6817 Z24.3144
 X37.4702 Z21.5022
 X38.2587 Z18.6753
 X39.0472 Z15.8324
 X39.8357 Z12.9935
 X40.6241 Z10.1542
 X41.4126 Z7.2635
 X42.2011 Z4.4039
 X43.4146 Z0.0095
 X43.4162 Z0.0068
 X46.5904
 Y15.0564
 X43.4331
 X43.3838 Z0.1229
 X42.9896 Z1.5697
 X42.2011 Z4.4632
 X41.4126 Z7.3565
 X39.8357 Z13.1426
 X38.2587 Z18.9279
 X37.4702 Z21.8204
 X36.6817 Z24.7101
 X35.8933 Z27.5927
 X34.8584 Z31.3763
 X34.7544 Z31.7563
 X34.7540 Z31.7568
 X28.4027
 X28.0084 Z30.8212
 X27.2200 Z28.8732
 X26.4315 Z26.7040
 X26.0372 Z25.4823
 X25.8401 Z24.8373
 X25.6430 Z24.1185
 X25.4459 Z23.3831
 X25.2488 Z22.5282
 X25.0516 Z21.4937
 X24.9531 Z20.9264
 X24.9284 Z0.0068
 X15.3928
 X15.1956 Z21.5146
 X14.9985 Z22.5835
 X14.6043 Z24.2063
 X13.8158 Z26.8183
 X13.0273 Z29.0154
 X12.6331 Z30.0117
 X12.4359 Z30.5101
 X12.3374 Z30.7578
 X12.2881 Z30.8828
 X12.2635 Z30.9435
 X12.2511 Z30.9740
 X12.2450 Z30.9889
 X12.2419 Z30.9963
 X12.2388 Z31.0037
 X12.0417 Z31.4565
 X11.9924 Z31.5719
 X11.9678 Z31.6290
 X11.9555 Z31.6574
 X11.9493 Z31.6715
 X11.9462 Z31.6786
 X11.9447 Z31.6822
 X11.9439 Z31.6839
 X11.9435 Z31.6848
 X11.9433 Z31.6853
 X11.9431 Z31.6857
 X11.9308 Z31.7139
 X11.9247 Z31.7280
 X11.9216 Z31.7350
 X11.9200 Z31.7385
 X11.9193 Z31.7403
 X11.9189 Z31.7412
 X11.9187 Z31.7416
 X11.9185 Z31.7420
 X11.9154 Z31.7491
 X11.9139 Z31.7526
 X11.9131 Z31.7543
 X11.9127 Z31.7552
 X11.9125 Z31.7556
 X11.9123 Z31.7561
 X11.9108 Z31.7568
 X5.5614
 X5.5367 Z31.6904
 X5.1425 Z30.2559
 X4.3540 Z27.3856
 X3.5655 Z24.5133
 X2.7771 Z21.6448
 X-1.1653 Z7.2968
 X-1.9538 Z4.4270
 X-2.9394 Z0.8395
 X-3.1673 Z0.0098
 X-3.1689 Z0.0068
 X-6.3432
 Y17.5036
 X-3.1858
 X-3.1365 Z0.1201
 X-1.9538 Z4.3687
 X-1.1653 Z7.2023
 X-0.3769 Z10.0624
 X0.4116 Z12.8756
 X1.2001 Z15.6900
 X1.9886 Z18.4915
 X2.7771 Z21.2923
 X3.5655 Z24.0361
 X4.3540 Z26.7677
 X5.3396 Z30.1925
 X5.4382 Z30.5356
 X5.4875 Z30.7053
 X5.5121 Z30.7896
 X5.5367 Z30.8735
 X5.6353 Z31.2062
 X5.6846 Z31.3709
 X5.7985 Z31.7518
 X5.8001 Z31.7568
 X12.2388
 X13.0273 Z30.1437
 X13.8158 Z28.2092
 X14.6043 Z26.0983
 X14.9985 Z24.8742
 X15.1956 Z24.2484
 X15.3928 Z23.5118
 X15.5899 Z22.7492
 X15.7870 Z21.8345
 X15.9841 Z20.8789
 X15.9964 Z0.0068
 X24.0660
 X24.2632 Z20.8640
 X24.4603 Z21.8557
 X24.8545 Z23.4626
 X25.6430 Z25.9717
 X26.4315 Z28.0901
 X27.2200 Z29.9966
 X27.6142 Z30.9025
 X27.8113 Z31.3465
 X27.9900 Z31.7522
 X27.9915 Z31.7568
 X34.5134
 X34.6120 Z31.4490
 X35.1048 Z29.7248
 X35.8933 Z26.9674
 X36.6817 Z24.2210
 X37.4702 Z21.4333
 X38.2587 Z18.6350
 X39.0472 Z15.8145
 X40.6241 Z10.1430
 X41.4126 Z7.2612
 X42.2011 Z4.4039
 X43.4146 Z0.0095
 X43.4162 Z0.0068
 X46.5904
 Y19.9509
 X43.4331
 X43.3838 Z0.1160
 X42.2011 Z4.2389
 X41.4126 Z7.0319
 X40.6241 Z9.7894
 X39.8357 Z12.5037
 X39.0472 Z15.2185
 X38.2587 Z17.8777
 X37.4702 Z20.4918
 X36.6817 Z23.0696
 X35.8933 Z25.5356
 X35.1048 Z28.0167
 X34.7105 Z29.2137
 X34.5134 Z29.8084
 X34.4149 Z30.1035
 X34.3656 Z30.2505
 X34.3409 Z30.3238
 X34.3163 Z30.3971
 X34.1192 Z30.9799
 X34.0206 Z31.2691
 X33.9713 Z31.4131
 X33.9467 Z31.4850
 X33.9344 Z31.5209
 X33.9282 Z31.5388
 X33.9251 Z31.5478
 X33.9236 Z31.5523
 X33.9224 Z31.5557
 X33.9221 Z31.5568
 X33.8974 Z31.6285
 X33.8851 Z31.6643
 X33.8789 Z31.6822
 X33.8759 Z31.6912
 X33.8743 Z31.6956
 X33.8732 Z31.6990
 X33.8728 Z31.7001
 X33.8605 Z31.7359
 X33.8574 Z31.7448
 X33.8558 Z31.7493
 X33.8547 Z31.7526
 X33.8543 Z31.7537
 X33.8528 Z31.7568
 X26.6902
 X26.6779 Z31.7276
 X26.6286 Z31.6346
 X26.4315 Z31.2616
 X25.6430 Z29.7797
 X24.8545 Z28.3276
 X24.0660 Z26.8401
 X23.2776 Z25.4164
 X22.4891 Z24.0082
 X22.0948 Z23.3295
 X21.8977 Z23.0151
 X21.7006 Z22.7280
 X21.3064 Z22.2198
 X21.2078 Z22.0802
 X21.1154 Z21.9415
 X21.1092 Z21.9324
 X20.7708 Z21.6058
 X20.7704 Z21.6055
 X20.6164 Z21.5466
 X20.5179 Z21.5080
 X20.2314 Z21.3509
 X20.2299 Z21.3501
 X20.1729
 X20.1483 Z21.3517
 X20.1360 Z21.3527
 X19.9635 Z21.3687
 X19.9573 Z21.3843
 X19.9512 Z21.3990
 X19.9388 Z21.4245
 X19.9327 Z21.4357
 X19.9296 Z21.4409
 X19.9265 Z21.4460
 X19.9019 Z21.4807
 X19.8896 Z21.4950
 X19.8834 Z21.5015
 X19.8772 Z21.5077
 X19.8649 Z21.5192
 X19.8526 Z21.5295
 X19.8403 Z21.5389
 X19.8341 Z21.5432
 X19.8280 Z21.5473
 X19.7294 Z21.5923
 X19.5323 Z21.6722
 X19.5076 Z21.6888
 X19.4830 Z21.7029
 X19.4584 Z21.7150
 X19.4337 Z21.7252
 X19.3844 Z21.7412
 X19.3721 Z21.7444
 X19.3660 Z21.7459
 X19.3629 Z21.7466
 X19.3613 Z21.7470
 X19.3598 Z21.7473
 X19.3475 Z21.7521
 X19.3352 Z21.7577
 X18.5467 Z22.7866
 X17.7582 Z24.0060
 X16.9697 Z25.4175
 X16.1812 Z26.8967
 X15.3928 Z28.4289
 X14.6043 Z29.9113
 X14.2100 Z30.6561
 X14.0129 Z31.0136
 X13.9144 Z31.2029
 X13.8651 Z31.3021
 X13.8158 Z31.4028
 X13.7665 Z31.5037
 X13.7419 Z31.5544
 X13.7296 Z31.5789
 X13.7172 Z31.6036
 X13.6926 Z31.6505
 X13.6803 Z31.6733
 X13.6741 Z31.6845
 X13.6710 Z31.6901
 X13.6695 Z31.6929
 X13.6680 Z31.6957
 X13.6556 Z31.7176
 X13.6495 Z31.7284
 X13.6464 Z31.7337
 X13.6449 Z31.7364
 X13.6441 Z31.7378
 X13.6437 Z31.7384
 X13.6435 Z31.7388
 X13.6434 Z31.7389
 X13.6433 Z31.7391
 X13.6402 Z31.7444
 X13.6387 Z31.7471
 X13.6379 Z31.7484
 X13.6372 Z31.7497
 X13.6356 Z31.7523
 X13.6348 Z31.7537
 X13.6345 Z31.7568
 X6.4530
 X6.4515 Z31.7532
 X6.4484 Z31.7445
 X6.4238 Z31.6745
 X6.3252 Z31.3932
 X5.9310 Z30.2427
 X5.1425 Z27.8353
 X4.3540 Z25.3585
 X3.5655 Z22.8701
 X2.7771 Z20.3209
 X1.9886 Z17.7461
 X1.2001 Z15.1084
 X0.4116 Z12.4586
 X-0.3769 Z9.7603
 X-1.1653 Z7.0226
 X-1.9538 Z4.2989
 X-3.1673 Z0.0091
 X-3.1689 Z0.0068
 X-6.3432
 Y22.3982
 X-3.1858
 X-3.1365 Z0.1152
 X-2.7423 Z1.4791
 X-1.9538 Z4.1001
 X-1.1653 Z6.7233
 X-0.3769 Z9.2475
 X0.4116 Z11.8007
 X1.2001 Z14.2692
 X1.9886 Z16.7106
 X2.7771 Z19.0507
 X3.5655 Z21.3104
 X4.3540 Z23.5463
 X5.1425 Z25.6978
 X5.9310 Z27.7239
 X6.7195 Z29.6565
 X7.1137 Z30.5858
 X7.3108 Z31.0494
 X7.4094 Z31.2756
 X7.4587 Z31.3866
 X7.4833 Z31.4417
 X7.4956 Z31.4691
 X7.5018 Z31.4827
 X7.5049 Z31.4895
 X7.5064 Z31.4930
 X7.5072 Z31.4947
 X7.5079 Z31.4964
 X7.5572 Z31.6066
 X7.6219 Z31.7527
 X7.6234 Z31.7568
 X16.6879
 X16.6887
 X16.6890
 X16.6894
 X16.6925 Z31.7539
 X16.6987 Z31.7469
 X16.7233 Z31.7197
 X16.7726 Z31.6644
 X16.9697 Z31.4839
 X17.3640 Z31.1453
 X17.4132 Z31.0929
 X17.4379 Z31.0648
 X17.4502 Z31.0504
 X17.4625 Z31.0369
 X17.5118 Z30.9936
 X17.5611 Z30.9504
 X17.7582 Z30.8049
 X18.1524 Z30.5660
 X18.2510 Z30.4804
 X18.2756 Z30.4559
 X18.2880 Z30.4430
 X18.2941 Z30.4365
 X18.2972 Z30.4332
 X18.2987 Z30.4315
 X18.3003 Z30.4298
 X18.3249 Z30.4105
 X18.3496 Z30.3942
 X18.5467 Z30.2895
 X18.7438 Z30.1948
 X18.8424 Z30.1363
 X18.8916 Z30.1083
 X18.9409 Z30.0874
 X19.1380 Z30.0184
 X19.1873 Z29.9962
 X19.2120 Z29.9859
 X19.2366 Z29.9760
 X19.3352 Z29.9564
 X19.4337 Z29.9502
 X19.4830 Z29.9440
 X19.5323 Z29.9356
 X19.6308 Z29.9114
 X19.6801 Z29.8961
 X19.7294 Z29.8838
 X19.9265 Z29.8658
 X20.0251 Z29.8634
 X20.0744 Z29.8590
 X20.0990 Z29.8560
 X20.1113 Z29.8543
 X20.1236 Z29.8524
 X20.5179 Z29.9041
 X20.6164 Z29.9117
 X20.6657 Z29.9125
 X20.6904 Z29.9134
 X20.8136 Z29.9235
 X20.9121 Z29.9520
 X21.1092 Z30.0003
 X21.1585 Z30.0111
 X21.1955 Z30.0201
 X21.2078 Z30.0265
 X21.3064 Z30.0838
 X21.7006 Z30.2998
 X21.8977 Z30.3865
 X21.9470 Z30.4054
 X21.9716 Z30.4143
 X21.9840 Z30.4187
 X21.9901 Z30.4209
 X21.9963 Z30.4230
 X22.0086 Z30.4274
 X22.0209 Z30.4327
 X22.0332 Z30.4393
 X22.0456 Z30.4466
 X22.0948 Z30.4771
 X22.4891 Z30.7584
 X22.8833 Z31.0908
 X23.2529 Z31.4047
 X23.2652 Z31.4152
 X23.2776 Z31.4260
 X23.4747 Z31.5955
 X23.5732 Z31.6786
 X23.5979 Z31.7017
 X23.6302 Z31.7350
 X23.6310 Z31.7568
 X32.6901
 X32.7393 Z31.6754
 X33.5278 Z29.8318
 X34.3163 Z27.8746
 X35.1048 Z25.8502
 X35.8933 Z23.7059
 X36.6817 Z21.5274
 X37.4702 Z19.2098
 X38.2587 Z16.8241
 X39.0472 Z14.3948
 X39.8357 Z11.8875
 X40.6241 Z9.3135
 X41.4126 Z6.7476
 X42.2011 Z4.1262
 X42.5953 Z2.7880
 X43.4146 Z0.0081
 X43.4162 Z0.0068
 X46.5904
 Y24.8455
 X43.4331
 X43.3838 Z0.1067
 X42.9896 Z1.3591
 X42.2011 Z3.9085
 X41.4126 Z6.3905
 X40.6241 Z8.8026
 X39.8357 Z11.1678
 X39.0472 Z13.4723
 X38.2587 Z15.6483
 X37.4702 Z17.7358
 X36.6817 Z19.6609
 X35.8933 Z21.4363
 X35.1048 Z23.0650
 X34.3163 Z24.5423
 X33.5278 Z25.9889
 X32.7393 Z27.5414
 X31.9508 Z29.2162
 X31.5566 Z30.1063
 X31.3595 Z30.5620
 X31.2609 Z30.7923
 X31.2116 Z30.9075
 X31.1870 Z30.9649
 X31.1747 Z30.9936
 X31.1685 Z31.0079
 X31.1654 Z31.0151
 X31.1624 Z31.0223
 X30.9652 Z31.4783
 X30.9160 Z31.5914
 X30.8913 Z31.6479
 X30.8790 Z31.6761
 X30.8728 Z31.6902
 X30.8698 Z31.6973
 X30.8682 Z31.7008
 X30.8675 Z31.7025
 X30.8667 Z31.7043
 X30.8544 Z31.7325
 X30.8513 Z31.7395
 X30.8497 Z31.7430
 X30.8490 Z31.7448
 X30.8482 Z31.7465
 X30.8467 Z31.7568
 X9.4791
 X9.0849 Z30.8828
 X8.2964 Z29.1027
 X7.5079 Z27.4034
 X6.7195 Z25.8856
 X5.9310 Z24.4453
 X5.1425 Z22.9638
 X4.3540 Z21.3334
 X3.5655 Z19.5585
 X2.7771 Z17.6357
 X1.9886 Z15.5525
 X1.2001 Z13.3285
 X0.4116 Z11.0601
 X-0.3769 Z8.7273
 X-1.1653 Z6.3296
 X-1.9538 Z3.8800
 X-2.5452 Z1.9771
 X-2.6437 Z1.6604
 X-3.1673 Z0.0089
 X-3.1689 Z0.0068
 X-6.3432
 Y27.2928
 X-3.1858
 X-3.1365 Z0.1023
 X-2.7423 Z1.3012
 X-1.9538 Z3.5902
 X-1.1653 Z5.6896
 X-0.3769 Z7.6268
 X0.4116 Z9.4154
 X1.2001 Z11.0595
 X1.9886 Z12.5556
 X2.7771 Z13.8907
 X3.5655 Z15.0387
 X4.3540 Z16.1267
 X5.1425 Z17.2780
 X5.9310 Z18.5192
 X6.7195 Z19.7957
 X7.5079 Z21.1525
 X8.2964 Z22.6103
 X9.0849 Z24.1112
 X9.8734 Z25.7394
 X10.6619 Z27.5195
 X11.4503 Z29.3301
 X11.8446 Z30.3085
 X12.2388 Z31.2917
 X12.3374 Z31.5402
 X12.3620 Z31.6023
 X12.3743 Z31.6332
 X12.3805 Z31.6487
 X12.3867 Z31.6642
 X12.3990 Z31.6951
 X12.4051 Z31.7106
 X12.4082 Z31.7183
 X12.4098 Z31.7222
 X12.4105 Z31.7241
 X12.4113 Z31.7260
 X12.4175 Z31.7415
 X12.4205 Z31.7492
 X12.4221 Z31.7531
 X12.4229 Z31.7550
 X12.4232 Z31.7560
 X12.4234 Z31.7568
 X27.8976
 X27.9099 Z31.7317
 X28.0084 Z31.4402
 X28.7969 Z29.5011
 X29.5854 Z27.6602
 X30.3739 Z25.9479
 X31.1624 Z24.2511
 X31.9508 Z22.7355
 X32.7393 Z21.3024
 X33.5278 Z19.8707
 X34.3163 Z18.5889
 X35.1048 Z17.3632
 X35.8933 Z16.1949
 X36.6817 Z15.0869
 X37.4702 Z13.9396
 X38.2587 Z12.6060
 X39.0472 Z11.1088
 X39.8357 Z9.4612
 X40.6241 Z7.6671
 X41.4126 Z5.7221
 X42.2011 Z3.6125
 X42.5953 Z2.4879
 X42.7925 Z1.9061
 X42.8910 Z1.6102
 X43.1867 Z0.7239
 X43.2853 Z0.4198
 X43.4146 Z0.0089
 X43.4162 Z0.0068
 X46.5904
 Y29.7401
 X42.5953
 X42.2011 Z0.6670
 X41.4126 Z2.0228
 X41.0184 Z2.6331
 X40.6241 Z3.1925
 X39.8357 Z4.1325
 X39.0472 Z4.9412
 X38.2587 Z5.7473
 X37.4702 Z6.6238
 X36.6817 Z7.4737
 X35.8933 Z8.3815
 X35.1048 Z9.3452
 X34.3163 Z10.3459
 X33.5278 Z11.3264
 X32.7393 Z12.3870
 X31.9508 Z13.5434
 X31.1624 Z14.6470
 X30.3739 Z15.8349
 X29.5854 Z17.0536
 X28.7969 Z18.3939
 X28.0084 Z19.6956
 X27.2200 Z21.0279
 X26.4315 Z22.4593
 X25.6430 Z23.8124
 X24.8545 Z25.0951
 X24.0660 Z26.4453
 X23.6718 Z26.9684
 X23.5732 Z27.0983
 X23.4747 Z27.2412
 X23.3761 Z27.4237
 X23.3268 Z27.5118
 X23.3022 Z27.5541
 X23.2776 Z27.5952
 X22.4891 Z28.4873
 X22.0948 Z28.8896
 X21.8977 Z29.0865
 X21.7992 Z29.1829
 X21.7499 Z29.2414
 X21.7252 Z29.2690
 X21.7129 Z29.2824
 X21.7068 Z29.2889
 X21.7006 Z29.2954
 X21.6513 Z29.3448
 X21.6020 Z29.3894
 X21.5528 Z29.4289
 X21.5035 Z29.4633
 X21.4049 Z29.5195
 X21.3064 Z29.5822
 X21.2078 Z29.6446
 X21.1832 Z29.6584
 X21.1585 Z29.6707
 X21.1339 Z29.6814
 X21.1216 Z29.6862
 X21.1154 Z29.6884
 X21.1092 Z29.6905
 X20.9121 Z29.7060
 X20.7150 Z29.7545
 X20.5179 Z29.7900
 X20.2222 Z29.8229
 X20.1236 Z29.8287
 X19.7294 Z29.7992
 X19.6308 Z29.8146
 X19.6062 Z29.8191
 X19.5939 Z29.8208
 X19.5816 Z29.8220
 X19.5569 Z29.8233
 X19.5446
 X19.5384 Z29.8231
 X19.5323 Z29.8229
 X19.5076 Z29.8208
 X19.4830 Z29.8172
 X19.4584 Z29.8120
 X19.4460 Z29.8088
 X19.4337 Z29.8052
 X19.4091 Z29.7968
 X19.3844 Z29.7869
 X19.3352 Z29.7630
 X19.1380 Z29.6657
 X19.0888 Z29.6412
 X19.0641 Z29.6274
 X19.0395 Z29.6120
 X18.9409 Z29.5346
 X18.7438 Z29.3999
 X18.6945 Z29.3678
 X18.6452 Z29.3309
 X18.5467 Z29.2416
 X17.7582 Z28.4305
 X17.5611 Z28.2247
 X17.4625 Z28.1174
 X17.4132 Z28.0661
 X17.3886 Z28.0445
 X17.3640 Z28.0223
 X16.9697 Z27.4932
 X16.1812 Z26.3166
 X15.3928 Z25.0207
 X14.6043 Z23.7048
 X13.8158 Z22.3742
 X13.0273 Z21.0339
 X12.2388 Z19.6360
 X11.4503 Z18.3258
 X10.6619 Z16.9972
 X9.8734 Z15.7873
 X9.0849 Z14.6042
 X8.2964 Z13.3984
 X7.5079 Z12.3346
 X6.7195 Z11.2514
 X5.9310 Z10.2365
 X5.1425 Z9.2905
 X4.3540 Z8.3348
 X3.5655 Z7.4534
 X2.7771 Z6.5314
 X1.9886 Z5.7330
 X1.2001 Z4.8824
 X0.6087 Z4.3087
 X0.4116 Z4.1185
 X0.0174 Z3.6842
 X-0.3769 Z3.1830
 X-1.1653 Z2.0155
 X-1.5596 Z1.3610
 X-1.7567 Z1.0178
 X-1.8553 Z0.8423
 X-1.9045 Z0.7537
 X-1.9292 Z0.7091
 X-1.9415 Z0.6868
 X-1.9477 Z0.6756
 X-1.9538 Z0.6644
 X-2.1509 Z0.3011
 X-2.2002 Z0.2087
 X-2.2249 Z0.1623
 X-2.2372 Z0.1391
 X-2.2433 Z0.1274
 X-2.2464 Z0.1216
 X-2.2480 Z0.1187
 X-2.2495 Z0.1158
 X-2.2741 Z0.0691
 X-2.2865 Z0.0457
 X-2.2926 Z0.0340
 X-2.2957 Z0.0281
 X-2.2972 Z0.0252
 X-2.2980 Z0.0237
 X-2.2984 Z0.0230
 X-2.2988 Z0.0222
 X-2.3019 Z0.0164
 X-2.3034 Z0.0134
 X-2.3042 Z0.0120
 X-2.3046 Z0.0112
 X-2.3049 Z0.0105
 X-2.3065 Z0.0076
 X-2.3073 Z0.0068
 X-6.3432
 Y32.1874
 X6.6856
 X6.6887 Z0.0093
 X6.7195 Z0.0359
 X7.5079 Z0.7574
 X8.2964 Z1.4367
 X9.0849 Z2.1295
 X10.6619 Z3.4243
 X11.4503 Z4.1058
 X12.2388 Z4.8098
 X13.0273 Z5.5632
 X13.8158 Z6.2019
 X14.6043 Z6.8030
 X15.3928 Z7.3580
 X16.3784 Z8.0159
 X16.4276 Z8.0483
 X16.4523 Z8.0629
 X16.4646 Z8.0696
 X16.4769 Z8.0760
 X16.5016 Z8.0877
 X16.5262 Z8.0979
 X16.5755 Z8.1138
 X16.7726 Z8.1451
 X16.9697 Z8.1907
 X17.3640 Z8.4207
 X17.4625 Z8.4938
 X17.5118 Z8.5330
 X17.5364 Z8.5532
 X17.5488 Z8.5628
 X17.5549 Z8.5674
 X17.5611 Z8.5719
 X17.6104 Z8.6047
 X17.6350 Z8.6189
 X17.6473 Z8.6254
 X17.6596 Z8.6315
 X17.7582 Z8.6664
 X18.1524 Z8.7597
 X18.5467 Z8.8539
 X18.9409 Z9.0216
 X19.0395 Z9.0673
 X19.0888 Z9.0911
 X19.1134 Z9.1046
 X19.1257 Z9.1107
 X19.1319 Z9.1136
 X19.1380 Z9.1164
 X19.3352 Z9.1587
 X19.7294 Z9.2022
 X19.9265 Z9.2240
 X20.0251 Z9.2392
 X20.0744 Z9.2473
 X20.0990 Z9.2504
 X20.1236 Z9.2519
 X20.9121 Z9.1041
 X22.3659 Z8.7938
 X22.3782 Z8.7913
 X22.3905 Z8.7888
 X22.4891 Z8.7554
 X23.2776 Z8.3609
 X24.0660 Z7.9143
 X24.8545 Z7.3956
 X25.6430 Z6.8343
 X26.4315 Z6.2077
 X27.2200 Z5.5791
 X28.0084 Z4.8771
 X28.7969 Z4.1934
 X29.5854 Z3.4912
 X30.3739 Z2.7915
 X31.1624 Z2.1052
 X31.9508 Z1.3737
 X32.7393 Z0.7266
 X33.1336 Z0.4029
 X33.2321 Z0.3132
 X33.2814 Z0.2663
 X33.3307 Z0.2195
 X33.5278 Z0.0691
 X34.3163 Z0.0068
 X46.5904
G0 Z35.0000
 X37.8405 Y34.6347
G1 Z0.0068
 X2.4480
G0 Z35.0000
M5 (stop spindle)
G04 P3 (wait for 3 seconds)
G0 Z35.0000
M2 (end program)
