;PYCAM-META-DATA: Filename: /home/abarry/MIT/RLG/robotlib3/robots/Plane/CAD/Rev3/CAM/cameraCowlForCAM3-no-deephole.STL
;PYCAM-META-DATA: Timestamp: 2012-01-29 22:57:40.719482
;PYCAM-META-DATA: Version: 0.5.1
;Estimated machine time: 7 minutes
G40 (disable tool radius compensation)
G49 (disable tool length compensation)
G80 (cancel modal motion)
G54 (select coordinate system 1)
G90 (disable incremental moves)
G21 (metric)
G64 (continuous mode with maximum speed)
F152.00000
S1000.00000
;PYCAM_TOOLPATH_SETTINGS: START
;[Bounds]
;maxz = 31.75684
;maxx = 41.113800223
;maxy = 29.9634812087
;minx = -0.866522453
;miny = 0.1492267043
;minz = 0.0068379
;
;[Tool]
;torus_radius = 0.25
;speed = 1000.0
;shape = CylindricalCutter
;tool_radius = 3.15
;feedrate = 152.0
;
;[Process]
;engrave_offset = 0.0
;step_down = 3.0
;generator = DropCutter
;postprocessor = PathAccumulator
;overlap_percent = 20
;milling_style = ignore
;material_allowance = 0.01
;pocketing_type = none
;path_direction = x
;
;PYCAM_TOOLPATH_SETTINGS: END
T2 M6
G0 Z35.0000
M3 (start spindle)
G04 P3 (wait for 3 seconds)
 X-0.8665 Y0.1492
G1 Z1.9206
 X-0.4778 Z2.4501
 X-0.0891 Z2.9192
 X0.6883 Z3.7291
 X1.4657 Z4.5358
 X2.2431 Z5.3765
 X3.0205 Z6.2004
 X3.7980 Z7.0880
 X4.5754 Z8.0196
 X5.3528 Z8.9575
 X6.1302 Z9.9312
 X6.9076 Z10.9631
 X7.6850 Z12.0238
 X8.4624 Z13.1522
 X9.2399 Z14.2622
 X10.0173 Z15.4965
 X10.7947 Z16.7356
 X11.5721 Z18.0723
 X12.3495 Z19.3874
 X13.1269 Z20.7704
 X13.9043 Z22.2311
 X14.6817 Z23.6307
 X15.4592 Z24.9679
 X16.2366 Z26.3414
 X16.6253 Z26.8972
 X16.8196 Z27.1977
 X16.9168 Z27.3575
 X16.9654 Z27.4515
 X16.9897 Z27.4967
 X17.0140 Z27.5408
 X17.7914 Z28.5168
 X18.1801 Z28.9235
 X18.3745 Z29.1336
 X18.4230 Z29.1804
 X18.4352 Z29.1912
 X18.4413 Z29.1965
 X18.4443 Z29.1991
 X18.4458 Z29.2004
 X18.4466 Z29.2010
 X18.4470 Z29.2014
 X18.4473 Z29.2017
 X18.4534 Z29.2068
 X18.4565 Z29.2093
 X18.4580 Z29.2106
 X18.4587 Z29.2112
 X18.4591 Z29.2115
 X18.4593 Z29.2116
 X18.4595 Z29.2118
 X18.4625 Z29.2143
 X18.4640 Z29.2155
 X18.4648 Z29.2161
 X18.4652 Z29.2164
 X18.4654 Z29.2166
 X18.4655
 X18.4656 Z29.2167
 X18.4671 Z29.2179
 X18.4678 Z29.2624
 X18.5688 Z29.3452
 X18.6660 Z29.4536
 X18.7146 Z29.5020
 X18.7389 Z29.5244
 X18.7632 Z29.5454
 X18.8118 Z29.5835
 X18.8360 Z29.6005
 X18.8482 Z29.6085
 X18.8603 Z29.6161
 X18.9575 Z29.6636
 X19.0547 Z29.7409
 X19.0790 Z29.7593
 X19.1033 Z29.7760
 X19.1276 Z29.7911
 X19.1397 Z29.7981
 X19.1458 Z29.8014
 X19.1519 Z29.8046
 X19.2005 Z29.8265
 X19.2248 Z29.8349
 X19.2490 Z29.8417
 X19.3462 Z29.8651
 X19.5406 Z29.9079
 X19.7349 Z29.9400
 X19.9293 Z29.9655
 X20.1236 Z29.9731
 X20.3180 Z29.9967
 X20.3423 Z29.9953
 X20.3544 Z29.9941
 X20.3605 Z29.9936
 X20.3635 Z29.9933
 X20.3651 Z29.9932
 X20.3658 Z29.9931
 X20.3666 Z29.9930
 X20.3787 Z29.9914
 X20.3848 Z29.9905
 X20.3878 Z29.9900
 X20.3894 Z29.9897
 X20.3901 Z29.9896
 X20.3905 Z29.9895
 X20.3907
 X20.3908
 X20.3909
 X20.3969 Z29.9883
 X20.3985 Z29.9880
 X20.3992 Z29.9879
 X20.3996 Z29.9878
 X20.3998
 X20.3999 Z29.9877
 X20.4000
 X20.4015 Z29.9874
 X20.4023 Z29.9872
 X20.4026 Z30.0063
 X20.5123 Z29.9829
 X20.7067 Z29.9714
 X20.7310 Z29.9740
 X20.7553 Z29.9749
 X20.7796 Z29.9741
 X20.7917 Z29.9730
 X20.7978 Z29.9723
 X20.8039 Z29.9715
 X20.8282 Z29.9673
 X20.8525 Z29.9614
 X20.8768 Z29.9538
 X20.9011 Z29.9446
 X21.0954 Z29.8464
 X21.1926 Z29.7920
 X21.2898 Z29.7310
 X21.3869 Z29.6438
 X21.4112 Z29.6178
 X21.4234 Z29.6042
 X21.4295 Z29.5972
 X21.4325 Z29.5937
 X21.4340 Z29.5919
 X21.4348 Z29.5910
 X21.4351 Z29.5906
 X21.4355 Z29.5902
 X21.4841 Z29.5614
 X21.5327 Z29.5364
 X21.5570 Z29.5217
 X21.5813 Z29.5055
 X21.6785 Z29.4267
 X22.4559 Z28.5866
 X22.8446 Z28.1384
 X22.9418 Z28.0341
 X22.9904 Z27.9830
 X23.0389 Z27.9264
 X23.2333 Z27.6475
 X24.0107 Z26.3533
 X24.7881 Z25.0707
 X25.5655 Z23.7120
 X26.3429 Z22.2932
 X27.1204 Z20.8970
 X27.8978 Z19.5170
 X28.6752 Z18.1625
 X29.4526 Z16.7987
 X30.2300 Z15.5828
 X31.0074 Z14.3637
 X31.7848 Z13.1471
 X32.5623 Z12.0517
 X33.3397 Z10.9455
 X34.1171 Z9.9466
 X34.8945 Z8.9236
 X35.6719 Z8.0291
 X36.4493 Z7.0673
 X37.2267 Z6.1772
 X38.0041 Z5.3181
 X38.7816 Z4.5242
 X39.5590 Z3.7181
 X39.9477 Z3.3272
 X40.1420 Z3.1346
 X40.3364 Z2.9265
 X41.1138 Z1.9268
G0 Z35.0000
 Y5.1183
G1 Z7.2438
 X40.3364 Z9.5847
 X39.5590 Z11.8914
 X38.7816 Z14.1168
 X38.0041 Z16.2943
 X37.2267 Z18.3141
 X36.4493 Z20.1890
 X35.6719 Z21.9267
 X34.8945 Z23.5273
 X34.1171 Z24.9840
 X33.3397 Z26.4777
 X32.5623 Z28.0828
 X31.7848 Z29.7725
 X31.3961 Z30.6947
 X31.2018 Z31.1662
 X31.1046 Z31.3961
 X31.0560 Z31.5231
 X30.9619 Z31.7543
G0 Z35.0000
 X30.9588
G1 Z31.7391
 X30.9558 Z31.7461
 X30.9543 Z31.7497
 X30.9535 Z31.7514
 X30.9531 Z31.7523
 X30.9529 Z31.7530
 X30.9528 Z31.7532
 X30.9512 Z31.7568
 X9.3811
 X9.3803 Z31.7564
 X9.3795 Z31.7546
 X9.3765 Z31.7474
 X9.3750 Z31.7438
 X9.3738 Z31.7411
 X9.3735 Z31.7402
G0 Z35.0000
 X9.3704
G1 Z31.7547
 X9.2399 Z31.4378
 X8.4624 Z29.6390
 X7.6850 Z27.9358
 X6.9076 Z26.3577
 X6.1302 Z24.8850
 X5.3528 Z23.4241
 X4.5754 Z21.8219
 X3.7980 Z20.0847
 X3.0205 Z18.2122
 X2.2431 Z16.1966
 X1.4657 Z14.0600
 X0.6883 Z11.8350
 X-0.0891 Z9.5548
 X-0.8665 Z7.1948
G0 Z35.0000
 Y10.0873
G1 Z7.9878
 X0.6883 Z13.3142
 X1.4657 Z15.9654
 X2.2431 Z18.5747
 X3.0205 Z21.1259
 X3.7980 Z23.6664
 X4.5754 Z26.1201
 X5.3528 Z28.5391
 X6.1302 Z30.9195
 X6.3246 Z31.5186
 X6.4005 Z31.7526
G0 Z35.0000
 X6.4035
G1 Z31.7186
 X6.4050 Z31.7232
 X6.4058 Z31.7254
 X6.4062 Z31.7568
 X13.4670
 X13.5156 Z31.6711
 X13.9043 Z30.9392
 X14.6817 Z29.4687
 X15.4592 Z28.0398
 X16.2366 Z26.6151
 X17.0140 Z25.2195
 X17.7914 Z23.9117
 X18.1801 Z23.3006
 X18.3745 Z23.0142
 X18.5688 Z22.7609
 X18.7632 Z22.5205
 X18.9575 Z22.2992
 X19.0532 Z22.1993
 X19.0539 Z22.2001
 X19.0547
 X19.1033 Z22.1362
 X19.1761 Z22.0510
 Z22.0509
 X19.1762
 X19.1777 Z22.0862
 X19.4313 Z21.8462
 X19.4434 Z21.8401
 X19.9293 Z21.6265
 X20.0265 Z21.6083
 X20.0508 Z21.6033
 X20.0751 Z21.5986
 X20.1236 Z21.5936
 X20.1358 Z21.5813
 X20.1479 Z21.5777
 X20.1601 Z21.5740
 X20.1662 Z21.5722
 X20.1692 Z21.5712
 X20.1707 Z21.5707
 X20.1715 Z21.5705
 X20.1718 Z21.5704
 X20.1720 Z21.5703
 X20.1721
 X20.1722
 X20.1965 Z21.5763
 X20.3180 Z21.6090
 X20.3666 Z21.6189
 X20.3909 Z21.6241
 X20.4030 Z21.6263
 X20.4091 Z21.6273
 X20.4152 Z21.6282
 X20.4395 Z21.6311
 X20.4455 Z21.6317
 X20.4486 Z21.6319
 X20.4501 Z21.6320
 X20.4516 Z21.6324
 X20.4881 Z21.6435
 X20.5123 Z21.6584
 X20.5609 Z21.6917
 X20.5852 Z21.7112
 X20.6095 Z21.7281
 X20.6338 Z21.7429
 X20.6581 Z21.7559
 X20.6824 Z21.7671
 X20.6946 Z21.7722
 X20.7006 Z21.7745
 X20.7037 Z21.7757
 X20.7067 Z21.7768
 X20.7188 Z21.7812
 X20.7249 Z21.7832
 X20.7280 Z21.7842
 X20.7295 Z21.7847
 X20.7310 Z21.7852
 X20.7371 Z21.7871
 X20.7386 Z21.7875
 X20.7393 Z21.7878
 X20.7401 Z21.7882
 X20.7796 Z21.8142
 X20.8039 Z21.8372
 X20.9011 Z21.9262
 X21.0954 Z22.0957
 X21.1926 Z22.1816
 X21.1941 Z22.1836
 X21.1949 Z22.2020
 X21.2898 Z22.2771
 X21.6785 Z22.7815
 X22.0672 Z23.2952
 X22.4559 Z23.8460
 X23.2333 Z25.1477
 X24.0107 Z26.5220
 X24.7881 Z27.9525
 X25.5655 Z29.3813
 X25.9542 Z30.0965
 X26.1486 Z30.4412
 X26.2458 Z30.6288
 X26.6345 Z31.3591
 X26.6831 Z31.4558
 X26.7074 Z31.4969
 X26.7195 Z31.5170
 X26.7256 Z31.5269
 X26.7286 Z31.5318
 X26.7301 Z31.5343
 X26.7317 Z31.5367
 X26.7802 Z31.6238
 X26.8501 Z31.7544
G0 Z35.0000
 X26.8531
G1 Z31.7439
 X26.8546 Z31.7468
 X26.8554 Z31.7568
 X33.9227
 X34.1171 Z31.1798
 X34.8945 Z28.7744
 X35.6719 Z26.3064
 X36.4493 Z23.8467
 X37.2267 Z21.2811
 X38.0041 Z18.7130
 X38.7816 Z16.0871
 X39.5590 Z13.4581
 X40.3364 Z10.8024
 X41.1138 Z8.0679
G0 Z35.0000
 Y15.0564
G1 Z8.3979
 X40.3364 Z11.2503
 X39.5590 Z14.1026
 X38.7816 Z16.9562
 X38.0041 Z19.8067
 X37.2267 Z22.6585
 X36.4493 Z25.5049
 X34.8459 Z31.3669
 X34.7396 Z31.7555
 X34.7381 Z31.7568
 X28.4171
 X28.4140 Z31.7493
 X28.3837 Z31.6785
 X28.2865 Z31.4542
 X27.8978 Z30.5297
 X27.1204 Z28.5762
 X26.3429 Z26.4128
 X25.5655 Z23.7769
 X25.1768 Z22.0791
 X25.0796 Z21.5749
 X25.0311 Z21.2745
 X24.9627 Z20.8389
 X24.9620 Z20.8348
 X15.4592
 X14.6817 Z23.8507
 X13.9043 Z26.5104
 X13.1269 Z28.7048
 X12.7382 Z29.7101
 X12.5439 Z30.1953
 X12.4467 Z30.4553
 X12.3495 Z30.6892
 X12.1552 Z31.1652
 X12.0580 Z31.3824
 X12.0094 Z31.4972
 X11.9851 Z31.5540
 X11.9729 Z31.5822
 X11.9669 Z31.5963
 X11.9638 Z31.6033
 X11.9623 Z31.6069
 X11.9616 Z31.6086
 X11.9612 Z31.6095
 X11.9608 Z31.6104
 X11.9365 Z31.6664
 X11.9244 Z31.6943
 X11.9183 Z31.7082
 X11.9152 Z31.7151
 X11.9137 Z31.7186
 X11.9130 Z31.7204
 X11.9126 Z31.7212
 X11.9124 Z31.7217
 X11.9122 Z31.7221
 X11.9061 Z31.7359
 X11.9031 Z31.7429
 X11.9016 Z31.7463
 X11.9008 Z31.7481
 X11.9004 Z31.7489
 X11.9003 Z31.7494
 X11.9001 Z31.7498
 X11.8985 Z31.7532
 X11.8978 Z31.7550
 X11.8974 Z31.7558
 X11.8972 Z31.7563
 X11.8971 Z31.7568
 X5.5714
 X5.5471 Z31.6737
 X5.3528 Z30.9666
 X4.5754 Z28.1369
 X3.7980 Z25.3055
 X3.0205 Z22.4746
 X2.2431 Z19.6460
 X1.4657 Z16.8172
 X0.6883 Z13.9882
 X-0.0891 Z11.1591
 X-0.8665 Z8.3298
G0 Z35.0000
 Y20.0254
G1 Z7.9942
 X-0.0891 Z10.7028
 X0.6883 Z13.3285
 X1.4657 Z15.9292
 X2.2431 Z18.4918
 X3.0205 Z21.0357
 X3.7980 Z23.5270
 X4.5754 Z25.9604
 X5.3528 Z28.3848
 X5.7415 Z29.5601
 X5.9358 Z30.1360
 X6.0330 Z30.4201
 X6.0816 Z30.5613
 X6.1059 Z30.6316
 X6.1181 Z30.6668
 X6.1241 Z30.6843
 X6.1302 Z30.7018
 X6.3246 Z31.2579
 X6.4217 Z31.5322
 X6.4460 Z31.6017
 X6.4582 Z31.6367
 X6.4642 Z31.6541
 X6.4673 Z31.6629
 X6.4688 Z31.6672
 X6.4703 Z31.6716
 X6.4825 Z31.7065
 X6.4885 Z31.7240
 X6.4916 Z31.7327
 X6.4931 Z31.7370
 X6.4942 Z31.7403
 X6.4946 Z31.7414
 X6.4976 Z31.7501
 X6.4992 Z31.7545
 X6.4999 Z31.7568
 X13.6734
 X13.6735 Z31.7567
 X13.6796 Z31.7456
 X13.6857 Z31.7344
 X13.7100 Z31.6884
 X13.9043 Z31.3005
 X14.6817 Z29.8498
 X15.4592 Z28.4067
 X16.2366 Z26.9331
 X17.0140 Z25.5136
 X17.7914 Z24.1589
 X18.1801 Z23.5520
 X18.5688 Z23.0093
 X18.7632 Z22.7514
 X18.8603 Z22.6175
 X18.9575 Z22.4938
 X19.1519 Z22.2869
 X19.2490 Z22.1847
 X19.3462 Z22.0705
 X19.4434 Z21.9974
 X19.4920 Z21.9535
 X19.5406 Z21.9159
 X19.5892 Z21.8896
 X19.6135 Z21.8799
 X19.6256 Z21.8744
 X19.6317 Z21.8716
 X19.6378 Z21.8685
 X19.6620 Z21.8553
 X19.6742 Z21.8478
 X19.6863 Z21.8398
 X19.7106 Z21.8217
 X19.7228 Z21.8115
 X19.7289 Z21.8062
 X19.7319 Z21.8034
 X19.7334 Z21.8020
 X19.7349 Z21.8006
 X19.7471 Z21.7886
 X19.7501 Z21.7855
 X19.7516 Z21.7839
 X19.7524 Z21.7831
 X19.7528 Z21.7827
 X19.7532 Z21.7823
 X19.7592 Z21.7776
 X19.7699 Z21.7695
 X19.7714 Z21.7688
 X19.8200 Z21.7509
 X19.8321 Z21.7495
 X19.8564 Z21.7476
 X19.8807 Z21.7445
 X19.9293 Z21.7344
 X19.9779 Z21.7225
 X20.0993 Z21.6844
 X20.1236 Z21.6995
 X20.3180 Z21.7628
 X20.4152 Z21.7959
 X20.5123 Z21.8377
 X20.8403 Z22.0027
 X20.8418 Z21.9924
 X20.9011 Z22.0391
 X21.2898 Z22.4697
 X21.6785 Z22.9740
 X22.4559 Z24.1726
 X23.2333 Z25.4886
 X24.0107 Z26.8586
 X24.7881 Z28.2999
 X25.5655 Z29.7334
 X25.9542 Z30.4529
 X26.1486 Z30.8104
 X26.2458 Z30.9886
 X26.2944 Z31.0776
 X26.3187 Z31.1237
 X26.3429 Z31.1681
 X26.5373 Z31.5247
 X26.5859 Z31.6166
 X26.6102 Z31.6627
 X26.6284 Z31.6973
 X26.6466 Z31.7319
 X26.6542 Z31.7464
 X26.6550 Z31.7568
 X33.7284
 X34.1171 Z30.8660
 X34.8945 Z28.5535
 X35.6719 Z26.1419
 X36.4493 Z23.7158
 X37.2267 Z21.1951
 X38.0041 Z18.6489
 X38.7816 Z16.0487
 X39.5590 Z13.3958
 X40.3364 Z10.7153
 X41.1138 Z8.0360
G0 Z35.0000
 Y24.9944
G1 Z7.2433
 X40.3364 Z9.5979
 X39.5590 Z11.8817
 X38.7816 Z14.0961
 X38.0041 Z16.2052
 X37.2267 Z18.1647
 X36.4493 Z19.9742
 X35.6719 Z21.6401
 X34.8945 Z23.1612
 X34.1171 Z24.5352
 X33.3397 Z26.0094
 X32.5623 Z27.5567
 X31.7848 Z29.2096
 X31.3961 Z30.1126
 X31.2018 Z30.5569
 X31.1046 Z30.7771
 X31.0560 Z30.8881
 X31.0074 Z31.0032
 X30.8131 Z31.4704
 X30.6962 Z31.7556
G0 Z35.0000
 X30.6946
G1 Z31.7465
 X30.6931 Z31.7568
 X9.6286
 X9.2399 Z30.8519
 X8.4624 Z29.1075
 X7.6850 Z27.4232
 X6.9076 Z25.8992
 X6.1302 Z24.4372
 X5.3528 Z23.0652
 X4.5754 Z21.5414
 X3.7980 Z19.8750
 X3.0205 Z18.0670
 X2.2431 Z16.1109
 X1.4657 Z13.9903
 X0.6883 Z11.7837
 X-0.0891 Z9.4978
 X-0.8665 Z7.1799
G0 Z35.0000
 Y29.9635
G1 Z1.8782
 X-0.4778 Z2.3911
 X-0.0891 Z2.8422
 X0.6883 Z3.6013
 X1.4657 Z4.3885
 X2.2431 Z5.1477
 X3.0205 Z5.9810
 X3.7980 Z6.8225
 X4.5754 Z7.7182
 X5.3528 Z8.6079
 X6.1302 Z9.5813
 X6.9076 Z10.5225
 X7.6850 Z11.5769
 X8.4624 Z12.6244
 X9.2399 Z13.7674
 X10.0173 Z14.8795
 X10.7947 Z16.0345
 X11.5721 Z17.2873
 X12.3495 Z18.5167
 X13.1269 Z19.7557
 X13.9043 Z21.0213
 X14.6817 Z22.3061
 X15.4592 Z23.4792
 X16.2366 Z24.6239
 X16.6253 Z25.1917
 X16.8196 Z25.4662
 X16.9168 Z25.6267
 X16.9654 Z25.7000
 X17.0140 Z25.7686
 X17.7914 Z26.5885
 X18.1801 Z26.9701
 X18.2773 Z27.0823
 X18.3259 Z27.1315
 X18.3502 Z27.1543
 X18.3623 Z27.1653
 X18.3745 Z27.1759
 X18.5688 Z27.3040
 X18.9029 Z27.5189
 X18.9089 Z27.5232
 X18.9332 Z27.5456
 X18.9454 Z27.5562
 X18.9575 Z27.5665
 X19.0061 Z27.6035
 X19.0304 Z27.6198
 X19.0547 Z27.6344
 X19.1033 Z27.6595
 X19.1519 Z27.6827
 X19.2005 Z27.7051
 X19.2248 Z27.7186
 X19.2369 Z27.7253
 X19.2490 Z27.7316
 X19.2733 Z27.7432
 X19.2976 Z27.7533
 X19.3219 Z27.7619
 X19.3462 Z27.7689
 X19.7349 Z27.8133
 X19.9293 Z27.8518
 X19.9779 Z27.8575
 X20.0022 Z27.8609
 X20.0143 Z27.8620
 X20.0204 Z27.8624
 X20.0265 Z27.8627
 X20.1236 Z27.8545
 X20.1722 Z27.8502
 X20.1965 Z27.8483
 X20.2087 Z27.8468
 X20.2208 Z27.8449
 X20.2451 Z27.8399
 X20.2694 Z27.8333
 X20.2937 Z27.8252
 X20.3058 Z27.8206
 X20.3119 Z27.8181
 X20.3150 Z27.8168
 X20.3165 Z27.8162
 X20.3172 Z27.8159
 X20.3180 Z27.8155
 X20.4152 Z27.8228
 X20.4395 Z27.8212
 X20.4516 Z27.8198
 X20.4577 Z27.8190
 X20.4607 Z27.8185
 X20.4622 Z27.8183
 X20.4630 Z27.8181
 X20.4638 Z27.8180
 X20.4759 Z27.8158
 X20.4820 Z27.8146
 X20.4850 Z27.8139
 X20.4865 Z27.8136
 X20.4873 Z27.8134
 X20.4877 Z27.8133
 X20.4879
 X20.4880
 X20.4881
 X20.4941 Z27.8118
 X20.4972 Z27.8111
 X20.4987 Z27.8107
 X20.4994 Z27.8105
 X20.4998 Z27.8104
 X20.5000 Z27.8103
 X20.5001
 X20.5002
 X20.5017 Z27.8099
 X20.5032 Z27.8305
 X20.9011 Z27.7251
 X20.9982 Z27.7082
 X21.0225 Z27.7081
 X21.0347 Z27.7075
 X21.0468 Z27.7065
 X21.0711 Z27.7033
 X21.0833 Z27.7011
 X21.0954 Z27.6985
 X21.1197 Z27.6922
 X21.1440 Z27.6843
 X21.1683 Z27.6749
 X21.1804 Z27.6696
 X21.1926 Z27.6639
 X21.2898 Z27.6046
 X21.4841 Z27.4739
 X21.6785 Z27.3547
 X22.0672 Z27.0321
 X22.4559 Z26.6696
 X22.8446 Z26.2386
 X23.0389 Z26.0567
 X23.1361 Z25.9575
 X23.2333 Z25.8452
 X24.0107 Z24.7193
 X24.7881 Z23.6206
 X25.5655 Z22.3959
 X26.3429 Z21.1524
 X27.1204 Z19.8110
 X27.8978 Z18.5672
 X28.6752 Z17.2815
 X29.4526 Z16.0925
 X30.2300 Z14.9224
 X31.0074 Z13.7352
 X31.7848 Z12.6956
 X32.5623 Z11.6453
 X33.3397 Z10.6272
 X34.1171 Z9.6089
 X34.8945 Z8.6709
 X35.6719 Z7.7543
 X36.4493 Z6.8822
 X37.2267 Z6.0256
 X38.0041 Z5.2273
 X38.7816 Z4.4174
 X39.5590 Z3.6296
 X39.9477 Z3.2575
 X40.3364 Z2.8489
 X41.1138 Z1.8840
G0 Z35.0000
M5 (stop spindle)
G04 P3 (wait for 3 seconds)
G0 Z35.0000
M2 (end program)
