;PYCAM-META-DATA: Filename: /home/abarry/MIT/RLG/robotlib3/robots/Plane/CAD/Rev3/CAM/cameraCowlForCAM3-no-deephole.STL
;PYCAM-META-DATA: Timestamp: 2012-01-23 20:45:01.129423
;PYCAM-META-DATA: Version: 0.5.1
;Estimated machine time: 10 minutes
G40 (disable tool radius compensation)
G49 (disable tool length compensation)
G80 (cancel modal motion)
G54 (select coordinate system 1)
G90 (disable incremental moves)
G21 (metric)
G64 (continuous mode with maximum speed)
F152.00000
S1000.00000
;PYCAM_TOOLPATH_SETTINGS: START
;[Bounds]
;maxz = 31.75684
;maxx = 41.473800223
;maxy = 30.3234812087
;minx = -1.226522453
;miny = -0.2107732957
;minz = 0.0068379
;
;[Tool]
;torus_radius = 0.25
;speed = 1000.0
;shape = CylindricalCutter
;tool_radius = 2.79
;feedrate = 152.0
;
;[Process]
;engrave_offset = 0.0
;step_down = 3.0
;generator = DropCutter
;postprocessor = PathAccumulator
;milling_style = climb
;material_allowance = 0.01
;pocketing_type = none
;path_direction = x
;
;PYCAM_TOOLPATH_SETTINGS: END
T1 M6
G0 Z35.0000
M3 (start spindle)
G04 P3 (wait for 3 seconds)
 X-1.2265 Y30.3235
G1 Z0.0068
 X-0.5378
 X0.1509 Z0.5834
 X0.8396 Z1.2168
 X1.5283 Z1.7897
 X2.2171 Z2.4477
 X2.9058 Z3.1110
 X3.5945 Z3.7955
 X4.2832 Z4.5259
 X4.9719 Z5.2366
 X5.6606 Z5.9988
 X6.3493 Z6.7280
 X7.0381 Z7.5439
 X7.7268 Z8.3280
 X8.4155 Z9.1742
 X9.1042 Z10.0715
 X9.7929 Z10.8900
 X10.4816 Z11.7726
 X11.1703 Z12.6726
 X11.8591 Z13.5499
 X12.5478 Z14.5296
 X13.2365 Z15.4674
 X13.9252 Z16.3801
 X14.6139 Z17.3536
 X15.3026 Z18.1835
 X15.9913 Z19.0155
 X16.3357 Z19.3916
 X16.5079 Z19.5830
 X16.5940 Z19.6832
 X16.6801 Z19.7888
 X17.3688 Z20.4348
 X17.7131 Z20.7395
 X17.7992 Z20.8282
 X17.8423 Z20.8793
 X17.8638 Z20.9029
 X17.8746 Z20.9143
 X17.8853 Z20.9253
 X17.9284 Z20.9662
 X17.9499 Z20.9847
 X17.9714 Z21.0020
 X18.0575 Z21.0580
 X18.7462 Z21.4249
 X18.9184 Z21.5349
 X18.9614 Z21.5682
 X18.9830 Z21.5828
 X18.9937 Z21.5895
 X19.0045 Z21.5960
 X19.0260 Z21.6079
 X19.0475 Z21.6183
 X19.0906 Z21.6352
 X19.4349 Z21.7177
 X19.9515 Z21.7917
 X19.9945 Z21.8054
 X20.0160 Z21.8146
 X20.0268 Z21.8188
 X20.0375 Z21.8225
 X20.0591 Z21.8290
 X20.0806 Z21.8341
 X20.1021 Z21.8378
 X20.1129 Z21.8391
 X20.1236 Z21.8400
 X20.4680 Z21.7953
 X20.6402 Z21.7664
 X21.0706 Z21.6609
 X21.1137 Z21.6528
 X21.1352 Z21.6509
 X21.1460 Z21.6495
 X21.1567 Z21.6476
 X21.3289 Z21.5717
 X21.3504 Z21.5561
 X21.3612 Z21.5477
 X21.3666 Z21.5434
 X21.3692 Z21.5413
 X21.3706 Z21.5402
 X21.3719 Z21.5391
 X21.3746 Z21.5368
 X21.3760 Z21.5357
 X21.3766 Z21.5352
 X21.3773 Z21.5346
 X21.3787 Z21.5335
 X21.3800 Z21.5328
 X21.4150 Z21.5173
 X21.4580 Z21.5098
 X21.4795 Z21.5050
 X21.5011 Z21.4990
 X21.8454 Z21.3025
 X22.1898 Z21.0904
 X22.5341 Z20.8232
 X22.6202 Z20.7713
 X22.6633 Z20.7478
 X22.6848 Z20.7343
 X22.7063 Z20.7197
 X22.8785 Z20.5663
 X23.5672 Z19.8821
 X24.2559 Z19.1454
 X24.9446 Z18.3065
 X25.6334 Z17.4226
 X26.3221 Z16.4432
 X27.0108 Z15.5573
 X27.6995 Z14.6133
 X28.3882 Z13.6263
 X29.0769 Z12.7013
 X29.7656 Z11.7821
 X30.4544 Z10.9173
 X31.1431 Z10.0086
 X31.8318 Z9.1974
 X32.5205 Z8.3817
 X33.2092 Z7.6014
 X33.8979 Z6.8005
 X34.5867 Z6.0284
 X35.2754 Z5.2941
 X35.9641 Z4.5811
 X36.6528 Z3.8289
 X37.3415 Z3.1645
 X38.0302 Z2.4755
 X38.7189 Z1.8537
 X39.4077 Z1.2150
 X40.6990 Z0.0276
 X40.7098 Z0.0189
 X40.7151 Z0.0149
 X40.7178 Z0.0128
 X40.7192 Z0.0118
 X40.7198 Z0.0113
 X40.7202 Z0.0111
 X40.7204 Z0.0109
 X40.7205 Z0.0108
 X40.7232 Z0.0088
 X40.7246 Z0.0077
 X40.7252 Z0.0072
 X40.7256 Z0.0070
 X40.7257 Z0.0069
 X40.7259 Z0.0068
 X41.4738
G0 Z35.0000
 X-1.2265 Y25.9614
G1 Z4.8364
 X-0.5378 Z6.8958
 X0.1509 Z8.9210
 X0.8396 Z10.8188
 X1.5283 Z12.5684
 X2.2171 Z14.1856
 X2.9058 Z15.6771
 X3.5945 Z17.0427
 X4.2832 Z18.2752
 X4.9719 Z19.3595
 X5.6606 Z20.4449
 X6.3493 Z21.6021
 X7.0381 Z22.8121
 X7.7268 Z24.0732
 X8.4155 Z25.4351
 X9.1042 Z26.8464
 X9.7929 Z28.3673
 X10.4816 Z29.9905
 X10.8260 Z30.8129
 X10.9982 Z31.2351
 X11.2026 Z31.7436
G0 Z35.0000
 X11.2134
G1 Z31.7568
 X29.0769
 X29.7656 Z30.1540
 X30.4544 Z28.5033
 X31.1431 Z27.0028
 X31.8318 Z25.5469
 X32.5205 Z24.1773
 X33.2092 Z22.9100
 X33.8979 Z21.6971
 X34.5867 Z20.5416
 X35.2754 Z19.4445
 X35.9641 Z18.3439
 X36.6528 Z17.1145
 X37.3415 Z15.7497
 X38.0302 Z14.2571
 X38.7189 Z12.6371
 X39.4077 Z10.8828
 X40.0964 Z8.9784
 X40.7851 Z6.9730
 X41.4738 Z4.8975
G0 Z35.0000
 X-1.2265 Y21.5994
G1 Z5.3726
 X-0.5378 Z7.6851
 X0.1509 Z9.9302
 X0.8396 Z12.1996
 X1.5283 Z14.3966
 X2.2171 Z16.5866
 X2.9058 Z18.7131
 X3.5945 Z20.7978
 X4.2832 Z22.8649
 X4.9719 Z24.8434
 X5.6606 Z26.7644
 X6.3493 Z28.5800
 X6.6937 Z29.4964
 X6.8659 Z29.9330
 X7.0381 Z30.3872
 X7.2102 Z30.8083
 X7.2963 Z31.0093
 X7.3824 Z31.2240
 X7.4685 Z31.4103
 X7.5115 Z31.5135
 X7.5331 Z31.5650
 X7.5438 Z31.5906
 X7.5492 Z31.6035
 X7.5519 Z31.6099
 X7.5532 Z31.6131
 X7.5539 Z31.6147
 X7.5546 Z31.6163
 X7.5761 Z31.6675
 X7.5869 Z31.6931
 X7.5923 Z31.7059
 X7.5949 Z31.7122
 X7.5976 Z31.7186
 X7.6030 Z31.7314
 X7.6057 Z31.7378
 X7.6071 Z31.7410
 X7.6077 Z31.7426
 X7.6083 Z31.7439
 X7.6084 Z31.7441
 X7.6111 Z31.7505
 X7.6124 Z31.7537
 X7.6131 Z31.7553
 X7.6134 Z31.7561
 X7.6136 Z31.7568
 X14.6139
 X15.3026 Z30.9048
 X15.9913 Z29.9190
 X16.6801 Z29.0013
 X17.0244 Z28.5900
 X17.3688 Z28.1987
 X17.7131 Z27.8414
 X18.0575 Z27.5362
 X18.4019 Z27.2487
 X18.5740 Z27.1185
 X18.6601 Z27.0610
 X18.7462 Z27.0077
 X18.9184 Z26.9054
 X19.0489 Z26.8403
 X19.0502 Z26.8364
 X19.0516 Z26.8357
 X19.0529 Z26.8350
 X19.0583 Z26.8322
 X19.0637 Z26.8293
 X19.0690 Z26.8264
 X19.0906 Z26.8148
 X19.2627 Z26.7397
 X19.4000 Z26.6964
 X19.4013 Z26.6883
 X19.4026 Z26.6878
 X19.4080 Z26.6860
 X19.4134 Z26.6841
 X19.4349 Z26.6763
 X19.6071 Z26.6254
 X19.6501 Z26.6180
 X19.7699 Z26.6024
 X19.7712 Z26.5916
 X19.7726 Z26.5914
 X19.7739 Z26.5912
 X19.7793 Z26.5904
 X19.8223 Z26.5827
 X19.8438 Z26.5780
 X19.8492 Z26.5767
 X19.8519 Z26.5760
 X19.8533 Z26.5757
 X19.8539 Z26.5755
 X19.8546 Z26.5753
 X19.8654 Z26.5742
 X20.0375 Z26.5612
 X20.1236 Z26.5687
 X20.1680 Z26.5712
 X20.1687 Z26.5597
 X20.1694 Z26.5598
 X20.1721 Z26.5599
 X20.1748 Z26.5600
 X20.1774 Z26.5601
 X20.1882 Z26.5605
 X20.2097 Z26.5610
 X20.2528 Z26.5603
 X20.2958 Z26.5632
 X20.3819 Z26.5732
 X20.4680 Z26.5872
 X20.6402 Z26.6184
 X20.7263 Z26.6374
 X20.8124 Z26.6638
 X20.9845 Z26.7289
 X21.0995 Z26.7776
 X21.0999 Z26.7726
 X21.1002 Z26.7727
 X21.1029 Z26.7739
 X21.1137 Z26.7785
 X21.1567 Z26.7962
 X21.3289 Z26.8806
 X21.5011 Z26.9821
 X21.8454 Z27.2113
 X22.1898 Z27.4870
 X22.8785 Z28.1534
 X23.5672 Z28.9320
 X24.2559 Z29.8247
 X24.9446 Z30.7810
 X25.2890 Z31.2781
 X25.4612 Z31.5389
 X25.5997 Z31.7473
 X25.6004 Z31.7568
 X32.6927
 X32.7788 Z31.5852
 X32.8649 Z31.3748
 X33.2092 Z30.5317
 X33.8979 Z28.7335
 X34.5867 Z26.8874
 X35.2754 Z24.9838
 X35.9641 Z23.0146
 X36.6528 Z20.9908
 X37.3415 Z18.8748
 X38.0302 Z16.7252
 X38.7189 Z14.5313
 X39.4077 Z12.2883
 X40.0964 Z9.9961
 X40.7851 Z7.7108
 X41.4738 Z5.3600
G0 Z35.0000
 X-1.2265 Y17.2374
G1 Z5.6381
 X-0.5378 Z8.1135
 X0.1509 Z10.6354
 X0.8396 Z13.0988
 X1.5283 Z15.5683
 X2.2171 Z18.0264
 X2.9058 Z20.4761
 X3.5945 Z22.9164
 X4.2832 Z25.3424
 X4.9719 Z27.7363
 X5.3163 Z28.9323
 X5.4884 Z29.5224
 X5.5745 Z29.8190
 X5.6606 Z30.1152
 X5.8328 Z30.7108
 X5.9189 Z31.0097
 X5.9835 Z31.2338
 X5.9942 Z31.2714
 X5.9996 Z31.2903
 X6.0023 Z31.2998
 X6.0036 Z31.3045
 X6.0050 Z31.3092
 X6.0911 Z31.6088
 X6.1126 Z31.6829
 X6.1234 Z31.7199
 X6.1287 Z31.7383
 X6.1314 Z31.7476
 X6.1328 Z31.7568
 X11.8591
 X12.5478 Z30.1307
 X13.2365 Z28.4288
 X13.9252 Z26.5600
 X14.6139 Z24.4128
 X14.9583 Z23.1129
 X15.1305 Z22.3599
 X15.2165 Z21.9373
 X15.2919 Z21.5416
 X15.2973 Z21.5175
 X15.3013
 X15.3020 Z21.4906
 X15.3847 Z21.0048
 X15.3854 Z20.9716
 X15.4022 Z20.8674
 X15.4035 Z20.8595
 X15.4042 Z20.8558
 X15.4045 Z20.8539
 X15.4049 Z20.8520
 X15.4062 Z20.8444
 X15.4069 Z20.8406
 X15.4072 Z20.8387
 X15.4074 Z20.8378
 X15.4075 Z20.8373
 X15.4076 Z20.8368
 X15.4089 Z20.8348
 X24.7725
 X24.9446 Z21.4863
 X25.6334 Z24.3097
 X26.3221 Z26.4695
 X27.0108 Z28.3037
 X27.6995 Z29.9940
 X28.0439 Z30.8062
 X28.3452 Z31.4962
 X28.3667 Z31.5412
 X28.3775 Z31.5657
 X28.3828 Z31.5779
 X28.3855 Z31.5841
 X28.3869 Z31.5871
 X28.3875 Z31.5886
 X28.3882 Z31.5902
 X28.4313 Z31.6872
 X28.4420 Z31.7113
 X28.4474 Z31.7233
 X28.4501 Z31.7293
 X28.4514 Z31.7323
 X28.4521 Z31.7338
 X28.4524 Z31.7346
 X28.4526 Z31.7349
 X28.4528 Z31.7353
 X28.4541 Z31.7383
 X28.4548 Z31.7398
 X28.4551 Z31.7406
 X28.4553 Z31.7409
 X28.4555 Z31.7413
 X28.4568 Z31.7568
 X34.1562
 X34.2423 Z31.5525
 X35.2754 Z27.9396
 X35.9641 Z25.5302
 X36.6528 Z23.0984
 X37.3415 Z20.6346
 X38.0302 Z18.1497
 X38.7189 Z15.6937
 X39.4077 Z13.2044
 X40.0964 Z10.7227
 X40.7851 Z8.1793
 X41.4738 Z5.6838
G0 Z35.0000
 X-1.2265 Y12.8753
G1 Z5.6393
 X-0.5378 Z8.1173
 X0.1509 Z10.6305
 X0.8396 Z13.1114
 X1.5283 Z15.5833
 X2.2171 Z18.0256
 X3.5945 Z22.9524
 X4.2832 Z25.4191
 X4.9719 Z27.8466
 X5.3163 Z29.0513
 X5.4884 Z29.6437
 X5.5745 Z29.9451
 X5.6176 Z30.0957
 X5.6606 Z30.2463
 X5.8328 Z30.8480
 X5.9189 Z31.1485
 X5.9619 Z31.2987
 X5.9835 Z31.3738
 X5.9942 Z31.4113
 X6.0023 Z31.4395
 X6.0050 Z31.4488
 X6.0480 Z31.5989
 X6.0696 Z31.6739
 X6.0803 Z31.7114
 X6.0884 Z31.7396
 X6.0924 Z31.7536
 X6.0938 Z31.7568
 X11.7730
 X11.8591 Z31.5864
 X12.5478 Z29.9821
 X13.2365 Z28.2741
 X13.9252 Z26.4127
 X14.6139 Z24.2673
 X14.9583 Z23.0445
 X15.1305 Z22.2950
 X15.2165 Z21.9122
 X15.2596 Z21.7165
 X15.2811 Z21.5909
 X15.2919 Z21.5186
 X15.2973 Z21.4959
 X15.2999 Z21.4843
 X15.3013 Z21.4784
 X15.3020 Z21.4755
 X15.3026 Z21.4725
 X15.3457 Z21.2543
 X15.3672 Z21.1044
 X15.3780 Z21.0401
 X15.4143 Z20.8368
 X15.4150 Z20.8348
 X24.7725
 X24.9446 Z21.4220
 X25.6334 Z24.2265
 X26.3221 Z26.3179
 X27.0108 Z28.1578
 X27.6995 Z29.8338
 X28.0439 Z30.6497
 X28.5362 Z31.7526
 X28.5375 Z31.7568
 X34.2315
 X34.2423 Z31.7296
 X34.5867 Z30.5238
 X35.2754 Z28.0897
 X35.9641 Z25.6254
 X36.6528 Z23.1605
 X37.3415 Z20.6784
 X38.0302 Z18.2080
 X38.7189 Z15.7090
 X39.4077 Z13.2172
 X40.0964 Z10.7198
 X40.7851 Z8.1832
 X41.4738 Z5.6850
G0 Z35.0000
 X-1.2265 Y8.5133
G1 Z5.3242
 X-0.5378 Z7.6593
 X0.1509 Z9.9267
 X0.8396 Z12.2253
 X1.5283 Z14.4526
 X2.2171 Z16.6710
 X2.9058 Z18.8276
 X3.5945 Z20.9529
 X4.2832 Z23.0158
 X4.9719 Z25.0171
 X5.6606 Z26.9571
 X6.3493 Z28.8343
 X7.2102 Z31.1010
 X7.2963 Z31.3070
 X7.3394 Z31.4172
 X7.3609 Z31.4720
 X7.3717 Z31.4993
 X7.3770 Z31.5130
 X7.3797 Z31.5198
 X7.3811 Z31.5232
 X7.3817 Z31.5250
 X7.3824 Z31.5267
 X7.4255 Z31.6356
 X7.4470 Z31.6898
 X7.4577 Z31.7168
 X7.4631 Z31.7303
 X7.4658 Z31.7371
 X7.4672 Z31.7405
 X7.4678 Z31.7421
 X7.4682 Z31.7430
 X7.4685 Z31.7438
 X7.4712 Z31.7506
 X7.4725 Z31.7568
 X14.3987
 X14.4417 Z31.7044
 X14.6139 Z31.4425
 X15.3026 Z30.3992
 X15.9913 Z29.4331
 X16.6801 Z28.5411
 X17.3688 Z27.7550
 X17.7131 Z27.4027
 X17.8853 Z27.2390
 X18.0575 Z27.0849
 X18.4019 Z26.8155
 X18.5740 Z26.6894
 X18.6601 Z26.6317
 X18.7462 Z26.5770
 X18.9184 Z26.4794
 X19.0906 Z26.3954
 X19.2843 Z26.3063
 X19.2950 Z26.3021
 X19.3004 Z26.3006
 X19.3031 Z26.2998
 X19.3058 Z26.2990
 X19.3273 Z26.2958
 X19.3381
 X19.3488 Z26.2907
 X19.4134 Z26.2642
 X19.4242 Z26.2590
 X19.4349 Z26.2549
 X19.6071 Z26.2114
 X19.6999 Z26.1908
 X19.7006 Z26.1969
 X19.7416 Z26.1934
 X19.7430 Z26.1812
 X19.7793 Z26.1732
 X19.8654 Z26.1592
 X19.8869 Z26.1549
 X19.8923 Z26.1538
 X19.8950 Z26.1532
 X19.8977 Z26.1526
 X19.9084 Z26.1515
 X20.0375 Z26.1473
 X20.1236 Z26.1516
 X20.1660 Z26.1563
 X20.1663 Z26.1431
 X20.1882 Z26.1424
 X20.2097 Z26.1436
 X20.2528 Z26.1453
 X20.2743 Z26.1455
 X20.2851 Z26.1453
 X20.2904 Z26.1452
 X20.2958 Z26.1451
 X20.3819 Z26.1563
 X20.5971 Z26.1902
 X20.6402 Z26.1991
 X20.6617 Z26.2030
 X20.6725 Z26.2047
 X20.6778 Z26.2055
 X20.6805 Z26.2059
 X20.6832 Z26.2062
 X20.7047 Z26.2120
 X20.8124 Z26.2495
 X20.9845 Z26.3062
 X21.1567 Z26.3795
 X21.3289 Z26.4607
 X21.3504 Z26.4724
 X21.3612 Z26.4780
 X21.3666 Z26.4807
 X21.3692 Z26.4820
 X21.3706 Z26.4827
 X21.3713 Z26.4830
 X21.3716 Z26.4832
 X21.3719 Z26.4834
 X21.3746 Z26.4847
 X21.3760 Z26.4853
 X21.3766 Z26.4857
 X21.3770 Z26.4858
 X21.3771 Z26.4859
 X21.3772 Z26.4860
 X21.3773
 X21.3787 Z26.4992
 X21.4580 Z26.5359
 X21.5011 Z26.5565
 X21.8454 Z26.7814
 X22.0176 Z26.9127
 X22.1898 Z27.0508
 X22.8785 Z27.7082
 X23.5672 Z28.4799
 X24.2559 Z29.3661
 X24.9446 Z30.3514
 X25.2890 Z30.8242
 X25.4612 Z31.0610
 X25.5473 Z31.2053
 X25.5903 Z31.2702
 X25.6118 Z31.3008
 X25.6226 Z31.3156
 X25.6280 Z31.3229
 X25.6334 Z31.3301
 X25.8055 Z31.5833
 X25.8486 Z31.6446
 X25.8701 Z31.6743
 X25.8809 Z31.6889
 X25.8862 Z31.6961
 X25.8889 Z31.6997
 X25.8903 Z31.7015
 X25.8910 Z31.7025
 X25.8916 Z31.7036
 X25.9131 Z31.7363
 X25.9185 Z31.7446
 X25.9212 Z31.7487
 X25.9226 Z31.7507
 X25.9232 Z31.7518
 X25.9236 Z31.7523
 X25.9237 Z31.7525
 X25.9238 Z31.7527
 X25.9239 Z31.7528
 X25.9253 Z31.7568
 X32.8514
 X32.8528 Z31.7527
 X32.8534 Z31.7512
 X32.8538 Z31.7504
 X32.8541 Z31.7496
 X32.8649 Z31.7336
 X33.2092 Z30.8679
 X33.8979 Z29.0125
 X34.5867 Z27.1443
 X35.2754 Z25.1787
 X35.9641 Z23.1411
 X36.6528 Z21.0473
 X37.3415 Z18.9238
 X38.0302 Z16.7680
 X38.7189 Z14.5556
 X39.4077 Z12.3253
 X40.0964 Z10.0208
 X40.7851 Z7.7499
 X41.4738 Z5.4178
G0 Z35.0000
 X-1.2265 Y4.1513
G1 Z4.8700
 X-0.5378 Z6.9372
 X0.1509 Z8.9380
 X0.8396 Z10.8736
 X1.5283 Z12.6665
 X2.2171 Z14.3322
 X2.9058 Z15.8777
 X3.5945 Z17.3038
 X4.2832 Z18.6053
 X4.9719 Z19.7691
 X5.6606 Z20.9140
 X6.3493 Z22.0831
 X7.0381 Z23.3364
 X7.7268 Z24.6106
 X8.4155 Z26.0329
 X9.1042 Z27.5165
 X9.7929 Z29.0731
 X10.1373 Z29.9147
 X10.3095 Z30.3170
 X10.3955 Z30.5266
 X10.4386 Z30.6361
 X10.4601 Z30.6904
 X10.4709 Z30.7175
 X10.4816 Z30.7445
 X10.6538 Z31.1755
 X10.7870 Z31.5173
 X10.7877 Z31.5045
 X10.7883 Z31.5062
 X10.7937 Z31.5194
 X10.7991 Z31.5327
 X10.8045 Z31.5459
 X10.8152 Z31.5724
 X10.8206 Z31.5856
 X10.8233 Z31.5922
 X10.8246 Z31.5955
 X10.8253 Z31.5971
 X10.8257 Z31.5979
 X10.8260 Z31.5988
 X10.8475 Z31.6515
 X10.8583 Z31.6778
 X10.8637 Z31.6910
 X10.8663 Z31.6975
 X10.8677 Z31.7008
 X10.8684 Z31.7025
 X10.8687 Z31.7033
 X10.8690 Z31.7041
 X10.8798 Z31.7304
 X10.8852 Z31.7435
 X10.8879 Z31.7500
 X10.8892 Z31.7568
 X29.4213
 X29.7656 Z30.9345
 X30.4544 Z29.2703
 X31.1431 Z27.6127
 X31.8318 Z26.1550
 X32.5205 Z24.7074
 X33.2092 Z23.3992
 X33.8979 Z22.1474
 X34.5867 Z20.9486
 X35.2754 Z19.8387
 X35.9641 Z18.6799
 X36.6528 Z17.3805
 X37.3415 Z15.9543
 X38.0302 Z14.4069
 X38.7189 Z12.7377
 X39.4077 Z10.9395
 X40.0964 Z8.9966
 X40.7851 Z6.9520
 X41.4738 Z4.8746
G0 Z35.0000
 X-1.2265 Y-0.2108
G1 Z0.0068
 X-0.5378
 X0.1509 Z0.5983
 X0.8396 Z1.2498
 X1.5283 Z1.9053
 X2.2171 Z2.5709
 X2.9058 Z3.2677
 X3.5945 Z3.9974
 X4.2832 Z4.7317
 X4.9719 Z5.4751
 X5.6606 Z6.2421
 X6.3493 Z7.0387
 X7.0381 Z7.8498
 X7.7268 Z8.7032
 X8.4155 Z9.5657
 X9.1042 Z10.4216
 X9.7929 Z11.3939
 X10.4816 Z12.3238
 X11.1703 Z13.3173
 X11.8591 Z14.2768
 X12.5478 Z15.3605
 X13.2365 Z16.3747
 X13.9252 Z17.3456
 X14.6139 Z18.4142
 X15.3026 Z19.4674
 X15.9913 Z20.3574
 X16.3357 Z20.8225
 X16.6801 Z21.2476
 X17.3688 Z21.9821
 X17.6701 Z22.2880
 X17.6916 Z22.3131
 X17.7131 Z22.3374
 X17.8853 Z22.4959
 X18.0575 Z22.6321
 X18.4019 Z22.8743
 X18.9184 Z23.2159
 X19.0045 Z23.2581
 X19.0475 Z23.2781
 X19.0690 Z23.2898
 X19.0798 Z23.2951
 X19.0906 Z23.3001
 X19.4349 Z23.3896
 X20.0322 Z23.5473
 X20.0335 Z23.5249
 X20.0349 Z23.5253
 X20.0375 Z23.5259
 X20.0806 Z23.5334
 X20.1021 Z23.5375
 X20.1129 Z23.5390
 X20.1236 Z23.5401
 X20.4680 Z23.4625
 X21.0597 Z23.3711
 X21.0598 Z23.3366
 X21.0599
 X21.0706 Z23.3346
 X21.1137 Z23.3276
 X21.1352 Z23.3239
 X21.1460 Z23.3215
 X21.1513 Z23.3201
 X21.1567 Z23.3187
 X21.5011 Z23.0822
 X22.0445 Z22.7772
 X22.0459 Z22.7341
 X22.0472 Z22.7333
 X22.0499 Z22.7317
 X22.0606 Z22.7252
 X22.0714 Z22.7182
 X22.0768 Z22.7147
 X22.0822 Z22.7114
 X22.1037 Z22.7026
 X22.1252 Z22.6953
 X22.1467 Z22.6865
 X22.1683 Z22.6764
 X22.1898 Z22.6648
 X22.8785 Z21.9786
 X23.5672 Z21.2260
 X24.2559 Z20.3571
 X24.9446 Z19.3798
 X25.2890 Z18.8960
 X25.3751 Z18.7974
 X25.4181 Z18.7547
 X25.4612 Z18.7077
 X25.6334 Z18.4784
 X26.3221 Z17.3843
 X27.0108 Z16.4582
 X27.6995 Z15.3927
 X28.3882 Z14.2928
 X29.0769 Z13.3540
 X29.7656 Z12.3726
 X30.4544 Z11.4272
 X31.1431 Z10.5268
 X31.8318 Z9.5933
 X32.5205 Z8.6856
 X33.2092 Z7.8667
 X33.8979 Z7.0085
 X34.5867 Z6.2429
 X35.2754 Z5.4366
 X35.9641 Z4.7043
 X36.6528 Z3.9903
 X37.3415 Z3.2494
 X38.0302 Z2.5329
 X38.7189 Z1.8513
 X39.4077 Z1.2590
 X40.0964 Z0.6020
 X40.7256 Z0.0070
 X40.7257 Z0.0068
 X41.4738
G0 Z35.0000
M5 (stop spindle)
G04 P3 (wait for 3 seconds)
G0 Z35.0000
M2 (end program)
