;PYCAM-META-DATA: Filename: C:\Users\abarry\Documents\CAD\Rev3\CAM\launchingAttachmentNew.stl
;PYCAM-META-DATA: Timestamp: 2012-03-13 16:32:13.022000
;PYCAM-META-DATA: Version: 0.5.1
;Estimated machine time: 2 minutes
G40 (disable tool radius compensation)
G49 (disable tool length compensation)
G80 (cancel modal motion)
G54 (select coordinate system 1)
G90 (disable incremental moves)
G20 (imperial)
G61 (exact path mode)
F20.00000
S1000.00000
;PYCAM_TOOLPATH_SETTINGS: START
;[Bounds]
;maxz = 0.814690710011
;maxx = 1.48750002002
;maxy = 0.787500020023
;minx = 0.0625
;miny = 0.0625
;minz = 0.0
;
;[Tool]
;torus_radius = 0.00984251968504
;speed = 1000.0
;shape = CylindricalCutter
;tool_radius = 0.0625
;feedrate = 20.0
;
;[Process]
;generator = DropCutter
;pocketing_type = none
;engrave_offset = 0.0
;milling_style = ignore
;path_direction = x
;step_down = 0.11811023622
;postprocessor = PathAccumulator
;overlap_percent = 60
;material_allowance = 0.0
;
;PYCAM_TOOLPATH_SETTINGS: END
T1 M6
G0 Z1.0000
 X0.0625 Y0.0625
G1 Z0.7994
 X0.0780 Z0.7995
 X0.0935 Z0.8001
 X0.1090 Z0.7993
 X0.1167 Z0.7985
 X0.1206 Z0.7979
 X0.1245 Z0.7972
 X0.1322 Z0.7954
 X0.1361 Z0.7942
 X0.1380 Z0.7935
 X0.1390 Z0.7932
 X0.1395 Z0.7930
 X0.1399 Z0.7928
 X0.1438 Z0.7912
 X0.1458 Z0.7903
 X0.1467 Z0.7898
 X0.1472 Z0.7895
 X0.1474 Z0.7894
 X0.1477 Z0.7892
 X0.1487 Z0.7887
 X0.1491 Z0.7884
 X0.1494 Z0.7883
 X0.1495 Z0.7882
 X0.1496 Z0.7881
 X0.1499 Z0.7880
 Z0.7879
 X0.1500
 X0.1501 Z0.7878
 X0.1506 Z0.7873
 X0.1516 Z0.7864
 X0.1535 Z0.7843
 X0.1545 Z0.7831
 X0.1554 Z0.7819
 X0.1564 Z0.7805
 X0.1574 Z0.7790
 X0.1583 Z0.7773
 X0.1588 Z0.7764
 X0.1593 Z0.7754
 X0.1612 Z0.7704
 X0.1622 Z0.7650
 X0.1627 Z0.3742
 X0.1632 Z0.3659
 X0.1651 Z0.3534
 X0.1671 Z0.3453
 X0.1690 Z0.3399
 X0.1748 Z0.3264
 X0.1767 Z0.3237
 X0.1845 Z0.3120
 X0.1864 Z0.3101
 X0.1942 Z0.3019
 X0.1980 Z0.2985
 X0.2019 Z0.2956
 X0.2096 Z0.2898
 X0.2174 Z0.2858
 X0.2251 Z0.2819
 X0.2329 Z0.2795
 X0.2406 Z0.2772
 X0.2484 Z0.2760
 X0.2639 Z0.2747
 X1.2861
 X1.2939 Z0.2752
 X1.3016 Z0.2757
 X1.3094 Z0.2775
 X1.3171 Z0.2793
 X1.3249 Z0.2823
 X1.3326 Z0.2856
 X1.3404 Z0.2902
 X1.3481 Z0.2953
 X1.3558 Z0.3022
 X1.3617 Z0.3076
 X1.3636 Z0.3101
 X1.3675 Z0.3152
 X1.3713 Z0.3204
 X1.3752 Z0.3273
 X1.3791 Z0.3350
 X1.3829 Z0.3460
 X1.3849 Z0.3525
 X1.3868 Z0.3660
 X1.3888 Z0.7704
 X1.3897 Z0.7732
 X1.3902 Z0.7744
 X1.3907 Z0.7754
 X1.3917 Z0.7773
 X1.3926 Z0.7790
 X1.3936 Z0.7805
 X1.3941 Z0.7812
 X1.3943 Z0.7815
 X1.3944 Z0.7817
 X1.3946 Z0.7818
 X1.3965 Z0.7843
 X1.3975 Z0.7853
 X1.3984 Z0.7864
 X1.3989 Z0.7869
 X1.3994 Z0.7873
 X1.3996 Z0.7876
 X1.3998 Z0.7877
 X1.3999 Z0.7878
 X1.4004 Z0.7881
 X1.4023 Z0.7892
 X1.4062 Z0.7912
 X1.4081 Z0.7920
 X1.4101 Z0.7928
 X1.4178 Z0.7954
 X1.4217 Z0.7964
 X1.4255 Z0.7972
 X1.4333 Z0.7985
 X1.4410 Z0.7993
 X1.4565 Z0.7994
 X1.4875
G0 Z1.0000
 Y0.1108
G1 Z0.8123
 X1.4720 Z0.8128
 X1.4565
 X1.4410 Z0.8123
 X1.4333 Z0.8122
 X1.4294 Z0.8121
 X1.4255 Z0.8119
 X1.4217 Z0.8118
 X1.4197 Z0.8117
 X1.4178 Z0.8114
 X1.4139 Z0.8107
 X1.4120 Z0.8104
 X1.4101 Z0.8099
 X1.4062 Z0.8090
 X1.4042 Z0.8085
 X1.4023 Z0.8079
 X1.3984 Z0.8065
 X1.3965 Z0.8057
 X1.3955 Z0.8053
 X1.3950 Z0.8050
 X1.3946 Z0.8048
 X1.3936 Z0.8043
 X1.3931 Z0.8040
 X1.3929 Z0.8039
 X1.3926 Z0.8037
 X1.3921 Z0.8034
 X1.3919 Z0.8032
 X1.3918
 X1.3917 Z0.8031
 X1.3914 Z0.8029
 X1.3913 Z0.8028
 X1.3912
 Z0.8027
 X1.3911
 Z0.8026
 X1.3910
 X1.3909 Z0.8025
 X1.3907 Z0.8021
 X1.3902 Z0.8014
 X1.3897 Z0.8007
 X1.3888 Z0.7988
 X1.3878 Z0.7957
 X1.3873 Z0.3742
 X1.3871 Z0.3680
 X1.3860 Z0.3588
 Z0.3553
 X1.3859
 X1.3849 Z0.3525
 X1.3829 Z0.3460
 X1.3810 Z0.3399
 X1.3804 Z0.3385
 Z0.3376
 X1.3752 Z0.3273
 X1.3733 Z0.3237
 X1.3727 Z0.3229
 Z0.3222
 X1.3646 Z0.3113
 X1.3636 Z0.3101
 X1.3558 Z0.3022
 X1.3520 Z0.2985
 X1.3500 Z0.2970
 X1.3499 Z0.2969
 Z0.2964
 X1.3404 Z0.2902
 X1.3365 Z0.2878
 X1.3354 Z0.2872
 Z0.2868
 X1.3249 Z0.2823
 X1.3210 Z0.2807
 X1.3195 Z0.2802
 Z0.2798
 X1.3055 Z0.2765
 X1.3045 Z0.2763
 X1.3026 Z0.2761
 Z0.2757
 X1.3016
 X1.2861 Z0.2747
 X0.2639
 X0.2561 Z0.2751
 X0.2484 Z0.2760
 X0.2445 Z0.2765
 X0.2426 Z0.2768
 X0.2406 Z0.2772
 X0.2290 Z0.2807
 X0.2280 Z0.2810
 X0.2271 Z0.2814
 X0.2261 Z0.2817
 X0.2259
 X0.2257
 X0.2256
 X0.2251 Z0.2819
 X0.2126 Z0.2882
 Z0.2820
 X0.2125
 Z0.2883
 X0.2107 Z0.2895
 Z0.2881
 X0.2106
 Z0.2894
 X0.2105
 X0.2104
 X0.2103 Z0.2895
 X0.2102
 X0.2101
 X0.2096 Z0.2898
 X0.2019 Z0.2956
 X0.1980 Z0.2985
 X0.1942 Z0.3019
 X0.1864 Z0.3101
 X0.1845 Z0.3123
 X0.1825 Z0.3149
 X0.1767 Z0.3237
 X0.1758 Z0.3253
 X0.1750 Z0.3268
 Z0.3247
 X0.1749
 Z0.3268
 X0.1748
 X0.1729 Z0.3309
 X0.1690 Z0.3399
 X0.1685 Z0.3412
 X0.1680 Z0.3427
 Z0.3405
 X0.1671 Z0.3453
 X0.1651 Z0.3534
 X0.1632 Z0.3659
 X0.1612 Z0.7988
 X0.1608 Z0.7998
 X0.1603 Z0.8007
 X0.1598 Z0.8014
 X0.1595 Z0.8018
 X0.1594 Z0.8020
 Z0.8021
 X0.1593
 X0.1591 Z0.8025
 X0.1590 Z0.8026
 X0.1589
 X0.1588 Z0.8027
 X0.1583 Z0.8031
 X0.1579 Z0.8034
 X0.1574 Z0.8037
 X0.1564 Z0.8043
 X0.1554 Z0.8048
 X0.1516 Z0.8065
 X0.1477 Z0.8079
 X0.1438 Z0.8090
 X0.1399 Z0.8099
 X0.1361 Z0.8107
 X0.1341 Z0.8111
 X0.1322 Z0.8114
 X0.1245 Z0.8119
 X0.1090 Z0.8123
 X0.0935
 X0.0780
 X0.0625
G0 Z1.0000
 Y0.1592
G1 Z0.8147
 X0.1458
 X0.1477
 X0.1516 Z0.8142
 X0.1535 Z0.8139
 X0.1545 Z0.8138
 X0.1550 Z0.8137
 X0.1554 Z0.8136
 X0.1574 Z0.8133
 X0.1583 Z0.8131
 X0.1593 Z0.8128
 X0.1603 Z0.8126
 X0.1608 Z0.8124
 X0.1612 Z0.8122
 X0.1617 Z0.8120
 X0.1618 Z0.8119
 X0.1619
 Z0.8118
 X0.1620
 X0.1622 Z0.8116
 X0.1627 Z0.3742
 X0.1632 Z0.3659
 X0.1651 Z0.3534
 X0.1671 Z0.3453
 X0.1690 Z0.3399
 X0.1709 Z0.3354
 X0.1748 Z0.3273
 X0.1767 Z0.3237
 X0.1825 Z0.3149
 X0.1845 Z0.3126
 X0.1854 Z0.3113
 X0.1864 Z0.3101
 X0.1942 Z0.3019
 X0.1980 Z0.2985
 X0.2019 Z0.2956
 X0.2077 Z0.2912
 X0.2096 Z0.2900
 X0.2135 Z0.2878
 X0.2232 Z0.2829
 X0.2251 Z0.2821
 X0.2290 Z0.2807
 X0.2406 Z0.2772
 X0.2484 Z0.2760
 X0.2639 Z0.2747
 X1.2861
 X1.2939 Z0.2752
 X1.2978 Z0.2755
 X1.3016 Z0.2760
 X1.3094 Z0.2775
 X1.3171 Z0.2793
 X1.3249 Z0.2823
 X1.3326 Z0.2856
 X1.3404 Z0.2902
 X1.3481 Z0.2953
 X1.3558 Z0.3022
 X1.3617 Z0.3076
 X1.3636 Z0.3101
 X1.3675 Z0.3152
 X1.3713 Z0.3204
 X1.3752 Z0.3273
 X1.3791 Z0.3350
 X1.3829 Z0.3460
 X1.3849 Z0.3525
 X1.3868 Z0.3660
 X1.3873 Z0.3742
 X1.3875 Z0.6147
 X1.3877 Z0.8112
 Z0.8114
 X1.3878 Z0.8115
 Z0.8116
 Z0.8117
 X1.3879
 X1.3880 Z0.8118
 X1.3882 Z0.8119
 X1.3883 Z0.8120
 X1.3885 Z0.8121
 X1.3888 Z0.8122
 X1.3897 Z0.8126
 X1.3907 Z0.8128
 X1.3926 Z0.8133
 X1.3946 Z0.8136
 X1.4101 Z0.8147
 X1.4875
 Y0.2075
 X1.3878
 X1.3873 Z0.3742
 X1.3871 Z0.3680
 X1.3868 Z0.3660
 X1.3849 Z0.3534
 X1.3839 Z0.3493
 X1.3829 Z0.3460
 X1.3810 Z0.3399
 X1.3796 Z0.3367
 Z0.3361
 X1.3752 Z0.3273
 X1.3733 Z0.3237
 X1.3716 Z0.3212
 Z0.3208
 X1.3646 Z0.3113
 X1.3636 Z0.3101
 X1.3558 Z0.3022
 X1.3520 Z0.2985
 X1.3500 Z0.2970
 X1.3483 Z0.2957
 X1.3482 Z0.2954
 X1.3404 Z0.2902
 X1.3365 Z0.2878
 X1.3336 Z0.2863
 Z0.2860
 X1.3249 Z0.2823
 X1.3210 Z0.2807
 X1.3176 Z0.2797
 Z0.2794
 X1.3055 Z0.2765
 X1.3016 Z0.2760
 X1.2861 Z0.2747
 X0.2639
 X0.2561 Z0.2751
 X0.2484 Z0.2760
 X0.2445 Z0.2765
 X0.2406 Z0.2773
 X0.2368 Z0.2784
 X0.2290 Z0.2807
 X0.2271 Z0.2814
 X0.2251 Z0.2823
 X0.2213 Z0.2839
 X0.2135 Z0.2878
 X0.2116 Z0.2889
 X0.2096 Z0.2902
 X0.2058 Z0.2927
 X0.2019 Z0.2956
 X0.1980 Z0.2985
 X0.1942 Z0.3019
 X0.1864 Z0.3101
 X0.1845 Z0.3126
 X0.1835 Z0.3139
 X0.1833 Z0.3140
 X0.1832
 X0.1831
 X0.1830 Z0.3142
 X0.1767 Z0.3237
 X0.1748 Z0.3273
 X0.1729 Z0.3309
 X0.1690 Z0.3399
 X0.1680 Z0.3428
 X0.1675 Z0.3446
 X0.1674 Z0.3405
 X0.1673 Z0.3447
 X0.1671 Z0.3453
 X0.1651 Z0.3534
 X0.1632 Z0.3659
 X0.1627 Z0.3742
 X0.1625 Z0.8147
 X0.0625
 Y0.2558
 X0.1622
 X0.1627 Z0.3742
 X0.1632 Z0.3659
 X0.1651 Z0.3534
 X0.1666 Z0.3473
 X0.1671 Z0.3456
 X0.1690 Z0.3399
 X0.1709 Z0.3354
 X0.1748 Z0.3273
 X0.1767 Z0.3237
 X0.1825 Z0.3149
 X0.1845 Z0.3126
 X0.1854 Z0.3113
 X0.1864 Z0.3101
 X0.1942 Z0.3019
 X0.1980 Z0.2985
 X0.2019 Z0.2956
 X0.2058 Z0.2927
 X0.2096 Z0.2902
 X0.2116 Z0.2889
 X0.2135 Z0.2878
 X0.2213 Z0.2839
 X0.2251 Z0.2823
 X0.2271 Z0.2814
 X0.2290 Z0.2807
 X0.2329 Z0.2795
 X0.2406 Z0.2775
 X0.2445 Z0.2765
 X0.2484 Z0.2760
 X0.2639 Z0.2747
 X1.2861
 X1.2939 Z0.2752
 X1.2978 Z0.2755
 X1.3016 Z0.2760
 X1.3094 Z0.2775
 X1.3132 Z0.2784
 X1.3171 Z0.2795
 X1.3249 Z0.2823
 X1.3326 Z0.2856
 X1.3404 Z0.2902
 X1.3462 Z0.2940
 X1.3481 Z0.2956
 X1.3510 Z0.2977
 X1.3520 Z0.2985
 X1.3597 Z0.3058
 X1.3617 Z0.3081
 X1.3636 Z0.3101
 X1.3675 Z0.3152
 X1.3694 Z0.3178
 X1.3713 Z0.3208
 X1.3752 Z0.3273
 X1.3791 Z0.3350
 X1.3829 Z0.3460
 X1.3839 Z0.3493
 X1.3849 Z0.3534
 X1.3868 Z0.3660
 X1.3873 Z0.3742
 X1.3875 Z0.8147
 X1.4875
 Y0.3042
 X1.3878
 X1.3873 Z0.3742
 X1.3871 Z0.3701
 X1.3869 Z0.3670
 X1.3868 Z0.3660
 X1.3849 Z0.3534
 X1.3839 Z0.3493
 X1.3820 Z0.3428
 X1.3810 Z0.3399
 X1.3791 Z0.3354
 X1.3752 Z0.3273
 X1.3733 Z0.3237
 X1.3713 Z0.3208
 X1.3675 Z0.3152
 X1.3646 Z0.3113
 X1.3636 Z0.3101
 X1.3597 Z0.3060
 X1.3558 Z0.3022
 X1.3520 Z0.2985
 X1.3481 Z0.2956
 X1.3442 Z0.2927
 X1.3384 Z0.2889
 X1.3365 Z0.2878
 X1.3326 Z0.2858
 X1.3287 Z0.2839
 X1.3229 Z0.2814
 X1.3210 Z0.2807
 X1.3171 Z0.2795
 X1.3094 Z0.2775
 X1.3055 Z0.2765
 X1.3016 Z0.2760
 X1.2861 Z0.2747
 X0.2639
 X0.2561 Z0.2752
 X0.2522 Z0.2755
 X0.2484 Z0.2760
 X0.2406 Z0.2775
 X0.2368 Z0.2784
 X0.2290 Z0.2807
 X0.2271 Z0.2814
 X0.2251 Z0.2823
 X0.2213 Z0.2839
 X0.2135 Z0.2878
 X0.2116 Z0.2889
 X0.2096 Z0.2902
 X0.2058 Z0.2927
 X0.1990 Z0.2977
 X0.1980 Z0.2985
 X0.1942 Z0.3022
 X0.1903 Z0.3060
 X0.1864 Z0.3101
 X0.1825 Z0.3152
 X0.1806 Z0.3178
 X0.1767 Z0.3237
 X0.1748 Z0.3273
 X0.1729 Z0.3309
 X0.1690 Z0.3399
 X0.1671 Z0.3460
 X0.1661 Z0.3493
 X0.1651 Z0.3534
 X0.1632 Z0.3659
 X0.1627 Z0.3742
 X0.1625 Z0.8147
 X0.0625
 Y0.3525
 X0.1622
 X0.1627 Z0.3742
 X0.1632 Z0.3659
 X0.1651 Z0.3534
 X0.1661 Z0.3493
 X0.1671 Z0.3460
 X0.1680 Z0.3428
 X0.1690 Z0.3399
 X0.1709 Z0.3354
 X0.1748 Z0.3273
 X0.1767 Z0.3237
 X0.1787 Z0.3208
 X0.1825 Z0.3152
 X0.1854 Z0.3113
 X0.1864 Z0.3101
 X0.1903 Z0.3060
 X0.1942 Z0.3022
 X0.1980 Z0.2985
 X0.2019 Z0.2956
 X0.2058 Z0.2927
 X0.2096 Z0.2902
 X0.2116 Z0.2889
 X0.2135 Z0.2878
 X0.2213 Z0.2839
 X0.2251 Z0.2823
 X0.2271 Z0.2814
 X0.2290 Z0.2807
 X0.2329 Z0.2795
 X0.2406 Z0.2775
 X0.2445 Z0.2765
 X0.2484 Z0.2760
 X0.2639 Z0.2747
 X1.2861
 X1.2939 Z0.2752
 X1.2978 Z0.2756
 X1.2997 Z0.2758
 X1.3016 Z0.2760
 X1.3094 Z0.2775
 X1.3132 Z0.2784
 X1.3171 Z0.2795
 X1.3210 Z0.2807
 X1.3229 Z0.2814
 X1.3287 Z0.2839
 X1.3326 Z0.2858
 X1.3365 Z0.2878
 X1.3384 Z0.2889
 X1.3442 Z0.2927
 X1.3462 Z0.2941
 X1.3510 Z0.2977
 X1.3520 Z0.2985
 X1.3558 Z0.3022
 X1.3597 Z0.3060
 X1.3636 Z0.3101
 X1.3675 Z0.3152
 X1.3694 Z0.3178
 X1.3713 Z0.3208
 X1.3733 Z0.3237
 X1.3752 Z0.3273
 X1.3771 Z0.3311
 X1.3791 Z0.3354
 X1.3810 Z0.3399
 X1.3829 Z0.3460
 X1.3839 Z0.3493
 X1.3849 Z0.3534
 X1.3868 Z0.3660
 X1.3873 Z0.3742
 X1.3875 Z0.8147
 X1.4875
 Y0.4008
 X1.3878
 X1.3873 Z0.3742
 X1.3869 Z0.3670
 X1.3868 Z0.3660
 X1.3849 Z0.3534
 X1.3839 Z0.3493
 X1.3820 Z0.3428
 X1.3810 Z0.3399
 X1.3791 Z0.3354
 X1.3752 Z0.3273
 X1.3733 Z0.3237
 X1.3713 Z0.3208
 X1.3675 Z0.3152
 X1.3646 Z0.3113
 X1.3636 Z0.3101
 X1.3597 Z0.3060
 X1.3558 Z0.3022
 X1.3520 Z0.2985
 X1.3481 Z0.2956
 X1.3442 Z0.2927
 X1.3384 Z0.2889
 X1.3365 Z0.2878
 X1.3326 Z0.2858
 X1.3287 Z0.2839
 X1.3229 Z0.2814
 X1.3210 Z0.2807
 X1.3171 Z0.2795
 X1.3094 Z0.2775
 X1.3055 Z0.2765
 X1.3016 Z0.2760
 X1.2861 Z0.2747
 X0.2639
 X0.2561 Z0.2752
 X0.2522 Z0.2755
 X0.2484 Z0.2760
 X0.2406 Z0.2775
 X0.2368 Z0.2784
 X0.2329 Z0.2795
 X0.2290 Z0.2807
 X0.2271 Z0.2814
 X0.2213 Z0.2839
 X0.2174 Z0.2858
 X0.2135 Z0.2878
 X0.2116 Z0.2889
 X0.2058 Z0.2927
 X0.2038 Z0.2941
 X0.1990 Z0.2977
 X0.1980 Z0.2985
 X0.1942 Z0.3022
 X0.1903 Z0.3060
 X0.1864 Z0.3101
 X0.1825 Z0.3152
 X0.1806 Z0.3178
 X0.1767 Z0.3237
 X0.1748 Z0.3273
 X0.1729 Z0.3311
 X0.1709 Z0.3354
 X0.1690 Z0.3399
 X0.1671 Z0.3460
 X0.1661 Z0.3493
 X0.1651 Z0.3534
 X0.1632 Z0.3659
 X0.1627 Z0.3742
 X0.1625 Z0.8147
 X0.0625
 Y0.4492
 X0.1622
 X0.1627 Z0.3742
 X0.1631 Z0.3670
 X0.1632 Z0.3660
 X0.1651 Z0.3534
 X0.1661 Z0.3493
 X0.1680 Z0.3428
 X0.1690 Z0.3399
 X0.1709 Z0.3354
 X0.1748 Z0.3273
 X0.1767 Z0.3237
 X0.1787 Z0.3208
 X0.1825 Z0.3152
 X0.1854 Z0.3113
 X0.1864 Z0.3101
 X0.1903 Z0.3060
 X0.1942 Z0.3022
 X0.1980 Z0.2985
 X0.2019 Z0.2956
 X0.2058 Z0.2927
 X0.2116 Z0.2889
 X0.2135 Z0.2878
 X0.2174 Z0.2858
 X0.2213 Z0.2839
 X0.2271 Z0.2814
 X0.2290 Z0.2807
 X0.2329 Z0.2795
 X0.2406 Z0.2775
 X0.2445 Z0.2765
 X0.2484 Z0.2760
 X0.2639 Z0.2747
 X1.2861
 X1.2939 Z0.2752
 X1.2978 Z0.2755
 X1.3016 Z0.2760
 X1.3094 Z0.2775
 X1.3132 Z0.2784
 X1.3171 Z0.2795
 X1.3210 Z0.2807
 X1.3229 Z0.2814
 X1.3287 Z0.2839
 X1.3326 Z0.2858
 X1.3365 Z0.2878
 X1.3384 Z0.2889
 X1.3442 Z0.2927
 X1.3462 Z0.2941
 X1.3510 Z0.2977
 X1.3520 Z0.2985
 X1.3558 Z0.3022
 X1.3597 Z0.3060
 X1.3636 Z0.3101
 X1.3675 Z0.3152
 X1.3694 Z0.3178
 X1.3733 Z0.3237
 X1.3752 Z0.3273
 X1.3771 Z0.3311
 X1.3791 Z0.3354
 X1.3810 Z0.3399
 X1.3829 Z0.3460
 X1.3839 Z0.3493
 X1.3849 Z0.3534
 X1.3868 Z0.3659
 X1.3873 Z0.3742
 X1.3875 Z0.8147
 X1.4875
 Y0.4975
 X1.3878
 X1.3873 Z0.3742
 X1.3868 Z0.3659
 X1.3849 Z0.3534
 X1.3839 Z0.3493
 X1.3829 Z0.3460
 X1.3820 Z0.3428
 X1.3810 Z0.3399
 X1.3791 Z0.3354
 X1.3752 Z0.3273
 X1.3733 Z0.3237
 X1.3713 Z0.3208
 X1.3675 Z0.3152
 X1.3646 Z0.3113
 X1.3636 Z0.3101
 X1.3597 Z0.3060
 X1.3558 Z0.3022
 X1.3520 Z0.2985
 X1.3481 Z0.2956
 X1.3442 Z0.2927
 X1.3404 Z0.2902
 X1.3384 Z0.2889
 X1.3365 Z0.2878
 X1.3287 Z0.2839
 X1.3249 Z0.2823
 X1.3229 Z0.2814
 X1.3210 Z0.2807
 X1.3171 Z0.2795
 X1.3094 Z0.2775
 X1.3055 Z0.2765
 X1.3016 Z0.2760
 X1.2861 Z0.2747
 X0.2639
 X0.2561 Z0.2752
 X0.2522 Z0.2756
 X0.2503 Z0.2758
 X0.2484 Z0.2760
 X0.2406 Z0.2775
 X0.2368 Z0.2784
 X0.2329 Z0.2795
 X0.2290 Z0.2807
 X0.2271 Z0.2814
 X0.2213 Z0.2839
 X0.2174 Z0.2858
 X0.2135 Z0.2878
 X0.2116 Z0.2889
 X0.2058 Z0.2927
 X0.2038 Z0.2941
 X0.1990 Z0.2977
 X0.1980 Z0.2985
 X0.1942 Z0.3022
 X0.1903 Z0.3060
 X0.1864 Z0.3101
 X0.1825 Z0.3152
 X0.1806 Z0.3178
 X0.1787 Z0.3208
 X0.1767 Z0.3237
 X0.1748 Z0.3273
 X0.1729 Z0.3311
 X0.1709 Z0.3354
 X0.1690 Z0.3399
 X0.1671 Z0.3460
 X0.1661 Z0.3493
 X0.1651 Z0.3534
 X0.1632 Z0.3660
 X0.1627 Z0.3742
 X0.1625 Z0.8147
 X0.0625
 Y0.5458
 X0.1622
 X0.1627 Z0.3742
 X0.1629 Z0.3701
 X0.1631 Z0.3670
 X0.1632 Z0.3660
 X0.1651 Z0.3534
 X0.1661 Z0.3493
 X0.1680 Z0.3428
 X0.1690 Z0.3399
 X0.1709 Z0.3354
 X0.1748 Z0.3273
 X0.1767 Z0.3237
 X0.1787 Z0.3208
 X0.1825 Z0.3152
 X0.1854 Z0.3113
 X0.1864 Z0.3101
 X0.1903 Z0.3060
 X0.1942 Z0.3022
 X0.1980 Z0.2985
 X0.2019 Z0.2956
 X0.2058 Z0.2927
 X0.2116 Z0.2889
 X0.2135 Z0.2878
 X0.2174 Z0.2858
 X0.2213 Z0.2839
 X0.2271 Z0.2814
 X0.2290 Z0.2807
 X0.2329 Z0.2795
 X0.2406 Z0.2775
 X0.2445 Z0.2765
 X0.2484 Z0.2760
 X0.2639 Z0.2747
 X1.2861
 X1.2939 Z0.2752
 X1.2978 Z0.2755
 X1.3016 Z0.2760
 X1.3094 Z0.2775
 X1.3132 Z0.2784
 X1.3210 Z0.2807
 X1.3229 Z0.2814
 X1.3249 Z0.2823
 X1.3287 Z0.2839
 X1.3365 Z0.2878
 X1.3384 Z0.2889
 X1.3404 Z0.2902
 X1.3442 Z0.2927
 X1.3510 Z0.2977
 X1.3520 Z0.2985
 X1.3558 Z0.3022
 X1.3597 Z0.3060
 X1.3636 Z0.3101
 X1.3675 Z0.3152
 X1.3694 Z0.3178
 X1.3733 Z0.3237
 X1.3752 Z0.3273
 X1.3771 Z0.3309
 X1.3810 Z0.3399
 X1.3829 Z0.3460
 X1.3839 Z0.3493
 X1.3849 Z0.3534
 X1.3868 Z0.3659
 X1.3873 Z0.3742
 X1.3875 Z0.8147
 X1.4875
 Y0.5942
 X1.3878
 X1.3873 Z0.3742
 X1.3868 Z0.3659
 X1.3849 Z0.3534
 X1.3834 Z0.3473
 X1.3829 Z0.3456
 X1.3810 Z0.3399
 X1.3791 Z0.3354
 X1.3752 Z0.3273
 X1.3733 Z0.3237
 X1.3675 Z0.3149
 X1.3655 Z0.3126
 X1.3646 Z0.3113
 X1.3636 Z0.3101
 X1.3558 Z0.3019
 X1.3520 Z0.2985
 X1.3481 Z0.2956
 X1.3442 Z0.2927
 X1.3404 Z0.2902
 X1.3384 Z0.2889
 X1.3365 Z0.2878
 X1.3287 Z0.2839
 X1.3249 Z0.2823
 X1.3229 Z0.2814
 X1.3210 Z0.2807
 X1.3171 Z0.2795
 X1.3094 Z0.2775
 X1.3055 Z0.2765
 X1.3016 Z0.2760
 X1.2861 Z0.2747
 X0.2639
 X0.2561 Z0.2752
 X0.2522 Z0.2755
 X0.2484 Z0.2760
 X0.2406 Z0.2775
 X0.2368 Z0.2784
 X0.2329 Z0.2795
 X0.2251 Z0.2823
 X0.2174 Z0.2856
 X0.2096 Z0.2902
 X0.2038 Z0.2940
 X0.2019 Z0.2956
 X0.1990 Z0.2977
 X0.1980 Z0.2985
 X0.1903 Z0.3058
 X0.1883 Z0.3081
 X0.1864 Z0.3101
 X0.1825 Z0.3152
 X0.1806 Z0.3178
 X0.1787 Z0.3208
 X0.1748 Z0.3273
 X0.1709 Z0.3350
 X0.1671 Z0.3460
 X0.1661 Z0.3493
 X0.1651 Z0.3534
 X0.1632 Z0.3660
 X0.1627 Z0.3742
 X0.1625 Z0.8147
 X0.0625
 Y0.6425
 X0.1622
 X0.1627 Z0.3742
 X0.1629 Z0.3680
 X0.1632 Z0.3660
 X0.1651 Z0.3534
 X0.1661 Z0.3493
 X0.1671 Z0.3460
 X0.1690 Z0.3399
 X0.1704 Z0.3367
 Z0.3361
 X0.1748 Z0.3273
 X0.1767 Z0.3237
 X0.1784 Z0.3212
 Z0.3208
 X0.1854 Z0.3113
 X0.1864 Z0.3101
 X0.1942 Z0.3022
 X0.1980 Z0.2985
 X0.2000 Z0.2970
 X0.2017 Z0.2957
 X0.2018 Z0.2954
 X0.2096 Z0.2902
 X0.2135 Z0.2878
 X0.2164 Z0.2863
 Z0.2860
 X0.2251 Z0.2823
 X0.2290 Z0.2807
 X0.2324 Z0.2797
 Z0.2794
 X0.2445 Z0.2765
 X0.2484 Z0.2760
 X0.2639 Z0.2747
 X1.2861
 X1.2939 Z0.2751
 X1.3016 Z0.2760
 X1.3055 Z0.2765
 X1.3094 Z0.2773
 X1.3132 Z0.2784
 X1.3210 Z0.2807
 X1.3229 Z0.2814
 X1.3249 Z0.2823
 X1.3287 Z0.2839
 X1.3365 Z0.2878
 X1.3384 Z0.2889
 X1.3404 Z0.2902
 X1.3442 Z0.2927
 X1.3481 Z0.2956
 X1.3520 Z0.2985
 X1.3558 Z0.3019
 X1.3636 Z0.3101
 X1.3655 Z0.3126
 X1.3665 Z0.3139
 X1.3667 Z0.3140
 X1.3668
 X1.3669
 X1.3670 Z0.3142
 X1.3733 Z0.3237
 X1.3752 Z0.3273
 X1.3771 Z0.3309
 X1.3810 Z0.3399
 X1.3820 Z0.3428
 X1.3825 Z0.3446
 X1.3826 Z0.3405
 X1.3827 Z0.3447
 X1.3829 Z0.3453
 X1.3849 Z0.3534
 X1.3868 Z0.3659
 X1.3873 Z0.3742
 X1.3875 Z0.8147
 X1.4875
 Y0.6908
 X1.4042
 X1.4023
 X1.3984 Z0.8142
 X1.3965 Z0.8139
 X1.3955 Z0.8138
 X1.3950 Z0.8137
 X1.3946 Z0.8136
 X1.3926 Z0.8133
 X1.3917 Z0.8131
 X1.3907 Z0.8128
 X1.3897 Z0.8126
 X1.3892 Z0.8124
 X1.3888 Z0.8122
 X1.3883 Z0.8120
 X1.3882 Z0.8119
 X1.3881
 Z0.8118
 X1.3880
 X1.3878 Z0.8116
 X1.3873 Z0.3742
 X1.3868 Z0.3659
 X1.3849 Z0.3534
 X1.3829 Z0.3453
 X1.3810 Z0.3399
 X1.3791 Z0.3354
 X1.3752 Z0.3273
 X1.3733 Z0.3237
 X1.3675 Z0.3149
 X1.3655 Z0.3126
 X1.3646 Z0.3113
 X1.3636 Z0.3101
 X1.3558 Z0.3019
 X1.3520 Z0.2985
 X1.3481 Z0.2956
 X1.3423 Z0.2912
 X1.3404 Z0.2900
 X1.3365 Z0.2878
 X1.3268 Z0.2829
 X1.3249 Z0.2821
 X1.3210 Z0.2807
 X1.3094 Z0.2772
 X1.3016 Z0.2760
 X1.2861 Z0.2747
 X0.2639
 X0.2561 Z0.2752
 X0.2522 Z0.2755
 X0.2484 Z0.2760
 X0.2406 Z0.2775
 X0.2329 Z0.2793
 X0.2251 Z0.2823
 X0.2174 Z0.2856
 X0.2096 Z0.2902
 X0.2019 Z0.2953
 X0.1942 Z0.3022
 X0.1883 Z0.3076
 X0.1864 Z0.3101
 X0.1825 Z0.3152
 X0.1787 Z0.3204
 X0.1748 Z0.3273
 X0.1709 Z0.3350
 X0.1671 Z0.3460
 X0.1651 Z0.3525
 X0.1632 Z0.3660
 X0.1627 Z0.3742
 X0.1625 Z0.6147
 X0.1623 Z0.8112
 Z0.8114
 X0.1622 Z0.8115
 Z0.8116
 Z0.8117
 X0.1621
 X0.1620 Z0.8118
 X0.1618 Z0.8119
 X0.1617 Z0.8120
 X0.1615 Z0.8121
 X0.1612 Z0.8122
 X0.1603 Z0.8126
 X0.1593 Z0.8128
 X0.1574 Z0.8133
 X0.1554 Z0.8136
 X0.1399 Z0.8147
 X0.0625
G0 Z1.0000
 Y0.7392
G1 Z0.8123
 X0.0780 Z0.8128
 X0.0935
 X0.1090 Z0.8123
 X0.1167 Z0.8122
 X0.1206 Z0.8121
 X0.1245 Z0.8119
 X0.1283 Z0.8118
 X0.1303 Z0.8117
 X0.1322 Z0.8114
 X0.1361 Z0.8107
 X0.1380 Z0.8104
 X0.1399 Z0.8099
 X0.1438 Z0.8090
 X0.1458 Z0.8085
 X0.1477 Z0.8079
 X0.1516 Z0.8065
 X0.1535 Z0.8057
 X0.1545 Z0.8053
 X0.1550 Z0.8050
 X0.1554 Z0.8048
 X0.1564 Z0.8043
 X0.1569 Z0.8040
 X0.1571 Z0.8039
 X0.1574 Z0.8037
 X0.1579 Z0.8034
 X0.1581 Z0.8032
 X0.1582
 X0.1583 Z0.8031
 X0.1586 Z0.8029
 X0.1587 Z0.8028
 X0.1588
 Z0.8027
 X0.1589
 Z0.8026
 X0.1590
 X0.1591 Z0.8025
 X0.1593 Z0.8021
 X0.1598 Z0.8014
 X0.1603 Z0.8007
 X0.1612 Z0.7988
 X0.1622 Z0.7957
 X0.1627 Z0.3742
 X0.1629 Z0.3680
 X0.1640 Z0.3588
 Z0.3553
 X0.1641
 X0.1651 Z0.3525
 X0.1671 Z0.3460
 X0.1690 Z0.3399
 X0.1696 Z0.3385
 Z0.3376
 X0.1748 Z0.3273
 X0.1767 Z0.3237
 X0.1773 Z0.3229
 Z0.3222
 X0.1854 Z0.3113
 X0.1864 Z0.3101
 X0.1942 Z0.3022
 X0.1980 Z0.2985
 X0.2000 Z0.2970
 X0.2001 Z0.2969
 Z0.2964
 X0.2096 Z0.2902
 X0.2135 Z0.2878
 X0.2146 Z0.2872
 Z0.2868
 X0.2251 Z0.2823
 X0.2290 Z0.2807
 X0.2305 Z0.2802
 Z0.2798
 X0.2445 Z0.2765
 X0.2455 Z0.2763
 X0.2474 Z0.2761
 Z0.2757
 X0.2484
 X0.2639 Z0.2747
 X1.2861
 X1.2939 Z0.2751
 X1.3016 Z0.2760
 X1.3055 Z0.2765
 X1.3074 Z0.2768
 X1.3094 Z0.2772
 X1.3210 Z0.2807
 X1.3220 Z0.2810
 X1.3229 Z0.2814
 X1.3239 Z0.2817
 X1.3241
 X1.3243
 X1.3244
 X1.3249 Z0.2819
 X1.3374 Z0.2882
 Z0.2820
 X1.3375
 Z0.2883
 X1.3393 Z0.2895
 Z0.2881
 X1.3394
 Z0.2894
 X1.3395
 X1.3396
 X1.3397 Z0.2895
 X1.3398
 X1.3399
 X1.3404 Z0.2898
 X1.3481 Z0.2956
 X1.3520 Z0.2985
 X1.3558 Z0.3019
 X1.3636 Z0.3101
 X1.3655 Z0.3123
 X1.3675 Z0.3149
 X1.3733 Z0.3237
 X1.3742 Z0.3253
 X1.3750 Z0.3268
 Z0.3247
 X1.3751
 Z0.3268
 X1.3752
 X1.3771 Z0.3309
 X1.3810 Z0.3399
 X1.3815 Z0.3412
 X1.3820 Z0.3427
 Z0.3405
 X1.3829 Z0.3453
 X1.3849 Z0.3534
 X1.3868 Z0.3659
 X1.3888 Z0.7988
 X1.3892 Z0.7998
 X1.3897 Z0.8007
 X1.3902 Z0.8014
 X1.3905 Z0.8018
 X1.3906 Z0.8020
 Z0.8021
 X1.3907
 X1.3909 Z0.8025
 X1.3910 Z0.8026
 X1.3911
 X1.3912 Z0.8027
 X1.3917 Z0.8031
 X1.3921 Z0.8034
 X1.3926 Z0.8037
 X1.3936 Z0.8043
 X1.3946 Z0.8048
 X1.3984 Z0.8065
 X1.4023 Z0.8079
 X1.4062 Z0.8090
 X1.4101 Z0.8099
 X1.4139 Z0.8107
 X1.4159 Z0.8111
 X1.4178 Z0.8114
 X1.4255 Z0.8119
 X1.4410 Z0.8123
 X1.4565
 X1.4720
 X1.4875
G0 Z1.0000
 Y0.7875
G1 Z0.7994
 X1.4720 Z0.7995
 X1.4565 Z0.8001
 X1.4410 Z0.7993
 X1.4333 Z0.7985
 X1.4294 Z0.7979
 X1.4255 Z0.7972
 X1.4178 Z0.7954
 X1.4139 Z0.7942
 X1.4120 Z0.7935
 X1.4110 Z0.7932
 X1.4105 Z0.7930
 X1.4101 Z0.7928
 X1.4062 Z0.7912
 X1.4042 Z0.7903
 X1.4033 Z0.7898
 X1.4028 Z0.7895
 X1.4026 Z0.7894
 X1.4023 Z0.7892
 X1.4013 Z0.7887
 X1.4009 Z0.7884
 X1.4006 Z0.7883
 X1.4005 Z0.7882
 X1.4004 Z0.7881
 X1.4001 Z0.7880
 Z0.7879
 X1.4000
 X1.3999 Z0.7878
 X1.3994 Z0.7873
 X1.3984 Z0.7864
 X1.3965 Z0.7843
 X1.3955 Z0.7831
 X1.3946 Z0.7818
 X1.3936 Z0.7805
 X1.3926 Z0.7790
 X1.3917 Z0.7773
 X1.3912 Z0.7764
 X1.3907 Z0.7754
 X1.3888 Z0.7704
 X1.3878 Z0.7650
 X1.3873 Z0.3742
 X1.3868 Z0.3659
 X1.3849 Z0.3534
 X1.3829 Z0.3453
 X1.3810 Z0.3399
 X1.3752 Z0.3264
 X1.3733 Z0.3237
 X1.3655 Z0.3120
 X1.3636 Z0.3101
 X1.3558 Z0.3019
 X1.3520 Z0.2985
 X1.3481 Z0.2956
 X1.3404 Z0.2898
 X1.3326 Z0.2858
 X1.3249 Z0.2819
 X1.3171 Z0.2795
 X1.3094 Z0.2772
 X1.3016 Z0.2760
 X1.2861 Z0.2747
 X0.2639
 X0.2561 Z0.2752
 X0.2484 Z0.2757
 X0.2406 Z0.2775
 X0.2329 Z0.2793
 X0.2251 Z0.2823
 X0.2174 Z0.2856
 X0.2096 Z0.2902
 X0.2019 Z0.2953
 X0.1942 Z0.3022
 X0.1883 Z0.3076
 X0.1864 Z0.3101
 X0.1825 Z0.3152
 X0.1787 Z0.3204
 X0.1748 Z0.3273
 X0.1709 Z0.3350
 X0.1671 Z0.3460
 X0.1651 Z0.3525
 X0.1632 Z0.3660
 X0.1612 Z0.7704
 X0.1603 Z0.7732
 X0.1598 Z0.7744
 X0.1593 Z0.7754
 X0.1583 Z0.7773
 X0.1574 Z0.7790
 X0.1564 Z0.7805
 X0.1559 Z0.7812
 X0.1557 Z0.7815
 X0.1556 Z0.7817
 X0.1554 Z0.7818
 X0.1535 Z0.7843
 X0.1525 Z0.7853
 X0.1516 Z0.7864
 X0.1511 Z0.7869
 X0.1506 Z0.7873
 X0.1504 Z0.7876
 X0.1502 Z0.7877
 X0.1501 Z0.7878
 X0.1496 Z0.7881
 X0.1477 Z0.7892
 X0.1438 Z0.7912
 X0.1419 Z0.7920
 X0.1399 Z0.7928
 X0.1322 Z0.7954
 X0.1283 Z0.7964
 X0.1245 Z0.7972
 X0.1167 Z0.7985
 X0.1090 Z0.7993
 X0.0935 Z0.7994
 X0.0625
G0 Z1.0000
G0 Z1.0000
M2 (end program)
