;PYCAM-META-DATA: Filename: /home/abarry/MIT/RLG/robotlib3/robots/Plane/CAD/Rev3/CAM/launchingAttachmentNew.stl
;PYCAM-META-DATA: Timestamp: 2012-03-13 19:58:06.647379
;PYCAM-META-DATA: Version: 0.5.1
;Estimated machine time: 16 minutes
G40 (disable tool radius compensation)
G49 (disable tool length compensation)
G80 (cancel modal motion)
G54 (select coordinate system 1)
G90 (disable incremental moves)
G20 (imperial)
G64 (continuous mode with maximum speed)
F1.00000
S1000.00000
;PYCAM_TOOLPATH_SETTINGS: START
;[Bounds]
;maxz = 0.814690710011
;maxx = 0.787500020023
;maxy = 1.48750002002
;minx = 0.0625
;miny = 0.0625
;minz = 0.0
;
;[Tool]
;torus_radius = 0.00984251968504
;speed = 1000.0
;shape = CylindricalCutter
;tool_radius = 0.0625
;feedrate = 1.0
;
;[Process]
;engrave_offset = 0.0
;step_down = 0.11811023622
;generator = DropCutter
;postprocessor = PathAccumulator
;milling_style = ignore
;material_allowance = 0.000393700787402
;pocketing_type = none
;path_direction = x
;
;PYCAM_TOOLPATH_SETTINGS: END
T3 M6
G0 Z1.0000
M3 (start spindle)
G04 P3 (wait for 3 seconds)
 X0.0625 Y0.0625
G1 Z0.8147
 X0.0779 Z0.8012
 X0.0934 Z0.7874
 X0.1088 Z0.7742
 X0.1242 Z0.7625
 X0.1396 Z0.7513
 X0.1551 Z0.7404
 X0.1705 Z0.7308
 X0.1859 Z0.7217
 X0.2013 Z0.7129
 X0.2168 Z0.7049
 X0.2322 Z0.6975
 X0.2476 Z0.6906
 X0.2630 Z0.6838
 X0.2785 Z0.6781
 X0.2939 Z0.6726
 X0.3093 Z0.6676
 X0.3247 Z0.6629
 X0.3402 Z0.6590
 X0.3556 Z0.6554
 X0.3633 Z0.6537
 X0.3796 Z0.6501
 Z0.6400
 X0.4704
 Z0.6501
 X0.4944 Z0.6553
 X0.5098 Z0.6590
 X0.5253 Z0.6629
 X0.5407 Z0.6676
 X0.5561 Z0.6726
 X0.5715 Z0.6781
 X0.5870 Z0.6838
 X0.6024 Z0.6906
 X0.6178 Z0.6976
 X0.6332 Z0.7049
 X0.6487 Z0.7129
 X0.6641 Z0.7216
 X0.6795 Z0.7308
 X0.6949 Z0.7404
 X0.7104 Z0.7513
 X0.7258 Z0.7625
 X0.7412 Z0.7742
 X0.7566 Z0.7874
 X0.7721 Z0.8012
 X0.7875 Z0.8147
G0 Z1.0000
 Y0.1575
G1 Z0.8146
 X0.7489 Z0.7801
 X0.7412 Z0.7734
 X0.6949 Z0.7397
 X0.6795 Z0.7305
 X0.6487 Z0.7124
 X0.6332 Z0.7045
 X0.5870 Z0.6832
 X0.5715 Z0.6779
 X0.5407 Z0.6673
 X0.5253 Z0.6625
 X0.4708 Z0.6498
 Z0.6400
 X0.3792
 Z0.6498
 X0.3247 Z0.6625
 X0.3093 Z0.6673
 X0.2669 Z0.6819
 X0.2630 Z0.6832
 X0.2168 Z0.7045
 X0.2013 Z0.7124
 X0.1628 Z0.7350
 X0.1551 Z0.7397
 X0.1088 Z0.7734
 X0.0934 Z0.7870
 X0.0625 Z0.8146
G0 Z1.0000
 Y0.2525
G1 Z0.6400
 X0.7875
 Y0.3475
 X0.0625
 Y0.4425
 X0.7875
 Y0.5375
 X0.0625
 Y0.6325
 X0.7875
 Y0.7275
 X0.0625
 Y0.8225
 X0.7875
 Y0.9175
 X0.0625
 Y1.0125
 X0.7875
 Y1.1075
 X0.0625
 Y1.2025
 X0.7875
 Y1.2975
 X0.0625
G0 Z1.0000
 Y1.3925
G1 Z0.8146
 X0.1011 Z0.7801
 X0.1088 Z0.7734
 X0.1551 Z0.7397
 X0.1705 Z0.7305
 X0.2013 Z0.7124
 X0.2168 Z0.7045
 X0.2630 Z0.6832
 X0.2785 Z0.6779
 X0.3093 Z0.6673
 X0.3247 Z0.6625
 X0.3792 Z0.6498
 Z0.6400
 X0.4708
 Z0.6498
 X0.5253 Z0.6625
 X0.5407 Z0.6673
 X0.5831 Z0.6819
 X0.5870 Z0.6832
 X0.6332 Z0.7045
 X0.6487 Z0.7124
 X0.6872 Z0.7350
 X0.6949 Z0.7397
 X0.7412 Z0.7734
 X0.7566 Z0.7870
 X0.7875 Z0.8146
G0 Z1.0000
 Y1.4875
G1 Z0.8147
 X0.7721 Z0.8012
 X0.7566 Z0.7874
 X0.7412 Z0.7742
 X0.7258 Z0.7625
 X0.7104 Z0.7513
 X0.6949 Z0.7404
 X0.6795 Z0.7308
 X0.6641 Z0.7217
 X0.6487 Z0.7129
 X0.6332 Z0.7049
 X0.6178 Z0.6975
 X0.6024 Z0.6906
 X0.5870 Z0.6838
 X0.5715 Z0.6781
 X0.5561 Z0.6726
 X0.5407 Z0.6676
 X0.5253 Z0.6629
 X0.5098 Z0.6590
 X0.4944 Z0.6554
 X0.4867 Z0.6537
 X0.4704 Z0.6501
 Z0.6400
 X0.3796
 Z0.6501
 X0.3556 Z0.6553
 X0.3402 Z0.6590
 X0.3247 Z0.6629
 X0.3093 Z0.6676
 X0.2939 Z0.6726
 X0.2785 Z0.6781
 X0.2630 Z0.6838
 X0.2476 Z0.6906
 X0.2322 Z0.6976
 X0.2168 Z0.7049
 X0.2013 Z0.7129
 X0.1859 Z0.7216
 X0.1705 Z0.7308
 X0.1551 Z0.7404
 X0.1396 Z0.7513
 X0.1242 Z0.7625
 X0.1088 Z0.7742
 X0.0934 Z0.7874
 X0.0779 Z0.8012
 X0.0625 Z0.8147
G0 Z1.0000
M5 (stop spindle)
G04 P3 (wait for 3 seconds)
G0 Z1.0000
M2 (end program)
