;PYCAM-META-DATA: Filename: /home/abarry/MIT/RLG/robotlib3/robots/Plane/CAD/Rev3/CAM/launchingAttachmentNew.stl
;PYCAM-META-DATA: Timestamp: 2012-03-13 20:47:46.606007
;PYCAM-META-DATA: Version: 0.5.1
;Estimated machine time: 29 minutes
G40 (disable tool radius compensation)
G49 (disable tool length compensation)
G80 (cancel modal motion)
G54 (select coordinate system 1)
G90 (disable incremental moves)
G20 (imperial)
G64 (continuous mode with maximum speed)
F2.00000
S1000.00000
;PYCAM_TOOLPATH_SETTINGS: START
;[Bounds]
;maxz = 0.814690710011
;maxx = 0.740600020023
;maxy = 1.44060002002
;minx = 0.1094
;miny = 0.1094
;minz = 0.0
;
;[Tool]
;torus_radius = 0.00984251968504
;speed = 1000.0
;shape = CylindricalCutter
;tool_radius = 0.1094
;feedrate = 2.0
;
;[Process]
;engrave_offset = 0.0
;step_down = 0.05
;generator = PushCutter
;postprocessor = SimpleCutter
;overlap_percent = 5
;milling_style = ignore
;material_allowance = 0.01
;pocketing_type = none
;path_direction = x
;
;PYCAM_TOOLPATH_SETTINGS: END
T4 M6
G0 Z1.0000
M3 (start spindle)
G04 P3 (wait for 3 seconds)
 X0.7406 Y0.2996
G1 Z0.8147
 X0.1094
 Y0.4897
 X0.7406
 Y0.6799
 X0.1094
 Y0.8701
 X0.7406
 Y1.0603
 X0.1094
 Y1.2504
 X0.7406
 Z0.7668
 X0.1094
 Y1.0603
 X0.7406
 Y0.8701
 X0.1094
 Y0.6799
 X0.7406
 Y0.4897
 X0.1094
 Y0.2996
 X0.7406
 Z0.7188
 X0.1094
 Y0.4897
 X0.7406
 Y0.6799
 X0.1094
 Y0.8701
 X0.7406
 Y1.0603
 X0.1094
 Y1.2504
 X0.7406
 Z0.6709
 X0.1094
 Y1.0603
 X0.7406
 Y0.8701
 X0.1094
 Y0.6799
 X0.7406
 Y0.4897
 X0.1094
 Y0.2996
 X0.7406
 Z0.6230
 X0.1094
 Y0.4897
 X0.7406
 Y0.6799
 X0.1094
 Y0.8701
 X0.7406
 Y1.0603
 X0.1094
 Y1.2504
 X0.7406
 Z0.5751
 X0.1094
 Y1.0603
 X0.7406
 Y0.8701
 X0.1094
 Y0.6799
 X0.7406
 Y0.4897
 X0.1094
 Y0.2996
 X0.7406
 Z0.5272
 X0.1094
 Y0.4897
 X0.7406
 Y0.6799
 X0.1094
 Y0.8701
 X0.7406
 Y1.0603
 X0.1094
 Y1.2504
 X0.7406
 Z0.4792
 X0.1094
 Y1.0603
 X0.7406
 Y0.8701
 X0.1094
 Y0.6799
 X0.7406
 Y0.4897
 X0.1094
 Y0.2996
 X0.7406
 Z0.4313
 X0.1094
 Y0.4897
 X0.7406
 Y0.6799
 X0.1094
 Y0.8701
 X0.7406
 Y1.0603
 X0.1094
 Y1.2504
 X0.7406
 Z0.3834
 X0.1094
 Y1.0603
 X0.7406
 Y0.8701
 X0.1094
 Y0.6799
 X0.7406
 Y0.4897
 X0.1094
 Y0.2996
 X0.7406
 Z0.3355
 X0.1094
 Y0.4897
 X0.7406
 Y0.6799
 X0.1094
 Y0.8701
 X0.7406
 Y1.0603
 X0.1094
 Y1.2504
 X0.7406
 Z0.2875
 X0.1094
 Y1.0603
 X0.7406
 Y0.8701
 X0.1094
 Y0.6799
 X0.7406
 Y0.4897
 X0.1094
 Y0.2996
 X0.7406
G0 Z1.0000
M5 (stop spindle)
G04 P3 (wait for 3 seconds)
G0 Z1.0000
M2 (end program)
