;PYCAM-META-DATA: Filename: C:\Users\abarry\Documents\CAD\Rev3\CAM\launchingAttachmentNew.stl
;PYCAM-META-DATA: Timestamp: 2012-03-13 16:29:50.417000
;PYCAM-META-DATA: Version: 0.5.1
;Estimated machine time: 2 minutes
G40 (disable tool radius compensation)
G49 (disable tool length compensation)
G80 (cancel modal motion)
G54 (select coordinate system 1)
G90 (disable incremental moves)
G20 (imperial)
G61 (exact path mode)
F20.00000
S1000.00000
;PYCAM_TOOLPATH_SETTINGS: START
;[Bounds]
;maxz = 0.814690710011
;maxx = 1.48750002002
;maxy = 0.787500020023
;minx = 0.0625
;miny = 0.0625
;minz = 0.0
;
;[Tool]
;torus_radius = 0.00984251968504
;speed = 1000.0
;shape = CylindricalCutter
;tool_radius = 0.0625
;feedrate = 20.0
;
;[Process]
;generator = DropCutter
;pocketing_type = none
;engrave_offset = 0.0
;milling_style = ignore
;path_direction = x
;step_down = 0.11811023622
;postprocessor = PathAccumulator
;overlap_percent = 60
;material_allowance = 0.0
;
;PYCAM_TOOLPATH_SETTINGS: END
T1 M6
G0 Z1.0000
 X0.0625 Y0.0625
G1 Z0.8066
 X0.0780 Z0.8037
 X0.0857 Z0.8022
 X0.0896 Z0.8015
 X0.0915 Z0.8011
 X0.0925 Z0.8009
 X0.0930 Z0.8008
 X0.0935 Z0.8007
 X0.0974 Z0.7999
 X0.0993 Z0.7995
 X0.1003 Z0.7993
 X0.1007 Z0.7992
 X0.1010
 X0.1011
 X0.1012 Z0.7991
 X0.1032 Z0.7987
 X0.1041 Z0.7985
 X0.1046 Z0.7984
 X0.1049
 X0.1050
 Z0.7983
 X0.1051
 X0.1090 Z0.8009
 X0.1128 Z0.8037
 X0.1148 Z0.8050
 X0.1167 Z0.8061
 X0.1206 Z0.8081
 X0.1225 Z0.8090
 X0.1245 Z0.8098
 X0.1283 Z0.8112
 X0.1322 Z0.8124
 X0.1361 Z0.8133
 X0.1380 Z0.8137
 X0.1399 Z0.8140
 X0.1438 Z0.8144
 X0.1477 Z0.8147
 X0.1516
 X0.1535 Z0.8146
 X0.1554 Z0.8145
 X0.1593 Z0.8141
 X0.1632 Z0.8134
 X0.1671 Z0.8126
 X0.1690 Z0.8120
 X0.1709 Z0.8115
 X0.1748 Z0.8101
 X0.1767 Z0.8093
 X0.1787 Z0.8085
 X0.1825 Z0.8065
 X0.1845 Z0.8054
 X0.1854 Z0.8048
 X0.1864 Z0.8042
 X0.1903 Z0.8015
 X0.1922 Z0.8000
 X0.1932 Z0.7992
 X0.1942 Z0.7983
 X0.1961 Z0.7965
 X0.1980 Z0.7945
 X0.2000 Z0.7924
 X0.2009 Z0.7912
 X0.2014 Z0.7906
 X0.2019 Z0.7899
 X0.2038 Z0.7872
 X0.2058 Z0.7840
 X0.2077 Z0.7802
 X0.2087 Z0.7780
 X0.2096 Z0.7755
 X0.2106 Z0.7728
 X0.2116 Z0.7694
 X0.2121 Z0.7670
 X0.2123 Z0.7652
 X0.2124 Z0.6400
 X1.3374
 X1.3379 Z0.7670
 X1.3382 Z0.7683
 X1.3384 Z0.7694
 X1.3394 Z0.7728
 X1.3399 Z0.7741
 X1.3404 Z0.7755
 X1.3423 Z0.7802
 X1.3433 Z0.7822
 X1.3442 Z0.7840
 X1.3462 Z0.7872
 X1.3471 Z0.7886
 X1.3476 Z0.7893
 X1.3481 Z0.7899
 X1.3520 Z0.7945
 X1.3539 Z0.7965
 X1.3558 Z0.7983
 X1.3597 Z0.8015
 X1.3617 Z0.8029
 X1.3626 Z0.8036
 X1.3636 Z0.8042
 X1.3675 Z0.8065
 X1.3694 Z0.8075
 X1.3713 Z0.8085
 X1.3752 Z0.8101
 X1.3771 Z0.8108
 X1.3791 Z0.8115
 X1.3829 Z0.8126
 X1.3868 Z0.8134
 X1.3907 Z0.8141
 X1.3926 Z0.8143
 X1.3946 Z0.8145
 X1.4023 Z0.8147
 X1.4101 Z0.8142
 X1.4255 Z0.8125
 X1.4410 Z0.8102
 X1.4565 Z0.8077
 X1.4720 Z0.8049
 X1.4875 Z0.8019
G0 Z1.0000
 Y0.1108
G1 Z0.7723
 X1.4101
 X1.4023 Z0.7720
 X1.3984
 X1.3965 Z0.7719
 X1.3946 Z0.7718
 X1.3907 Z0.7715
 X1.3868 Z0.7710
 X1.3829 Z0.7703
 X1.3810 Z0.7698
 X1.3791 Z0.7694
 X1.3752 Z0.7683
 X1.3713 Z0.7669
 X1.3675 Z0.7653
 X1.3655 Z0.7644
 X1.3646 Z0.7640
 X1.3636 Z0.7635
 X1.3597 Z0.7613
 X1.3578 Z0.7600
 X1.3568 Z0.7594
 X1.3558 Z0.7587
 X1.3539 Z0.7572
 X1.3520 Z0.7556
 X1.3500 Z0.7538
 X1.3491 Z0.7528
 X1.3486 Z0.7523
 X1.3483 Z0.7521
 X1.3481 Z0.7518
 X1.3462 Z0.7496
 X1.3442 Z0.7470
 X1.3433 Z0.7455
 X1.3423 Z0.7439
 X1.3413 Z0.7421
 X1.3408 Z0.7411
 X1.3404 Z0.7400
 X1.3394 Z0.7378
 X1.3389 Z0.7366
 X1.3384 Z0.7351
 X1.3379 Z0.7332
 X1.3377 Z0.7317
 X1.3376 Z0.7312
 Z0.7309
 Z0.7308
 Z0.6400
 X0.2126
 X0.2121 Z0.7332
 X0.2118 Z0.7342
 X0.2116 Z0.7351
 X0.2106 Z0.7378
 X0.2101 Z0.7388
 X0.2099 Z0.7395
 X0.2096 Z0.7400
 X0.2077 Z0.7439
 X0.2067 Z0.7455
 X0.2058 Z0.7470
 X0.2038 Z0.7496
 X0.2029 Z0.7507
 X0.2024 Z0.7513
 X0.2019 Z0.7518
 X0.1980 Z0.7556
 X0.1961 Z0.7572
 X0.1942 Z0.7587
 X0.1903 Z0.7613
 X0.1883 Z0.7624
 X0.1864 Z0.7635
 X0.1825 Z0.7653
 X0.1787 Z0.7669
 X0.1748 Z0.7683
 X0.1729 Z0.7688
 X0.1709 Z0.7694
 X0.1671 Z0.7703
 X0.1632 Z0.7710
 X0.1554 Z0.7718
 X0.1399 Z0.7723
 X0.0625
G0 Z1.0000
 Y0.1592
G1 Z0.7375
 X0.1477
 X0.1554 Z0.7370
 X0.1632 Z0.7363
 X0.1671 Z0.7358
 X0.1709 Z0.7350
 X0.1748 Z0.7342
 X0.1787 Z0.7331
 X0.1825 Z0.7318
 X0.1845 Z0.7311
 X0.1854 Z0.7307
 X0.1864 Z0.7303
 X0.1903 Z0.7285
 X0.1922 Z0.7275
 X0.1942 Z0.7265
 X0.1961 Z0.7253
 X0.1980 Z0.7240
 X0.2000 Z0.7225
 X0.2009 Z0.7218
 X0.2014 Z0.7214
 X0.2017 Z0.7211
 X0.2019 Z0.7209
 X0.2038 Z0.7191
 X0.2058 Z0.7171
 X0.2067 Z0.7159
 X0.2077 Z0.7146
 X0.2087 Z0.7131
 X0.2092 Z0.7123
 X0.2094 Z0.7119
 X0.2096 Z0.7115
 X0.2106 Z0.7095
 X0.2111 Z0.7083
 X0.2113 Z0.7077
 X0.2116 Z0.7071
 X0.2118 Z0.7064
 X0.2121 Z0.7056
 X0.2123 Z0.7045
 X0.2124 Z0.7041
 Z0.7038
 Z0.7037
 Z0.6400
 X1.3374
 X1.3377 Z0.7045
 X1.3378 Z0.7051
 X1.3379 Z0.7056
 X1.3382 Z0.7064
 X1.3384 Z0.7071
 X1.3394 Z0.7095
 X1.3399 Z0.7105
 X1.3401 Z0.7110
 X1.3404 Z0.7115
 X1.3423 Z0.7146
 X1.3433 Z0.7159
 X1.3442 Z0.7171
 X1.3462 Z0.7191
 X1.3471 Z0.7201
 X1.3476 Z0.7205
 X1.3481 Z0.7209
 X1.3520 Z0.7240
 X1.3539 Z0.7253
 X1.3558 Z0.7265
 X1.3597 Z0.7285
 X1.3617 Z0.7295
 X1.3636 Z0.7303
 X1.3675 Z0.7318
 X1.3713 Z0.7331
 X1.3752 Z0.7342
 X1.3791 Z0.7350
 X1.3868 Z0.7363
 X1.3946 Z0.7370
 X1.4101 Z0.7375
 X1.4875
G0 Z1.0000
 Y0.2075
G1 Z0.7092
 X1.4101
 X1.3946 Z0.7087
 X1.3868 Z0.7081
 X1.3829 Z0.7076
 X1.3791 Z0.7071
 X1.3713 Z0.7055
 X1.3675 Z0.7045
 X1.3655 Z0.7040
 X1.3636 Z0.7034
 X1.3597 Z0.7020
 X1.3578 Z0.7012
 X1.3558 Z0.7003
 X1.3520 Z0.6984
 X1.3500 Z0.6973
 X1.3491 Z0.6967
 X1.3486 Z0.6964
 X1.3483 Z0.6962
 X1.3482 Z0.6961
 X1.3481 Z0.6960
 X1.3462 Z0.6946
 X1.3442 Z0.6930
 X1.3433 Z0.6921
 X1.3423 Z0.6911
 X1.3413 Z0.6899
 X1.3408 Z0.6893
 X1.3406 Z0.6890
 X1.3404 Z0.6886
 X1.3399 Z0.6879
 X1.3394 Z0.6870
 X1.3389 Z0.6861
 X1.3387 Z0.6855
 X1.3384 Z0.6849
 X1.3382 Z0.6843
 X1.3379 Z0.6834
 X1.3377 Z0.6825
 X1.3376 Z0.6822
 Z0.6820
 Z0.6819
 Z0.6400
 X0.2126
 X0.2123 Z0.6825
 X0.2121 Z0.6834
 X0.2118 Z0.6843
 X0.2117 Z0.6846
 X0.2116 Z0.6849
 X0.2111 Z0.6861
 X0.2106 Z0.6870
 X0.2101 Z0.6879
 X0.2099 Z0.6883
 X0.2096 Z0.6886
 X0.2077 Z0.6911
 X0.2067 Z0.6921
 X0.2058 Z0.6930
 X0.2038 Z0.6946
 X0.2029 Z0.6953
 X0.2019 Z0.6960
 X0.1980 Z0.6984
 X0.1961 Z0.6994
 X0.1942 Z0.7003
 X0.1903 Z0.7020
 X0.1864 Z0.7034
 X0.1787 Z0.7055
 X0.1709 Z0.7071
 X0.1554 Z0.7087
 X0.1399 Z0.7092
 X0.0625
G0 Z1.0000
 Y0.2558
G1 Z0.6868
 X0.1245
 X0.1399 Z0.6863
 X0.1477 Z0.6865
 X0.1554 Z0.6864
 X0.1632 Z0.6859
 X0.1709 Z0.6849
 X0.1787 Z0.6834
 X0.1825 Z0.6826
 X0.1845 Z0.6821
 X0.1864 Z0.6817
 X0.1903 Z0.6806
 X0.1942 Z0.6794
 X0.1980 Z0.6780
 X0.2000 Z0.6771
 X0.2009 Z0.6767
 X0.2014 Z0.6764
 X0.2017 Z0.6763
 X0.2018
 X0.2019 Z0.6762
 X0.2038 Z0.6751
 X0.2058 Z0.6739
 X0.2067 Z0.6732
 X0.2077 Z0.6725
 X0.2087 Z0.6716
 X0.2092 Z0.6712
 X0.2094 Z0.6709
 X0.2095 Z0.6708
 X0.2096 Z0.6707
 X0.2101 Z0.6701
 X0.2104 Z0.6698
 X0.2106 Z0.6695
 X0.2111 Z0.6688
 X0.2113 Z0.6684
 X0.2115 Z0.6682
 X0.2116 Z0.6679
 X0.2118 Z0.6674
 X0.2119 Z0.6671
 X0.2121 Z0.6668
 X0.2122 Z0.6664
 X0.2123 Z0.6659
 X0.2124 Z0.6636
 X0.2125
 Z0.6400
 X1.3374
 X1.3377 Z0.6659
 X1.3378 Z0.6664
 X1.3379 Z0.6668
 X1.3382 Z0.6674
 X1.3383 Z0.6677
 X1.3384 Z0.6679
 X1.3389 Z0.6688
 X1.3394 Z0.6695
 X1.3399 Z0.6701
 X1.3401 Z0.6704
 X1.3404 Z0.6707
 X1.3423 Z0.6725
 X1.3433 Z0.6732
 X1.3442 Z0.6739
 X1.3462 Z0.6751
 X1.3471 Z0.6757
 X1.3481 Z0.6762
 X1.3520 Z0.6780
 X1.3558 Z0.6794
 X1.3636 Z0.6817
 X1.3713 Z0.6834
 X1.3752 Z0.6842
 X1.3791 Z0.6849
 X1.3946 Z0.6864
 X1.4101 Z0.6868
 X1.4875
G0 Z1.0000
 Y0.3042
G1 Z0.6692
 X1.4101
 X1.3946 Z0.6690
 X1.3868 Z0.6686
 X1.3791 Z0.6679
 X1.3713 Z0.6667
 X1.3636 Z0.6651
 X1.3558 Z0.6631
 X1.3520 Z0.6621
 X1.3500 Z0.6615
 X1.3491 Z0.6612
 X1.3486 Z0.6610
 X1.3483
 X1.3482 Z0.6609
 X1.3481
 X1.3442 Z0.6593
 X1.3433 Z0.6589
 X1.3423 Z0.6583
 X1.3413 Z0.6578
 X1.3408 Z0.6574
 X1.3406 Z0.6573
 X1.3405 Z0.6572
 X1.3404 Z0.6571
 X1.3399 Z0.6567
 X1.3396 Z0.6565
 X1.3394 Z0.6563
 X1.3391 Z0.6561
 X1.3389 Z0.6558
 X1.3387 Z0.6555
 X1.3385 Z0.6554
 Z0.6553
 X1.3384
 Z0.6552
 X1.3382 Z0.6549
 X1.3381 Z0.6547
 X1.3380 Z0.6546
 X1.3379 Z0.6544
 X1.3378 Z0.6542
 Z0.6540
 X1.3377 Z0.6539
 X1.3376 Z0.6537
 Z0.6536
 Z0.6535
 Z0.6400
 X0.2124
 Z0.6537
 X0.2123 Z0.6539
 X0.2122 Z0.6542
 X0.2121 Z0.6543
 Z0.6544
 X0.2118 Z0.6549
 X0.2117 Z0.6551
 X0.2116
 Z0.6552
 X0.2111 Z0.6558
 X0.2109 Z0.6561
 X0.2106 Z0.6563
 X0.2101 Z0.6567
 X0.2099 Z0.6569
 X0.2096 Z0.6571
 X0.2077 Z0.6583
 X0.2067 Z0.6589
 X0.2058 Z0.6593
 X0.2038 Z0.6602
 X0.2019 Z0.6609
 X0.1942 Z0.6631
 X0.1864 Z0.6651
 X0.1787 Z0.6667
 X0.1709 Z0.6679
 X0.1554 Z0.6690
 X0.1399 Z0.6688
 X0.1245 Z0.6687
 X0.1090 Z0.6691
 X0.0935 Z0.6692
 X0.0625
G0 Z1.0000
 Y0.3525
G1 Z0.6559
 X0.0780 Z0.6560
 X0.0935 Z0.6559
 X0.1090 Z0.6558
 X0.1245
 X0.1399
 X0.1554 Z0.6560
 X0.1709 Z0.6552
 X0.1787 Z0.6544
 X0.1825 Z0.6539
 X0.1845 Z0.6536
 X0.1854 Z0.6535
 X0.1859 Z0.6534
 X0.1862 Z0.6533
 X0.1863
 X0.1864
 X0.1903 Z0.6526
 X0.1922 Z0.6522
 X0.1932 Z0.6520
 X0.1937 Z0.6519
 X0.1939 Z0.6518
 X0.1940
 X0.1941
 X0.1942
 X0.1961 Z0.6513
 X0.1971 Z0.6510
 X0.1975 Z0.6509
 X0.1978 Z0.6508
 X0.1979
 X0.1980
 X0.1990 Z0.6505
 X0.1995 Z0.6503
 X0.1997
 X0.1998 Z0.6502
 X0.1999
 X0.2000
 X0.2005 Z0.6500
 X0.2007
 X0.2008 Z0.6499
 X0.2009
 X0.2011 Z0.6498
 X0.2012
 X0.2013 Z0.6400
 X1.3487
 Z0.6498
 X1.3488
 X1.3491 Z0.6499
 X1.3495 Z0.6500
 X1.3500 Z0.6502
 X1.3520 Z0.6508
 X1.3539 Z0.6513
 X1.3558 Z0.6518
 X1.3636 Z0.6533
 X1.3791 Z0.6552
 X1.3946 Z0.6560
 X1.4101 Z0.6559
 X1.4720
 X1.4875 Z0.6560
G0 Z1.0000
 Y0.4008
G1 Z0.6400
 X0.0625
 Y0.4492
 X1.4875
G0 Z1.0000
 Y0.4975
G1 Z0.6559
 X1.4720 Z0.6560
 X1.4565 Z0.6559
 X1.4410 Z0.6558
 X1.4255
 X1.4101
 X1.3946 Z0.6560
 X1.3791 Z0.6552
 X1.3713 Z0.6544
 X1.3675 Z0.6539
 X1.3655 Z0.6536
 X1.3646 Z0.6535
 X1.3641 Z0.6534
 X1.3638 Z0.6533
 X1.3637
 X1.3636
 X1.3597 Z0.6526
 X1.3578 Z0.6522
 X1.3568 Z0.6520
 X1.3563 Z0.6519
 X1.3561 Z0.6518
 X1.3560
 X1.3559
 X1.3558
 X1.3539 Z0.6513
 X1.3529 Z0.6510
 X1.3525 Z0.6509
 X1.3522 Z0.6508
 X1.3521
 X1.3520
 X1.3510 Z0.6505
 X1.3505 Z0.6503
 X1.3503
 X1.3502 Z0.6502
 X1.3501
 X1.3500
 X1.3495 Z0.6500
 X1.3493
 X1.3492 Z0.6499
 X1.3491
 X1.3489 Z0.6498
 X1.3488
 X1.3487 Z0.6400
 X0.2013
 Z0.6498
 X0.2012
 X0.2009 Z0.6499
 X0.2005 Z0.6500
 X0.2000 Z0.6502
 X0.1980 Z0.6508
 X0.1961 Z0.6513
 X0.1942 Z0.6518
 X0.1864 Z0.6533
 X0.1709 Z0.6552
 X0.1554 Z0.6560
 X0.1399 Z0.6559
 X0.0780
 X0.0625 Z0.6560
G0 Z1.0000
 Y0.5458
G1 Z0.6692
 X0.1399
 X0.1554 Z0.6690
 X0.1632 Z0.6686
 X0.1709 Z0.6679
 X0.1787 Z0.6667
 X0.1864 Z0.6651
 X0.1942 Z0.6631
 X0.1980 Z0.6621
 X0.2000 Z0.6615
 X0.2009 Z0.6612
 X0.2014 Z0.6610
 X0.2017
 X0.2018 Z0.6609
 X0.2019
 X0.2058 Z0.6593
 X0.2067 Z0.6589
 X0.2077 Z0.6583
 X0.2087 Z0.6578
 X0.2092 Z0.6574
 X0.2094 Z0.6573
 X0.2095 Z0.6572
 X0.2096 Z0.6571
 X0.2101 Z0.6567
 X0.2104 Z0.6565
 X0.2106 Z0.6563
 X0.2109 Z0.6561
 X0.2111 Z0.6558
 X0.2113 Z0.6555
 X0.2115 Z0.6554
 Z0.6553
 X0.2116
 Z0.6552
 X0.2118 Z0.6549
 X0.2119 Z0.6547
 X0.2120 Z0.6546
 X0.2121 Z0.6544
 X0.2122 Z0.6542
 Z0.6540
 X0.2123 Z0.6539
 X0.2124 Z0.6537
 Z0.6536
 Z0.6535
 Z0.6400
 X1.3376
 Z0.6537
 X1.3377 Z0.6539
 X1.3378 Z0.6542
 X1.3379 Z0.6543
 Z0.6544
 X1.3382 Z0.6549
 X1.3383 Z0.6551
 X1.3384
 Z0.6552
 X1.3389 Z0.6558
 X1.3391 Z0.6561
 X1.3394 Z0.6563
 X1.3399 Z0.6567
 X1.3401 Z0.6569
 X1.3404 Z0.6571
 X1.3423 Z0.6583
 X1.3433 Z0.6589
 X1.3442 Z0.6593
 X1.3462 Z0.6602
 X1.3481 Z0.6609
 X1.3558 Z0.6631
 X1.3636 Z0.6651
 X1.3713 Z0.6667
 X1.3791 Z0.6679
 X1.3946 Z0.6690
 X1.4101 Z0.6688
 X1.4255 Z0.6687
 X1.4410 Z0.6691
 X1.4565 Z0.6692
 X1.4875
G0 Z1.0000
 Y0.5942
G1 Z0.6868
 X1.4255
 X1.4101 Z0.6863
 X1.4023 Z0.6865
 X1.3946 Z0.6864
 X1.3868 Z0.6859
 X1.3791 Z0.6849
 X1.3713 Z0.6834
 X1.3675 Z0.6826
 X1.3655 Z0.6821
 X1.3636 Z0.6817
 X1.3597 Z0.6806
 X1.3558 Z0.6794
 X1.3520 Z0.6780
 X1.3500 Z0.6771
 X1.3491 Z0.6767
 X1.3486 Z0.6764
 X1.3483 Z0.6763
 X1.3482
 X1.3481 Z0.6762
 X1.3462 Z0.6751
 X1.3442 Z0.6739
 X1.3433 Z0.6732
 X1.3423 Z0.6725
 X1.3413 Z0.6716
 X1.3408 Z0.6712
 X1.3406 Z0.6709
 X1.3405 Z0.6708
 X1.3404 Z0.6707
 X1.3399 Z0.6701
 X1.3396 Z0.6698
 X1.3394 Z0.6695
 X1.3389 Z0.6688
 X1.3387 Z0.6684
 X1.3385 Z0.6682
 X1.3384 Z0.6679
 X1.3382 Z0.6674
 X1.3381 Z0.6671
 X1.3379 Z0.6668
 X1.3378 Z0.6664
 X1.3377 Z0.6659
 X1.3376 Z0.6636
 X1.3375
 Z0.6400
 X0.2126
 X0.2123 Z0.6659
 X0.2122 Z0.6664
 X0.2121 Z0.6668
 X0.2118 Z0.6674
 X0.2117 Z0.6677
 X0.2116 Z0.6679
 X0.2111 Z0.6688
 X0.2106 Z0.6695
 X0.2101 Z0.6701
 X0.2099 Z0.6704
 X0.2096 Z0.6707
 X0.2077 Z0.6725
 X0.2067 Z0.6732
 X0.2058 Z0.6739
 X0.2038 Z0.6751
 X0.2029 Z0.6757
 X0.2019 Z0.6762
 X0.1980 Z0.6780
 X0.1942 Z0.6794
 X0.1864 Z0.6817
 X0.1787 Z0.6834
 X0.1748 Z0.6842
 X0.1709 Z0.6849
 X0.1554 Z0.6864
 X0.1399 Z0.6868
 X0.0625
G0 Z1.0000
 Y0.6425
G1 Z0.7092
 X0.1399
 X0.1554 Z0.7087
 X0.1632 Z0.7081
 X0.1671 Z0.7076
 X0.1709 Z0.7071
 X0.1787 Z0.7055
 X0.1825 Z0.7045
 X0.1845 Z0.7040
 X0.1864 Z0.7034
 X0.1903 Z0.7020
 X0.1922 Z0.7012
 X0.1942 Z0.7003
 X0.1980 Z0.6984
 X0.2000 Z0.6973
 X0.2009 Z0.6967
 X0.2014 Z0.6964
 X0.2017 Z0.6962
 X0.2018 Z0.6961
 X0.2019 Z0.6960
 X0.2038 Z0.6946
 X0.2058 Z0.6930
 X0.2067 Z0.6921
 X0.2077 Z0.6911
 X0.2087 Z0.6899
 X0.2092 Z0.6893
 X0.2094 Z0.6890
 X0.2096 Z0.6886
 X0.2101 Z0.6879
 X0.2106 Z0.6870
 X0.2111 Z0.6861
 X0.2113 Z0.6855
 X0.2116 Z0.6849
 X0.2118 Z0.6843
 X0.2121 Z0.6834
 X0.2123 Z0.6825
 X0.2124 Z0.6822
 Z0.6820
 Z0.6819
 Z0.6400
 X1.3374
 X1.3377 Z0.6825
 X1.3379 Z0.6834
 X1.3382 Z0.6843
 X1.3383 Z0.6846
 X1.3384 Z0.6849
 X1.3389 Z0.6861
 X1.3394 Z0.6870
 X1.3399 Z0.6879
 X1.3401 Z0.6883
 X1.3404 Z0.6886
 X1.3423 Z0.6911
 X1.3433 Z0.6921
 X1.3442 Z0.6930
 X1.3462 Z0.6946
 X1.3471 Z0.6953
 X1.3481 Z0.6960
 X1.3520 Z0.6984
 X1.3539 Z0.6994
 X1.3558 Z0.7003
 X1.3597 Z0.7020
 X1.3636 Z0.7034
 X1.3713 Z0.7055
 X1.3791 Z0.7071
 X1.3946 Z0.7087
 X1.4101 Z0.7092
 X1.4875
G0 Z1.0000
 Y0.6908
G1 Z0.7375
 X1.4023
 X1.3946 Z0.7370
 X1.3868 Z0.7363
 X1.3829 Z0.7358
 X1.3791 Z0.7350
 X1.3752 Z0.7342
 X1.3713 Z0.7331
 X1.3675 Z0.7318
 X1.3655 Z0.7311
 X1.3646 Z0.7307
 X1.3636 Z0.7303
 X1.3597 Z0.7285
 X1.3578 Z0.7275
 X1.3558 Z0.7265
 X1.3539 Z0.7253
 X1.3520 Z0.7240
 X1.3500 Z0.7225
 X1.3491 Z0.7218
 X1.3486 Z0.7214
 X1.3483 Z0.7211
 X1.3481 Z0.7209
 X1.3462 Z0.7191
 X1.3442 Z0.7171
 X1.3433 Z0.7159
 X1.3423 Z0.7146
 X1.3413 Z0.7131
 X1.3408 Z0.7123
 X1.3406 Z0.7119
 X1.3404 Z0.7115
 X1.3394 Z0.7095
 X1.3389 Z0.7083
 X1.3387 Z0.7077
 X1.3384 Z0.7071
 X1.3382 Z0.7064
 X1.3379 Z0.7056
 X1.3377 Z0.7045
 X1.3376 Z0.7041
 Z0.7038
 Z0.7037
 Z0.6400
 X0.2126
 X0.2123 Z0.7045
 X0.2122 Z0.7051
 X0.2121 Z0.7056
 X0.2118 Z0.7064
 X0.2116 Z0.7071
 X0.2106 Z0.7095
 X0.2101 Z0.7105
 X0.2099 Z0.7110
 X0.2096 Z0.7115
 X0.2077 Z0.7146
 X0.2067 Z0.7159
 X0.2058 Z0.7171
 X0.2038 Z0.7191
 X0.2029 Z0.7201
 X0.2024 Z0.7205
 X0.2019 Z0.7209
 X0.1980 Z0.7240
 X0.1961 Z0.7253
 X0.1942 Z0.7265
 X0.1903 Z0.7285
 X0.1883 Z0.7295
 X0.1864 Z0.7303
 X0.1825 Z0.7318
 X0.1787 Z0.7331
 X0.1748 Z0.7342
 X0.1709 Z0.7350
 X0.1632 Z0.7363
 X0.1554 Z0.7370
 X0.1399 Z0.7375
 X0.0625
G0 Z1.0000
 Y0.7392
G1 Z0.7723
 X0.1399
 X0.1477 Z0.7720
 X0.1516
 X0.1535 Z0.7719
 X0.1554 Z0.7718
 X0.1593 Z0.7715
 X0.1632 Z0.7710
 X0.1671 Z0.7703
 X0.1690 Z0.7698
 X0.1709 Z0.7694
 X0.1748 Z0.7683
 X0.1787 Z0.7669
 X0.1825 Z0.7653
 X0.1845 Z0.7644
 X0.1854 Z0.7640
 X0.1864 Z0.7635
 X0.1903 Z0.7613
 X0.1922 Z0.7600
 X0.1932 Z0.7594
 X0.1942 Z0.7587
 X0.1961 Z0.7572
 X0.1980 Z0.7556
 X0.2000 Z0.7538
 X0.2009 Z0.7528
 X0.2014 Z0.7523
 X0.2017 Z0.7521
 X0.2019 Z0.7518
 X0.2038 Z0.7496
 X0.2058 Z0.7470
 X0.2067 Z0.7455
 X0.2077 Z0.7439
 X0.2087 Z0.7421
 X0.2092 Z0.7411
 X0.2096 Z0.7400
 X0.2106 Z0.7378
 X0.2111 Z0.7366
 X0.2116 Z0.7351
 X0.2121 Z0.7332
 X0.2123 Z0.7317
 X0.2124 Z0.7312
 Z0.7309
 Z0.7308
 Z0.6400
 X1.3374
 X1.3379 Z0.7332
 X1.3382 Z0.7342
 X1.3384 Z0.7351
 X1.3394 Z0.7378
 X1.3399 Z0.7388
 X1.3401 Z0.7395
 X1.3404 Z0.7400
 X1.3423 Z0.7439
 X1.3433 Z0.7455
 X1.3442 Z0.7470
 X1.3462 Z0.7496
 X1.3471 Z0.7507
 X1.3476 Z0.7513
 X1.3481 Z0.7518
 X1.3520 Z0.7556
 X1.3539 Z0.7572
 X1.3558 Z0.7587
 X1.3597 Z0.7613
 X1.3617 Z0.7624
 X1.3636 Z0.7635
 X1.3675 Z0.7653
 X1.3713 Z0.7669
 X1.3752 Z0.7682
 X1.3771 Z0.7688
 X1.3791 Z0.7694
 X1.3829 Z0.7703
 X1.3868 Z0.7710
 X1.3946 Z0.7718
 X1.4101 Z0.7723
 X1.4875
G0 Z1.0000
 Y0.7875
G1 Z0.8066
 X1.4720 Z0.8037
 X1.4643 Z0.8022
 X1.4604 Z0.8015
 X1.4585 Z0.8011
 X1.4575 Z0.8009
 X1.4570 Z0.8008
 X1.4565 Z0.8007
 X1.4526 Z0.7999
 X1.4507 Z0.7995
 X1.4497 Z0.7993
 X1.4493 Z0.7992
 X1.4490
 X1.4489
 X1.4488 Z0.7991
 X1.4468 Z0.7987
 X1.4459 Z0.7985
 X1.4454 Z0.7984
 X1.4451
 X1.4450
 Z0.7983
 X1.4449
 X1.4410 Z0.8009
 X1.4372 Z0.8037
 X1.4352 Z0.8050
 X1.4333 Z0.8061
 X1.4294 Z0.8081
 X1.4275 Z0.8090
 X1.4255 Z0.8098
 X1.4217 Z0.8112
 X1.4178 Z0.8124
 X1.4139 Z0.8133
 X1.4120 Z0.8137
 X1.4101 Z0.8140
 X1.4062 Z0.8144
 X1.4023 Z0.8147
 X1.3984
 X1.3965 Z0.8146
 X1.3946 Z0.8145
 X1.3907 Z0.8141
 X1.3868 Z0.8134
 X1.3829 Z0.8126
 X1.3810 Z0.8120
 X1.3791 Z0.8115
 X1.3752 Z0.8101
 X1.3733 Z0.8093
 X1.3713 Z0.8085
 X1.3675 Z0.8065
 X1.3655 Z0.8054
 X1.3646 Z0.8048
 X1.3636 Z0.8042
 X1.3597 Z0.8015
 X1.3578 Z0.8000
 X1.3568 Z0.7992
 X1.3558 Z0.7983
 X1.3539 Z0.7965
 X1.3520 Z0.7945
 X1.3500 Z0.7924
 X1.3491 Z0.7912
 X1.3486 Z0.7906
 X1.3481 Z0.7899
 X1.3462 Z0.7872
 X1.3442 Z0.7840
 X1.3423 Z0.7802
 X1.3413 Z0.7780
 X1.3404 Z0.7755
 X1.3394 Z0.7728
 X1.3384 Z0.7694
 X1.3379 Z0.7670
 X1.3377 Z0.7652
 X1.3376 Z0.6400
 X0.2126
 X0.2121 Z0.7670
 X0.2118 Z0.7683
 X0.2116 Z0.7694
 X0.2106 Z0.7728
 X0.2101 Z0.7741
 X0.2096 Z0.7755
 X0.2077 Z0.7802
 X0.2067 Z0.7822
 X0.2058 Z0.7840
 X0.2038 Z0.7872
 X0.2029 Z0.7886
 X0.2024 Z0.7893
 X0.2019 Z0.7899
 X0.1980 Z0.7945
 X0.1961 Z0.7965
 X0.1942 Z0.7983
 X0.1903 Z0.8015
 X0.1883 Z0.8029
 X0.1874 Z0.8036
 X0.1864 Z0.8042
 X0.1825 Z0.8065
 X0.1806 Z0.8075
 X0.1787 Z0.8085
 X0.1748 Z0.8101
 X0.1729 Z0.8108
 X0.1709 Z0.8115
 X0.1671 Z0.8126
 X0.1632 Z0.8134
 X0.1593 Z0.8141
 X0.1574 Z0.8143
 X0.1554 Z0.8145
 X0.1477 Z0.8147
 X0.1399 Z0.8142
 X0.1245 Z0.8125
 X0.1090 Z0.8102
 X0.0935 Z0.8077
 X0.0780 Z0.8049
 X0.0625 Z0.8019
G0 Z1.0000
G0 Z1.0000
M2 (end program)
