;PYCAM-META-DATA: Filename: /home/abarry/MIT/RLG/robotlib3/robots/Plane/CAD/Rev3/CAM/launchingAttachmentNew.stl
;PYCAM-META-DATA: Timestamp: 2012-03-13 20:14:00.684254
;PYCAM-META-DATA: Version: 0.5.1
;Estimated machine time: 18 minutes
G40 (disable tool radius compensation)
G49 (disable tool length compensation)
G80 (cancel modal motion)
G54 (select coordinate system 1)
G90 (disable incremental moves)
G20 (imperial)
G64 (continuous mode with maximum speed)
F1.00000
S1000.00000
;PYCAM_TOOLPATH_SETTINGS: START
;[Bounds]
;maxz = 0.814690710011
;maxx = 1.54950002082
;maxy = 0.821500020824
;minx = 0.00049999919908
;miny = 0.0284999991991
;minz = 0.0
;
;[Tool]
;torus_radius = 0.00984251968504
;speed = 1000.0
;shape = CylindricalCutter
;tool_radius = 0.0625
;feedrate = 1.0
;
;[Process]
;engrave_offset = 0.0
;step_down = 0.11811023622
;generator = DropCutter
;postprocessor = PathAccumulator
;milling_style = ignore
;material_allowance = 0.000393700787402
;pocketing_type = none
;path_direction = y
;
;PYCAM_TOOLPATH_SETTINGS: END
T3 M6
G0 Z1.0000
M3 (start spindle)
G04 P3 (wait for 3 seconds)
 X0.0005 Y0.0285
G1 Z0.8147
 Y0.0629
 Y0.0630 Z0.8146
 Y0.0635 Z0.8142
 Y0.0907 Z0.7898
 Y0.1062 Z0.7763
 Y0.1218 Z0.7643
 Y0.1373 Z0.7529
 Y0.1529 Z0.7419
 Y0.1684 Z0.7320
 Y0.1840 Z0.7228
 Y0.1995 Z0.7139
 Y0.2151 Z0.7054
 Y0.2306 Z0.6983
 Y0.2462 Z0.6912
 Y0.2617 Z0.6844
 Y0.2773 Z0.6785
 Y0.2928 Z0.6731
 Y0.3084 Z0.6679
 Y0.3239 Z0.6628
 Y0.3550 Z0.6555
 Y0.3628 Z0.6538
 Y0.3796 Z0.6501
 Z0.6400
 Y0.4704
 Z0.6501
 Y0.4705
 Z0.6498
 Y0.4706
 Y0.4707
 Y0.4716 Z0.6501
 Y0.4950 Z0.6555
 Y0.5105 Z0.6592
 Y0.5261 Z0.6631
 Y0.5416 Z0.6678
 Y0.5572 Z0.6731
 Y0.5727 Z0.6786
 Y0.5844 Z0.6828
 Y0.5863 Z0.6835
 Y0.5864 Z0.6831
 Z0.6832
 Y0.5865
 Y0.5866
 Y0.5868 Z0.6834
 Y0.6194 Z0.6983
 Y0.6349 Z0.7057
 Y0.6505 Z0.7137
 Y0.6660 Z0.7228
 Y0.6816 Z0.7321
 Y0.6971 Z0.7416
 Y0.7127 Z0.7529
 Y0.7282 Z0.7643
 Y0.7419 Z0.7747
 Z0.7743
 Y0.7421 Z0.7744
 Y0.7423 Z0.7746
 Y0.7425 Z0.7748
 Y0.7710 Z0.8002
 Y0.7729 Z0.8020
 Y0.7865 Z0.8146
 Y0.7904 Z0.8147
 Y0.8215
 X0.0973
 Y0.7871
 Z0.8083
 Y0.7870
G0 Z1.0000
 Y0.7865
G1 Z0.8146
 Y0.7749 Z0.8038
 Y0.7593 Z0.7897
 Y0.7438 Z0.7763
 Y0.7282 Z0.7643
 Y0.7127 Z0.7529
 Y0.6971 Z0.7419
 Y0.6816 Z0.7321
 Y0.6660 Z0.7227
 Y0.6505 Z0.7139
 Y0.6349 Z0.7057
 Y0.6194 Z0.6980
 Y0.6038 Z0.6912
 Y0.5883 Z0.6844
 Y0.5727 Z0.6786
 Y0.5572 Z0.6730
 Y0.5416 Z0.6679
 Y0.5261 Z0.6631
 Y0.5105 Z0.6592
 Y0.4950 Z0.6555
 Y0.4704 Z0.6501
 Z0.6400
 Y0.3796
 Z0.6501
 Y0.3706 Z0.6521
 Y0.3550 Z0.6554
 Y0.3395 Z0.6592
 Y0.3239 Z0.6631
 Y0.3084 Z0.6679
 Y0.2928 Z0.6730
 Y0.2773 Z0.6786
 Y0.2617 Z0.6844
 Y0.2462 Z0.6912
 Y0.2306 Z0.6982
 Y0.2151 Z0.7057
 Y0.1995 Z0.7139
 Y0.1840 Z0.7226
 Y0.1684 Z0.7321
 Y0.1529 Z0.7419
 Y0.1373 Z0.7527
 Y0.1218 Z0.7643
 Y0.1062 Z0.7763
 Y0.0907 Z0.7897
 Y0.0829 Z0.7966
 Y0.0635 Z0.8146
 Y0.0596 Z0.8147
 Y0.0285
 X0.1941
 Y0.0440
 Y0.0596 Z0.8015
 Y0.0829 Z0.7806
 Y0.0907 Z0.7738
 Y0.1373 Z0.7398
 Y0.1529 Z0.7305
 Y0.1840 Z0.7123
 Y0.1995 Z0.7043
 Y0.2384 Z0.6864
 Y0.2462 Z0.6829
 Y0.2928 Z0.6669
 Y0.3084 Z0.6622
 Y0.3615 Z0.6498
 Y0.3616
 Z0.6400
 Y0.4884
 Z0.6498
 Y0.5416 Z0.6622
 Y0.5572 Z0.6669
 Y0.6038 Z0.6829
 Y0.6194 Z0.6900
 Y0.6505 Z0.7043
 Y0.6660 Z0.7123
 Y0.7049 Z0.7350
 Y0.7127 Z0.7398
 Y0.7593 Z0.7738
 Y0.7749 Z0.7875
 Y0.8050 Z0.8145
 Y0.8060 Z0.8147
 Y0.8215
G0 Z1.0000
 X0.2909
G1 Z0.6400
 Y0.0285
 X0.3878
 Y0.8215
 X0.4846
 Y0.0285
 X0.5814
 Y0.8215
 X0.6782
 Y0.0285
 X0.7750
 Y0.8215
 X0.8718
 Y0.0285
 X0.9686
 Y0.8215
 X1.0654
 Y0.0285
 X1.1623
 Y0.8215
 X1.2591
 Y0.0285
G0 Z1.0000
 X1.3559
G1 Z0.8147
 Y0.0440
 Y0.0596 Z0.8015
 Y0.0829 Z0.7806
 Y0.0907 Z0.7738
 Y0.1373 Z0.7398
 Y0.1529 Z0.7305
 Y0.1840 Z0.7123
 Y0.1995 Z0.7043
 Y0.2384 Z0.6864
 Y0.2462 Z0.6829
 Y0.2928 Z0.6669
 Y0.3084 Z0.6622
 Y0.3616 Z0.6498
 Z0.6400
 Y0.4884
 Z0.6498
 Y0.4885
 Y0.5416 Z0.6622
 Y0.5572 Z0.6669
 Y0.6038 Z0.6829
 Y0.6194 Z0.6900
 Y0.6505 Z0.7043
 Y0.6660 Z0.7123
 Y0.7049 Z0.7350
 Y0.7127 Z0.7398
 Y0.7593 Z0.7738
 Y0.7749 Z0.7875
 Y0.8050 Z0.8145
 Y0.8060 Z0.8147
 Y0.8215
 X1.4527
 Y0.7871
 Z0.8000
 Z0.7999
 Y0.7870
G0 Z1.0000
 Y0.7865
G1 Z0.8146
 Y0.7749 Z0.8038
 Y0.7593 Z0.7897
 Y0.7438 Z0.7763
 Y0.7282 Z0.7643
 Y0.7127 Z0.7527
 Y0.6971 Z0.7419
 Y0.6816 Z0.7321
 Y0.6660 Z0.7226
 Y0.6505 Z0.7139
 Y0.6349 Z0.7057
 Y0.6194 Z0.6982
 Y0.6038 Z0.6912
 Y0.5883 Z0.6844
 Y0.5727 Z0.6786
 Y0.5572 Z0.6730
 Y0.5416 Z0.6679
 Y0.5261 Z0.6631
 Y0.5105 Z0.6592
 Y0.4950 Z0.6554
 Y0.4872 Z0.6538
 Y0.4704 Z0.6501
 Z0.6400
 Y0.3796
 Z0.6501
 Y0.3550 Z0.6555
 Y0.3395 Z0.6592
 Y0.3239 Z0.6631
 Y0.3084 Z0.6679
 Y0.2928 Z0.6730
 Y0.2773 Z0.6786
 Y0.2617 Z0.6844
 Y0.2462 Z0.6912
 Y0.2306 Z0.6980
 Y0.2151 Z0.7057
 Y0.1995 Z0.7139
 Y0.1840 Z0.7227
 Y0.1684 Z0.7321
 Y0.1529 Z0.7419
 Y0.1373 Z0.7529
 Y0.1218 Z0.7643
 Y0.1062 Z0.7763
 Y0.0829 Z0.7965
 Y0.0790 Z0.8002
 Y0.0771 Z0.8020
 Y0.0635 Z0.8146
 Y0.0596 Z0.8147
 Y0.0285
 X1.5495
 Y0.0629
 Y0.0630 Z0.8146
 Y0.0635
 Y0.0751 Z0.8038
 Y0.0907 Z0.7898
 Y0.1062 Z0.7759
 Y0.1218 Z0.7643
 Y0.1373 Z0.7529
 Y0.1529 Z0.7416
 Y0.1684 Z0.7321
 Y0.1840 Z0.7228
 Y0.1995 Z0.7137
 Y0.2151 Z0.7057
 Y0.2306 Z0.6983
 Y0.2617 Z0.6840
 Y0.2773 Z0.6786
 Y0.2928 Z0.6731
 Y0.3084 Z0.6678
 Y0.3239 Z0.6631
 Y0.3395 Z0.6592
 Y0.3550 Z0.6555
 Y0.3792 Z0.6499
 Y0.3793
 Z0.6498
 Y0.3794
 Y0.3795
 Z0.6501
 Y0.3796
 Z0.6400
 Y0.4704
 Z0.6501
 Y0.4794 Z0.6521
 Y0.4950 Z0.6555
 Y0.5261 Z0.6628
 Y0.5416 Z0.6679
 Y0.5572 Z0.6731
 Y0.5727 Z0.6785
 Y0.5883 Z0.6844
 Y0.6038 Z0.6912
 Y0.6194 Z0.6983
 Y0.6349 Z0.7054
 Y0.6505 Z0.7139
 Y0.6660 Z0.7228
 Y0.6816 Z0.7320
 Y0.6971 Z0.7419
 Y0.7127 Z0.7529
 Y0.7282 Z0.7643
 Y0.7438 Z0.7763
 Y0.7593 Z0.7898
 Y0.7865 Z0.8142
G0 Z1.0000
 Y0.7870
G1 Z0.8146
 Y0.7871
 Z0.8147
 Y0.8215
G0 Z1.0000
M5 (stop spindle)
G04 P3 (wait for 3 seconds)
G0 Z1.0000
M2 (end program)
